Color-Correction/LUTs/GH5/Basic/IWLTBAP/U-PANASONIC-V-LOG-V1-LTR.cube
# Copyright: (C) Copyright 2010-2018 by IWLTBAP SAS
# Cannot be resold, shared or otherwise redistributed
# Website: https://luts.iwltbap.com
TITLE "Panasonic V-Log Version 1 (Utility LOG to Rec.709)"
LUT_3D_SIZE 8
DOMAIN_MIN 0.000000 0.000000 0.000000
DOMAIN_MAX 0.903226 0.903226 0.903226
0.000000 0.000000 0.000000
0.000153 0.000000 0.000000
0.072754 0.000000 0.000000
0.256348 0.000000 0.000000
0.605438 0.000000 0.000000
0.916138 0.000000 0.000000
0.999146 0.000000 0.000000
1.000000 0.000000 0.000000
0.000000 0.003662 0.000000
0.000000 0.000000 0.000000
0.078583 0.000000 0.000000
0.266785 0.000000 0.000000
0.618530 0.000000 0.000000
0.920959 0.000000 0.000000
0.999237 0.000000 0.000000
1.000000 0.000000 0.000000
0.000000 0.099701 0.000000
0.000000 0.095306 0.000000
0.071564 0.066437 0.000000
0.273315 0.027802 0.000000
0.625153 0.041382 0.000000
0.917847 0.078735 0.000000
0.999115 0.089294 0.000000
1.000000 0.066833 0.000000
0.000000 0.343109 0.000000
0.000000 0.343323 0.000000
0.043732 0.304108 0.000000
0.238190 0.231140 0.000000
0.601471 0.189240 0.000000
0.904083 0.120514 0.000000
0.998871 0.097595 0.000000
1.000000 0.093292 0.000000
0.000000 0.738464 0.029266
0.000000 0.738647 0.028107
0.045715 0.718872 0.000000
0.216248 0.638214 0.000000
0.534851 0.524750 0.000000
0.865540 0.442230 0.000000
0.994324 0.361237 0.000000
1.000000 0.323914 0.000000
0.000000 0.980591 0.077362
0.000000 0.980530 0.077271
0.000000 0.979126 0.070221
0.127960 0.951721 0.000000
0.467163 0.884979 0.000000
0.808411 0.791412 0.000000
0.981842 0.701385 0.000000
1.000000 0.669647 0.000000
0.000000 1.000000 0.080536
0.000000 1.000000 0.080475
0.000000 1.000000 0.079590
0.077576 1.000000 0.029938
0.363464 0.999146 0.000000
0.727692 0.982086 0.000000
0.955109 0.930725 0.000000
0.999817 0.899109 0.000000
0.000000 1.000000 0.067963
0.000000 1.000000 0.067841
0.000000 1.000000 0.066681
0.000000 1.000000 0.033173
0.268677 1.000000 0.000000
0.673065 1.000000 0.000000
0.927429 0.998383 0.000000
0.998840 0.977051 0.000000
0.000000 0.000000 0.000000
0.000946 0.000000 0.000000
0.074036 0.000000 0.000000
0.257965 0.000000 0.000000
0.606934 0.000000 0.016724
0.916779 0.000000 0.000000
0.999176 0.000000 0.000000
1.000000 0.000000 0.000000
0.000000 0.004425 0.000000
0.000000 0.000000 0.000000
0.079163 0.000000 0.000000
0.267914 0.000000 0.000000
0.619568 0.000000 0.000000
0.921265 0.000000 0.000000
0.999237 0.000000 0.000000
1.000000 0.000000 0.000000
0.000000 0.100189 0.006195
0.000000 0.095978 0.001038
0.071472 0.066589 0.000000
0.273682 0.027557 0.000000
0.625549 0.041290 0.000000
0.918060 0.078766 0.000000
0.999146 0.089203 0.000000
1.000000 0.066681 0.000000
0.000000 0.343170 0.000000
0.000000 0.343353 0.000000
0.043304 0.304199 0.000000
0.238190 0.231049 0.000000
0.601624 0.189087 0.000000
0.904327 0.120361 0.000000
0.998871 0.097504 0.000000
1.000000 0.093292 0.000000
0.000000 0.738495 0.044495
0.000000 0.738678 0.044128
0.036011 0.718903 0.006927
0.215973 0.638397 0.000000
0.534790 0.524719 0.000000
0.865540 0.442169 0.000000
0.994354 0.361115 0.000000
1.000000 0.323822 0.000000
0.000000 0.980530 0.079620
0.000000 0.980560 0.079559
0.000000 0.979126 0.072845
0.124329 0.951904 0.000000
0.466980 0.885071 0.000000
0.808411 0.791412 0.000000
0.981934 0.701416 0.000000
1.000000 0.669586 0.000000
0.000000 1.000000 0.081299
0.000000 1.000000 0.081238
0.000000 1.000000 0.080475
0.075623 1.000000 0.033691
0.363342 0.999146 0.000000
0.727692 0.982086 0.000000
0.955078 0.930695 0.000000
0.999817 0.899139 0.000000
0.000000 1.000000 0.069427
0.000000 1.000000 0.069336
0.000000 1.000000 0.068268
0.000000 1.000000 0.035400
0.268402 1.000000 0.000000
0.673035 1.000000 0.000000
0.927460 0.998383 0.000000
0.998871 0.977020 0.000000
0.000000 0.000000 0.033905
0.004883 0.000000 0.034912
0.078491 0.000000 0.038208
0.263611 0.000000 0.031738
0.611572 0.000000 0.037811
0.918457 0.000000 0.072479
0.999176 0.000000 0.082336
1.000000 0.000000 0.076477
0.000000 0.009705 0.056488
0.000000 0.000000 0.053802
0.081024 0.000000 0.047882
0.272034 0.000000 0.034027
0.622803 0.000000 0.036804
0.921906 0.000000 0.072205
0.999237 0.000000 0.081818
1.000000 0.000000 0.075287
0.000000 0.102783 0.089081
0.000000 0.098938 0.086914
0.070190 0.068420 0.067474
0.273682 0.019592 0.043549
0.626801 0.018646 0.023163
0.918518 0.047424 0.041565
0.999146 0.057770 0.050323
1.000000 0.037720 0.039856
0.000000 0.346283 0.143402
0.000000 0.346344 0.142853
0.028687 0.306641 0.112305
0.235382 0.231232 0.053558
0.601288 0.184143 0.021729
0.904419 0.100739 0.036621
0.998962 0.071655 0.041016
1.000000 0.068970 0.011597
0.000000 0.739960 0.199860
0.000000 0.740021 0.199036
0.024231 0.720642 0.175537
0.193542 0.639313 0.080109
0.533417 0.524719 0.007324
0.865540 0.439331 0.000000
0.994934 0.358368 0.000000
1.000000 0.321686 0.000000
0.000000 0.980652 0.149261
0.000000 0.980713 0.148010
0.000000 0.979309 0.136932
0.104736 0.952057 0.066132
0.463715 0.884979 0.013763
0.808105 0.791077 0.000000
0.981934 0.700897 0.000000
1.000000 0.669037 0.000000
0.000000 1.000000 0.100800
0.000000 1.000000 0.100677
0.000000 1.000000 0.098450
0.063049 1.000000 0.056427
0.359589 0.999146 0.006134
0.727051 0.982117 0.000000
0.955078 0.930603 0.000000
0.999817 0.899078 0.000000
0.000000 1.000000 0.084717
0.000000 1.000000 0.084686
0.000000 1.000000 0.084351
0.000000 1.000000 0.059601
0.264771 1.000000 0.000000
0.672302 1.000000 0.000000
0.927277 0.998383 0.000000
0.998840 0.976990 0.000000
0.000000 0.000000 0.144012
0.011658 0.000000 0.149109
0.091125 0.000000 0.163239
0.271667 0.000000 0.172272
0.618774 0.000000 0.180786
0.919952 0.000000 0.148987
0.999207 0.000000 0.122498
1.000000 0.000000 0.108368
0.000000 0.018372 0.182861
0.000000 0.005859 0.183624
0.092590 0.000000 0.183838
0.279358 0.000000 0.180756
0.628265 0.000000 0.183167
0.922791 0.000000 0.148621
0.999237 0.000000 0.121490
1.000000 0.000000 0.107544
0.000000 0.123901 0.252747
0.000000 0.123047 0.254456
0.070618 0.074860 0.233154
0.274292 0.020630 0.209198
0.628662 0.018555 0.202271
0.919250 0.047394 0.147583
0.999146 0.056641 0.106750
1.000000 0.035370 0.087250
0.000000 0.351105 0.322266
0.000000 0.351074 0.322266
0.025574 0.312866 0.294891
0.231445 0.233765 0.242279
0.599121 0.145630 0.205505
0.904144 0.083862 0.162933
0.998962 0.065277 0.122742
1.000000 0.061310 0.097137
0.000000 0.744629 0.420013
0.000000 0.744690 0.419617
0.016113 0.726318 0.403351
0.156647 0.644440 0.326996
0.525818 0.524628 0.215271
0.863586 0.428528 0.155365
0.997589 0.347961 0.118134
1.000000 0.311554 0.093811
0.000000 0.982086 0.426697
0.000000 0.982086 0.426208
0.000000 0.980988 0.420593
0.088501 0.957642 0.363098
0.434479 0.889984 0.242157
0.804962 0.794617 0.159271
0.985260 0.700165 0.117859
1.000000 0.668396 0.093048
0.000000 1.000000 0.391541
0.000000 1.000000 0.391205
0.000000 1.000000 0.386505
0.061493 1.000000 0.344757
0.326508 1.000000 0.221832
0.719147 0.989624 0.140625
0.956299 0.934875 0.086304
0.999847 0.902832 0.035645
0.000000 1.000000 0.291260
0.000000 1.000000 0.290833
0.000000 1.000000 0.285217
0.000000 1.000000 0.262787
0.236267 1.000000 0.148102
0.667572 1.000000 0.078735
0.927124 0.998810 0.000000
0.999207 0.977753 0.000000
0.000000 0.000000 0.383698
0.028900 0.000000 0.391388
0.121368 0.000000 0.410126
0.309326 0.000000 0.410156
0.627167 0.000000 0.420807
0.921539 0.000000 0.385834
0.999207 0.000000 0.350128
1.000000 0.000000 0.336456
0.000000 0.042694 0.433319
0.008972 0.023163 0.436188
0.119415 0.000000 0.439575
0.316864 0.000000 0.423676
0.634735 0.000000 0.426544
0.924164 0.000000 0.387756
0.999237 0.000000 0.350769
1.000000 0.000000 0.336548
0.000000 0.160217 0.532776
0.000000 0.159271 0.535583
0.074799 0.091217 0.517090
0.313843 0.032074 0.482361
0.631592 0.018951 0.459198
0.920349 0.047485 0.406525
0.999176 0.055481 0.358612
1.000000 0.033142 0.336090
0.000000 0.405182 0.624084
0.000000 0.405151 0.624878
0.037140 0.368378 0.604675
0.231354 0.245270 0.554291
0.597961 0.146515 0.500580
0.904022 0.083710 0.446564
0.998962 0.064911 0.394897
1.000000 0.060852 0.368622
0.000000 0.750214 0.699829
0.000000 0.750275 0.699982
0.011353 0.733398 0.688629
0.151184 0.652344 0.634064
0.521271 0.530243 0.553619
0.860535 0.413147 0.477661
0.997284 0.333191 0.420593
1.000000 0.290771 0.390594
0.000000 0.984344 0.722107
0.000000 0.984375 0.722015
0.000000 0.983673 0.719360
0.084503 0.960144 0.673370
0.423218 0.895172 0.595215
0.799896 0.799591 0.519745
0.984222 0.706238 0.460785
1.000000 0.671783 0.423737
0.000000 1.000000 0.715851
0.000000 1.000000 0.715637
0.000000 1.000000 0.712738
0.059753 1.000000 0.679535
0.314392 1.000000 0.589050
0.720001 0.991608 0.522797
0.953644 0.942780 0.445862
0.999817 0.909912 0.407623
0.000000 1.000000 0.662445
0.000000 1.000000 0.662262
0.000000 1.000000 0.659210
0.000000 1.000000 0.645172
0.212433 1.000000 0.551849
0.661133 1.000000 0.461975
0.923828 1.000000 0.379608
0.999390 0.984863 0.335663
0.000000 0.021149 0.698242
0.055023 0.000000 0.701965
0.147919 0.000000 0.707672
0.351410 0.000000 0.700470
0.644775 0.000000 0.672272
0.923950 0.000000 0.625885
0.999237 0.000000 0.589264
1.000000 0.000000 0.582550
0.000000 0.071320 0.728577
0.029419 0.044189 0.730713
0.139771 0.017487 0.726440
0.355133 0.000000 0.710968
0.649994 0.000000 0.678192
0.926270 0.000000 0.628143
0.999268 0.000000 0.590942
1.000000 0.000000 0.583557
0.000000 0.180786 0.800079
0.000000 0.178680 0.802307
0.083527 0.108582 0.788025
0.335297 0.049316 0.760284
0.644806 0.027435 0.714813
0.921997 0.047699 0.651703
0.999237 0.053131 0.604645
1.000000 0.029694 0.587921
0.000000 0.414673 0.870758
0.000000 0.414093 0.871338
0.054016 0.379364 0.858093
0.234436 0.258728 0.822540
0.605835 0.153412 0.770782
0.903961 0.083710 0.702271
0.998993 0.064728 0.649445
1.000000 0.060852 0.631989
0.000000 0.741241 0.934998
0.000000 0.741180 0.935181
0.031189 0.726959 0.928619
0.154938 0.652191 0.890686
0.522919 0.540649 0.834869
0.858521 0.416687 0.767029
0.997162 0.335785 0.702087
1.000000 0.292725 0.681915
0.000000 0.985565 0.962463
0.000000 0.985565 0.962463
0.000000 0.985321 0.962341
0.080475 0.962067 0.943939
0.415466 0.898285 0.888306
0.799469 0.807953 0.829681
0.982605 0.741333 0.782990
1.000000 0.709473 0.759796
0.000000 1.000000 0.970490
0.000000 1.000000 0.970428
0.000000 1.000000 0.969910
0.058838 1.000000 0.957550
0.304810 1.000000 0.901642
0.743591 0.993042 0.846619
0.951935 0.951111 0.809448
0.999756 0.928162 0.789703
0.000000 1.000000 0.961365
0.000000 1.000000 0.961365
0.000000 1.000000 0.960541
0.000000 1.000000 0.956177
0.203491 1.000000 0.902679
0.686127 1.000000 0.832245
0.930939 1.000000 0.796143
0.998291 0.994110 0.769714
0.000000 0.046295 0.904022
0.064850 0.019043 0.906311
0.155487 0.000000 0.897675
0.357147 0.000000 0.878174
0.652466 0.000000 0.843201
0.927216 0.000000 0.784698
0.999268 0.000000 0.740784
1.000000 0.000000 0.732147
0.000000 0.080322 0.914551
0.041260 0.052490 0.916595
0.146515 0.022980 0.904724
0.358093 0.000000 0.882843
0.655548 0.000000 0.845490
0.928864 0.000000 0.785858
0.999298 0.000000 0.741516
1.000000 0.000000 0.732849
0.000000 0.184143 0.954803
0.000000 0.182343 0.955750
0.090759 0.117615 0.941345
0.330719 0.061035 0.912170
0.643066 0.042236 0.868866
0.924683 0.048248 0.804962
0.999268 0.044434 0.753204
1.000000 0.015381 0.737244
0.000000 0.407959 0.986237
0.000000 0.407318 0.986420
0.064728 0.374359 0.981720
0.235962 0.264191 0.958313
0.594727 0.158447 0.911560
0.903656 0.082275 0.853851
0.998993 0.064026 0.798065
1.000000 0.060699 0.781982
0.000000 0.733398 0.998566
0.000000 0.733337 0.998566
0.034973 0.720703 0.998230
0.154724 0.641693 0.993805
0.524567 0.545593 0.966278
0.848358 0.418030 0.916718
0.997070 0.333130 0.857727
1.000000 0.289093 0.841431
0.000000 0.982971 0.999908
0.000000 0.983002 0.999908
0.000000 0.982544 0.999908
0.079773 0.955414 0.999420
0.412170 0.883118 0.996277
0.800964 0.813568 0.968597
0.981750 0.743286 0.929016
1.000000 0.711334 0.911957
0.000000 1.000000 1.000000
0.000000 1.000000 1.000000
0.000000 1.000000 1.000000
0.058167 1.000000 1.000000
0.294830 1.000000 0.998932
0.738953 0.993713 0.991608
0.951172 0.955200 0.964966
0.999725 0.937378 0.953125
0.000000 1.000000 1.000000
0.000000 1.000000 1.000000
0.000000 1.000000 1.000000
0.000000 1.000000 0.999969
0.194977 1.000000 0.999481
0.679443 1.000000 0.994934
0.934723 1.000000 0.973175
0.997314 0.998138 0.959564
0.000000 0.042084 0.986450
0.049866 0.018860 0.986969
0.154755 0.000000 0.970612
0.356567 0.000000 0.941376
0.653717 0.000000 0.897766
0.930237 0.000000 0.836914
0.999359 0.000000 0.786438
1.000000 0.000000 0.773621
0.000000 0.079926 0.988281
0.024323 0.062500 0.988647
0.148926 0.000000 0.972443
0.356659 0.000000 0.942200
0.655792 0.000000 0.897949
0.931519 0.000000 0.836792
0.999390 0.000000 0.786346
1.000000 0.000000 0.773682
0.000000 0.179443 0.998505
0.000000 0.178284 0.998535
0.090942 0.117523 0.993134
0.327148 0.063354 0.960327
0.641541 0.047180 0.912842
0.927246 0.045776 0.848877
0.999329 0.034332 0.793365
1.000000 0.000000 0.775452
0.000000 0.402893 1.000000
0.000000 0.402374 1.000000
0.064240 0.371521 0.999908
0.231964 0.262115 0.995850
0.589813 0.155365 0.948395
0.902588 0.079712 0.891663
0.999084 0.063110 0.835480
1.000000 0.060425 0.818085
0.000000 0.730713 1.000000
0.000000 0.730530 1.000000
0.023712 0.722229 1.000000
0.147583 0.640503 1.000000
0.520691 0.542999 0.995728
0.842285 0.413452 0.948608
0.997070 0.325714 0.894684
1.000000 0.281128 0.878052
0.000000 0.982513 1.000000
0.000000 0.982513 1.000000
0.000000 0.982117 1.000000
0.075348 0.955566 1.000000
0.403534 0.882202 1.000000
0.799896 0.813385 0.997253
0.981506 0.740479 0.963348
1.000000 0.707458 0.947327
0.000000 1.000000 1.000000
0.000000 1.000000 1.000000
0.000000 1.000000 1.000000
0.056244 1.000000 1.000000
0.284607 1.000000 1.000000
0.734344 0.993164 1.000000
0.951324 0.956146 0.998230
0.999725 0.937195 0.987854
0.000000 1.000000 1.000000
0.000000 1.000000 1.000000
0.000000 1.000000 1.000000
0.000000 1.000000 1.000000
0.186493 1.000000 1.000000
0.673157 1.000000 1.000000
0.933289 1.000000 0.999969
0.997101 0.998322 0.998535
