Color-Correction/LUTs/GH5/Basic/IWLTBAP/U-PANASONIC-V-LOG-V3-LTR.cube
# Copyright: (C) Copyright 2010-2018 by IWLTBAP SAS
# Cannot be resold, shared or otherwise redistributed
# Website: https://luts.iwltbap.com
TITLE "Panasonic V-Log Version 3 (Utility LOG to Rec.709)"
LUT_3D_SIZE 32
0.014709 0.014099 0.012848
0.016357 0.014099 0.012848
0.018005 0.014099 0.012848
0.019653 0.014099 0.012848
0.022644 0.014343 0.012939
0.030670 0.015442 0.013428
0.054443 0.018188 0.014191
0.104614 0.023102 0.015015
0.172577 0.027679 0.014343
0.253876 0.029266 0.011658
0.339203 0.024200 0.006714
0.426819 0.010681 0.001221
0.495789 0.000671 0.000000
0.549652 0.000000 0.000000
0.589386 0.000000 0.000000
0.624237 0.000000 0.000000
0.658508 0.000000 0.000000
0.687836 0.000000 0.000000
0.707031 0.000000 0.000000
0.724365 0.000000 0.000000
0.741364 0.000000 0.000000
0.747772 0.000000 0.000000
0.749420 0.000000 0.000000
0.751068 0.000000 0.000000
0.752716 0.000000 0.000000
0.754364 0.000000 0.000000
0.756012 0.000000 0.000000
0.757660 0.000000 0.000000
0.759277 0.000000 0.000000
0.760925 0.000000 0.000000
0.762573 0.000000 0.000000
0.764221 0.000000 0.000000
0.014709 0.015747 0.012848
0.016357 0.015747 0.012848
0.018005 0.015747 0.012848
0.019653 0.015747 0.012848
0.022644 0.015991 0.012939
0.030670 0.017090 0.013428
0.054443 0.019836 0.014191
0.104614 0.024750 0.015015
0.172577 0.029327 0.014343
0.253876 0.030914 0.011658
0.339203 0.025848 0.006714
0.426819 0.012329 0.001221
0.495789 0.002319 0.000000
0.549652 0.001648 0.000000
0.589386 0.001648 0.000000
0.624237 0.001648 0.000000
0.658508 0.001648 0.000000
0.687836 0.001648 0.000000
0.707031 0.001648 0.000000
0.724365 0.001648 0.000000
0.741364 0.001648 0.000000
0.747772 0.001648 0.000000
0.749420 0.001648 0.000000
0.751068 0.001648 0.000000
0.752716 0.001648 0.000000
0.754364 0.001648 0.000000
0.756012 0.001648 0.000000
0.757660 0.001648 0.000000
0.759277 0.001648 0.000000
0.760925 0.001648 0.000000
0.762573 0.001648 0.000000
0.764221 0.001648 0.000000
0.014709 0.017395 0.012848
0.016357 0.017395 0.012848
0.018005 0.017395 0.012848
0.019653 0.017395 0.012848
0.022644 0.017639 0.012939
0.030670 0.018738 0.013428
0.054443 0.021484 0.014191
0.104614 0.026398 0.015015
0.172577 0.030975 0.014343
0.253876 0.032562 0.011658
0.339203 0.027496 0.006714
0.426819 0.013977 0.001221
0.495789 0.003967 0.000000
0.549652 0.003296 0.000000
0.589386 0.003296 0.000000
0.624237 0.003296 0.000000
0.658508 0.003296 0.000000
0.687836 0.003296 0.000000
0.707031 0.003296 0.000000
0.724365 0.003296 0.000000
0.741364 0.003296 0.000000
0.747772 0.003296 0.000000
0.749420 0.003296 0.000000
0.751068 0.003296 0.000000
0.752716 0.003296 0.000000
0.754364 0.003296 0.000000
0.756012 0.003296 0.000000
0.757660 0.003296 0.000000
0.759277 0.003296 0.000000
0.760925 0.003296 0.000000
0.762573 0.003296 0.000000
0.764221 0.003296 0.000000
0.014709 0.019043 0.012848
0.016357 0.019043 0.012848
0.018005 0.019043 0.012848
0.019653 0.019043 0.012848
0.022644 0.019257 0.012939
0.030670 0.020386 0.013428
0.054443 0.023132 0.014191
0.104614 0.028046 0.015015
0.172577 0.032623 0.014343
0.253876 0.034210 0.011658
0.339203 0.029144 0.006714
0.426819 0.015625 0.001221
0.495789 0.005615 0.000000
0.549652 0.004944 0.000000
0.589386 0.004944 0.000000
0.624237 0.004944 0.000000
0.658508 0.004944 0.000000
0.687836 0.004944 0.000000
0.707031 0.004944 0.000000
0.724365 0.004944 0.000000
0.741364 0.004944 0.000000
0.747772 0.004944 0.000000
0.749420 0.004944 0.000000
0.751068 0.004944 0.000000
0.752716 0.004944 0.000000
0.754364 0.004944 0.000000
0.756012 0.004944 0.000000
0.757660 0.004944 0.000000
0.759277 0.004944 0.000000
0.760925 0.004944 0.000000
0.762573 0.004944 0.000000
0.764221 0.004944 0.000000
0.014923 0.021362 0.012970
0.016571 0.021362 0.012970
0.018219 0.021362 0.012970
0.019836 0.021362 0.012970
0.022308 0.021484 0.013031
0.030334 0.022552 0.013489
0.051575 0.025055 0.014221
0.101898 0.029907 0.015045
0.171509 0.034332 0.014343
0.253754 0.035858 0.011658
0.339081 0.030823 0.006744
0.426788 0.017273 0.001221
0.495758 0.007233 0.000000
0.549591 0.006592 0.000000
0.589386 0.006592 0.000000
0.624207 0.006592 0.000000
0.658478 0.006592 0.000000
0.687836 0.006592 0.000000
0.707001 0.006592 0.000000
0.724365 0.006592 0.000000
0.741364 0.006592 0.000000
0.747772 0.006592 0.000000
0.749420 0.006592 0.000000
0.751068 0.006592 0.000000
0.752716 0.006592 0.000000
0.754364 0.006592 0.000000
0.756012 0.006592 0.000000
0.757660 0.006592 0.000000
0.759277 0.006592 0.000000
0.760925 0.006592 0.000000
0.762573 0.006592 0.000000
0.764221 0.006592 0.000000
0.015869 0.026184 0.013580
0.017517 0.026184 0.013580
0.019165 0.026184 0.013580
0.020813 0.026184 0.013580
0.023071 0.026306 0.013641
0.028656 0.027039 0.013916
0.042511 0.028992 0.014526
0.081543 0.033234 0.015381
0.139709 0.038055 0.015259
0.219666 0.040894 0.013184
0.313263 0.037292 0.008545
0.415344 0.022552 0.001923
0.495544 0.008911 0.000000
0.549500 0.008240 0.000000
0.589325 0.008240 0.000000
0.624176 0.008240 0.000000
0.658417 0.008240 0.000000
0.687836 0.008240 0.000000
0.707001 0.008240 0.000000
0.724365 0.008240 0.000000
0.741364 0.008240 0.000000
0.747772 0.008240 0.000000
0.749420 0.008240 0.000000
0.751068 0.008240 0.000000
0.752716 0.008240 0.000000
0.754364 0.008240 0.000000
0.756012 0.008240 0.000000
0.757660 0.008240 0.000000
0.759277 0.008240 0.000000
0.760925 0.008240 0.000000
0.762573 0.008240 0.000000
0.764221 0.008240 0.000000
0.017426 0.036072 0.014862
0.019073 0.036072 0.014862
0.020721 0.036072 0.014862
0.022369 0.036072 0.014862
0.024506 0.036163 0.014893
0.030823 0.037140 0.015137
0.042572 0.039093 0.015533
0.066132 0.042236 0.016144
0.105225 0.046539 0.016418
0.163666 0.051727 0.015808
0.237030 0.053986 0.013367
0.326813 0.049042 0.008301
0.427124 0.033081 0.002869
0.525848 0.017487 0.000000
0.588318 0.010071 0.000000
0.624084 0.009857 0.000000
0.658386 0.009857 0.000000
0.687805 0.009857 0.000000
0.706970 0.009857 0.000000
0.724335 0.009857 0.000000
0.741364 0.009857 0.000000
0.747772 0.009857 0.000000
0.749420 0.009857 0.000000
0.751068 0.009857 0.000000
0.752716 0.009857 0.000000
0.754364 0.009857 0.000000
0.756012 0.009857 0.000000
0.757660 0.009857 0.000000
0.759277 0.009857 0.000000
0.760925 0.009857 0.000000
0.762573 0.009857 0.000000
0.764221 0.009857 0.000000
0.019379 0.056335 0.017212
0.021027 0.056335 0.017212
0.022675 0.056335 0.017212
0.024323 0.056335 0.017212
0.025940 0.056305 0.017212
0.033539 0.057892 0.017395
0.046906 0.060699 0.017792
0.072937 0.065826 0.018219
0.109528 0.072235 0.018372
0.159668 0.079193 0.017761
0.219238 0.084717 0.015839
0.289673 0.087128 0.012054
0.361450 0.082916 0.007050
0.438751 0.069153 0.000885
0.508453 0.045471 0.000000
0.586212 0.020966 0.000000
0.651184 0.011505 0.000000
0.687744 0.011505 0.000000
0.706940 0.011505 0.000000
0.724304 0.011505 0.000000
0.741333 0.011505 0.000000
0.747772 0.011505 0.000000
0.749420 0.011505 0.000000
0.751068 0.011505 0.000000
0.752716 0.011505 0.000000
0.754364 0.011505 0.000000
0.756012 0.011505 0.000000
0.757660 0.011505 0.000000
0.759277 0.011505 0.000000
0.760925 0.011505 0.000000
0.762573 0.011505 0.000000
0.764221 0.011505 0.000000
0.020172 0.090454 0.019867
0.021820 0.090454 0.019867
0.023468 0.090454 0.019867
0.025116 0.090454 0.019867
0.026764 0.090424 0.019867
0.034241 0.091919 0.019958
0.052063 0.096222 0.020233
0.081482 0.102356 0.020386
0.119568 0.109863 0.020081
0.168304 0.118225 0.019012
0.225891 0.126007 0.016632
0.292755 0.132202 0.012329
0.363739 0.134613 0.006683
0.434204 0.131744 0.001068
0.505859 0.122620 0.000031
0.561157 0.105743 0.000000
0.616882 0.077393 0.000000
0.657593 0.040283 0.000000
0.701416 0.018585 0.000000
0.725342 0.013153 0.000000
0.741272 0.013153 0.000000
0.747772 0.013153 0.000000
0.749420 0.013153 0.000000
0.751068 0.013153 0.000000
0.752716 0.013153 0.000000
0.754364 0.013153 0.000000
0.756012 0.013153 0.000000
0.757660 0.013153 0.000000
0.759277 0.013153 0.000000
0.760925 0.013153 0.000000
0.762573 0.013153 0.000000
0.764221 0.013153 0.000000
0.022247 0.133789 0.022156
0.023895 0.133789 0.022156
0.025543 0.133789 0.022156
0.027191 0.133789 0.022156
0.028809 0.133759 0.022156
0.032959 0.134247 0.022156
0.056488 0.139587 0.022125
0.090881 0.147095 0.021820
0.131622 0.155640 0.020813
0.180756 0.165253 0.018829
0.237518 0.174652 0.015717
0.302490 0.183228 0.010468
0.373444 0.189758 0.003784
0.442474 0.192230 0.000397
0.516693 0.191528 0.000000
0.577271 0.185272 0.000000
0.631378 0.174286 0.000000
0.682556 0.157043 0.000000
0.719116 0.131104 0.000000
0.752350 0.092804 0.000000
0.772339 0.049591 0.000000
0.764648 0.024292 0.000000
0.766205 0.024292 0.000000
0.767853 0.024292 0.000000
0.769501 0.024292 0.000000
0.771149 0.024292 0.000000
0.772797 0.024292 0.000000
0.774445 0.024292 0.000000
0.776093 0.024292 0.000000
0.777740 0.024292 0.000000
0.779388 0.024292 0.000000
0.781036 0.024292 0.000000
0.026947 0.184967 0.023285
0.028564 0.184967 0.023285
0.030212 0.184967 0.023285
0.031860 0.184967 0.023285
0.033508 0.184967 0.023285
0.035126 0.184845 0.023285
0.055756 0.188843 0.022919
0.100891 0.198486 0.021729
0.145508 0.208099 0.019867
0.195557 0.218384 0.016846
0.251343 0.228912 0.012512
0.315155 0.238983 0.006287
0.385223 0.248016 0.001160
0.453613 0.253967 0.000000
0.526794 0.257660 0.000000
0.593628 0.257355 0.000000
0.647369 0.253265 0.000000
0.702789 0.245911 0.000000
0.747192 0.234589 0.000000
0.783203 0.218994 0.000000
0.818298 0.197235 0.000000
0.827148 0.178772 0.000000
0.828735 0.178589 0.000000
0.830383 0.178589 0.000000
0.832031 0.178589 0.000000
0.833679 0.178589 0.000000
0.835327 0.178589 0.000000
0.836975 0.178589 0.000000
0.838623 0.178589 0.000000
0.840271 0.178589 0.000000
0.841919 0.178589 0.000000
0.843536 0.178589 0.000000
0.042572 0.243805 0.021881
0.044220 0.243805 0.021881
0.045868 0.243805 0.021881
0.047516 0.243805 0.021881
0.049133 0.243774 0.021881
0.050751 0.243683 0.021912
0.058929 0.244873 0.021545
0.111664 0.255432 0.019165
0.161621 0.266266 0.015778
0.212494 0.277191 0.011383
0.267609 0.288239 0.005890
0.330109 0.299561 0.000519
0.399323 0.310242 0.000092
0.466675 0.318573 0.000000
0.537781 0.325073 0.000000
0.608154 0.329071 0.000000
0.663208 0.328857 0.000000
0.718048 0.326263 0.000000
0.770386 0.321136 0.000000
0.807983 0.312836 0.000000
0.844849 0.301727 0.000000
0.857452 0.291901 0.000000
0.859070 0.291779 0.000000
0.860718 0.291779 0.000000
0.862366 0.291779 0.000000
0.864014 0.291779 0.000000
0.865662 0.291779 0.000000
0.867279 0.291779 0.000000
0.868927 0.291779 0.000000
0.870575 0.291779 0.000000
0.872223 0.291779 0.000000
0.873871 0.291779 0.000000
0.071228 0.309967 0.017334
0.072876 0.309967 0.017334
0.074493 0.309967 0.017334
0.076141 0.309967 0.017334
0.077789 0.309967 0.017334
0.079407 0.309845 0.017365
0.080963 0.309723 0.017365
0.117889 0.316772 0.014557
0.179413 0.329651 0.009277
0.230408 0.340546 0.005219
0.285339 0.351837 0.001434
0.347137 0.363647 0.000092
0.414612 0.375183 0.000000
0.480713 0.384644 0.000000
0.549744 0.392944 0.000000
0.621277 0.399353 0.000000
0.677765 0.401855 0.000000
0.731750 0.402374 0.000000
0.786743 0.401367 0.000000
0.829010 0.397675 0.000000
0.866577 0.391815 0.000000
0.880402 0.385712 0.000000
0.882019 0.385651 0.000000
0.883636 0.385651 0.000000
0.885284 0.385651 0.000000
0.886932 0.385651 0.000000
0.888580 0.385651 0.000000
0.890228 0.385651 0.000000
0.891876 0.385651 0.000000
0.893524 0.385651 0.000000
0.895172 0.385651 0.000000
0.896820 0.385651 0.000000
0.112061 0.378418 0.011963
0.113708 0.378418 0.011963
0.115356 0.378418 0.011963
0.116974 0.378418 0.011963
0.118591 0.378387 0.011963
0.120209 0.378326 0.011963
0.121765 0.378235 0.011963
0.131134 0.379730 0.011078
0.198151 0.393707 0.003845
0.250397 0.404968 0.000244
0.304504 0.416443 0.000000
0.365662 0.428864 0.000000
0.432373 0.441376 0.000000
0.495270 0.451813 0.000000
0.563049 0.461639 0.000000
0.634369 0.470551 0.000000
0.691925 0.475586 0.000000
0.745178 0.478577 0.000000
0.800446 0.480499 0.000000
0.847382 0.480103 0.000000
0.885223 0.477448 0.000000
0.900055 0.473724 0.000000
0.901703 0.473663 0.000000
0.903351 0.473663 0.000000
0.904999 0.473663 0.000000
0.906647 0.473663 0.000000
0.908295 0.473663 0.000000
0.909912 0.473663 0.000000
0.911560 0.473663 0.000000
0.913208 0.473663 0.000000
0.914856 0.473663 0.000000
0.916504 0.473663 0.000000
0.159454 0.445679 0.012360
0.161102 0.445679 0.012360
0.162750 0.445679 0.012360
0.164398 0.445679 0.012360
0.166046 0.445648 0.012360
0.167664 0.445648 0.012360
0.169220 0.445557 0.012360
0.170746 0.445374 0.012329
0.214417 0.454193 0.006470
0.271362 0.466187 0.000275
0.325256 0.477539 0.000000
0.386078 0.490051 0.000000
0.449066 0.502258 0.000000
0.509583 0.512909 0.000000
0.575317 0.523499 0.000000
0.645386 0.533600 0.000000
0.702942 0.540283 0.000000
0.755157 0.545105 0.000000
0.809662 0.549347 0.000000
0.860016 0.552002 0.000000
0.898712 0.552277 0.000000
0.914398 0.550415 0.000000
0.916046 0.550385 0.000000
0.917694 0.550385 0.000000
0.919312 0.550385 0.000000
0.920959 0.550385 0.000000
0.922607 0.550385 0.000000
0.924255 0.550385 0.000000
0.925903 0.550385 0.000000
0.927551 0.550385 0.000000
0.929199 0.550385 0.000000
0.930847 0.550385 0.000000
0.207245 0.516083 0.017975
0.208893 0.516083 0.017975
0.210541 0.516083 0.017975
0.212189 0.516083 0.017975
0.213837 0.516083 0.017975
0.215485 0.516022 0.017975
0.217072 0.515930 0.017944
0.218628 0.515808 0.017914
0.228455 0.517365 0.016479
0.294220 0.530853 0.005249
0.348511 0.541992 0.000000
0.408417 0.554047 0.000000
0.466614 0.565247 0.000000
0.525238 0.575714 0.000000
0.589447 0.586487 0.000000
0.656677 0.596802 0.000000
0.713501 0.604156 0.000000
0.764465 0.609650 0.000000
0.817627 0.614746 0.000000
0.869324 0.618683 0.000000
0.908813 0.620178 0.000000
0.925293 0.619324 0.000000
0.926910 0.619293 0.000000
0.928558 0.619293 0.000000
0.930206 0.619293 0.000000
0.931854 0.619293 0.000000
0.933502 0.619293 0.000000
0.935150 0.619293 0.000000
0.936798 0.619293 0.000000
0.938446 0.619293 0.000000
0.940094 0.619293 0.000000
0.941742 0.619293 0.000000
0.257721 0.581543 0.037109
0.259369 0.581543 0.037109
0.261017 0.581543 0.037109
0.262665 0.581543 0.037109
0.264282 0.581543 0.037109
0.265900 0.581512 0.037079
0.267517 0.581451 0.037079
0.269073 0.581360 0.036987
0.270538 0.581177 0.036926
0.318237 0.590790 0.027832
0.375610 0.602539 0.015747
0.431732 0.613861 0.005676
0.485199 0.624268 0.002380
0.541901 0.634827 0.000031
0.604553 0.645966 0.000000
0.669403 0.656708 0.000000
0.723267 0.664703 0.000000
0.773102 0.671234 0.000000
0.825165 0.677490 0.000000
0.877136 0.683105 0.000000
0.917664 0.686371 0.000031
0.935059 0.686737 0.000031
0.936707 0.686707 0.000031
0.938354 0.686707 0.000031
0.940002 0.686707 0.000031
0.941650 0.686707 0.000031
0.943298 0.686707 0.000031
0.944946 0.686707 0.000031
0.946594 0.686707 0.000031
0.948242 0.686707 0.000031
0.949860 0.686707 0.000031
0.951508 0.686707 0.000031
0.312653 0.644867 0.073944
0.314301 0.644867 0.073944
0.315948 0.644867 0.073944
0.317596 0.644867 0.073944
0.319214 0.644867 0.073944
0.320831 0.644836 0.073914
0.322449 0.644775 0.073883
0.324005 0.644684 0.073853
0.325500 0.644592 0.073730
0.337769 0.646606 0.071869
0.404510 0.660004 0.059570
0.454803 0.669800 0.048798
0.505127 0.679382 0.037323
0.560242 0.689636 0.023560
0.620972 0.700470 0.009949
0.683014 0.710999 0.005310
0.732269 0.718475 0.003021
0.780518 0.725281 0.000732
0.831268 0.731964 0.000031
0.882660 0.738190 0.000000
0.923431 0.742340 0.000153
0.941772 0.743378 0.000458
0.943390 0.743378 0.000458
0.945038 0.743378 0.000458
0.946686 0.743378 0.000458
0.948334 0.743378 0.000458
0.949982 0.743378 0.000458
0.951630 0.743378 0.000458
0.953278 0.743378 0.000458
0.954926 0.743378 0.000458
0.956573 0.743378 0.000458
0.958221 0.743378 0.000458
0.370239 0.710022 0.115662
0.371887 0.710022 0.115662
0.373535 0.710022 0.115662
0.375183 0.710022 0.115662
0.376831 0.710022 0.115662
0.378448 0.709991 0.115662
0.380066 0.709930 0.115631
0.381653 0.709869 0.115570
0.383148 0.709747 0.115509
0.384674 0.709595 0.115387
0.430115 0.718201 0.109894
0.477783 0.727173 0.103668
0.526978 0.736328 0.096375
0.580688 0.746124 0.087189
0.639648 0.756531 0.076172
0.694916 0.765778 0.064850
0.741730 0.772949 0.056519
0.788605 0.779724 0.049255
0.837830 0.786469 0.042236
0.888123 0.792908 0.037384
0.928558 0.797333 0.036804
0.947937 0.798859 0.037384
0.949615 0.798828 0.037354
0.951233 0.798828 0.037354
0.952881 0.798828 0.037354
0.954529 0.798828 0.037354
0.956177 0.798828 0.037354
0.957825 0.798828 0.037354
0.959473 0.798828 0.037354
0.961121 0.798828 0.037354
0.962769 0.798828 0.037354
0.964417 0.798828 0.037354
0.420563 0.768829 0.162079
0.422180 0.768829 0.162079
0.423828 0.768829 0.162079
0.425476 0.768829 0.162079
0.427124 0.768829 0.162079
0.428741 0.768829 0.162048
0.430359 0.768799 0.162048
0.431976 0.768799 0.161987
0.433533 0.768707 0.161896
0.435059 0.768585 0.161774
0.449524 0.771027 0.160522
0.502686 0.781036 0.155914
0.551178 0.790100 0.151306
0.603638 0.799744 0.145813
0.658936 0.809692 0.139618
0.708557 0.818176 0.134155
0.751526 0.825043 0.130402
0.797028 0.832153 0.126892
0.844940 0.839294 0.123535
0.893738 0.846283 0.120575
0.933136 0.851257 0.121460
0.953827 0.853485 0.123047
0.955566 0.853485 0.123047
0.957214 0.853485 0.123047
0.958862 0.853485 0.123047
0.960510 0.853485 0.123047
0.962158 0.853485 0.123047
0.963806 0.853485 0.123047
0.965424 0.853485 0.123047
0.967072 0.853485 0.123047
0.968719 0.853485 0.123047
0.970367 0.853485 0.123047
0.470734 0.815186 0.212311
0.472382 0.815186 0.212311
0.474030 0.815186 0.212311
0.475677 0.815186 0.212311
0.477325 0.815155 0.212311
0.478943 0.815125 0.212280
0.480591 0.815125 0.212250
0.482178 0.815063 0.212219
0.483765 0.815002 0.212158
0.485291 0.814911 0.212067
0.486786 0.814758 0.211945
0.530884 0.822968 0.209290
0.579315 0.831940 0.206146
0.629791 0.841156 0.202576
0.680023 0.850098 0.198975
0.720428 0.856964 0.196625
0.761688 0.863770 0.194458
0.805481 0.870819 0.192322
0.851746 0.878021 0.190308
0.899200 0.885162 0.188690
0.935852 0.890259 0.189545
0.957886 0.893066 0.190674
0.959686 0.893097 0.190674
0.961334 0.893097 0.190674
0.962982 0.893097 0.190674
0.964630 0.893097 0.190674
0.966248 0.893097 0.190674
0.967896 0.893097 0.190674
0.969543 0.893097 0.190674
0.971191 0.893097 0.190674
0.972839 0.893097 0.190674
0.974487 0.893097 0.190674
0.497620 0.839447 0.236725
0.499268 0.839447 0.236725
0.500916 0.839447 0.236725
0.502563 0.839447 0.236725
0.504181 0.839447 0.236725
0.505829 0.839447 0.236725
0.507477 0.839447 0.236725
0.509125 0.839417 0.236725
0.510773 0.839417 0.236725
0.512421 0.839417 0.236694
0.514069 0.839417 0.236694
0.543640 0.844818 0.235413
0.593170 0.854065 0.233063
0.643463 0.863342 0.230530
0.689301 0.871643 0.228485
0.727142 0.878265 0.227448
0.767609 0.885315 0.226624
0.810669 0.892700 0.226013
0.856171 0.900360 0.225739
0.902832 0.908051 0.226044
0.937714 0.913696 0.228699
0.960632 0.917267 0.231110
0.962463 0.917297 0.231110
0.964111 0.917297 0.231110
0.965759 0.917297 0.231110
0.967407 0.917297 0.231110
0.969055 0.917297 0.231110
0.970673 0.917297 0.231110
0.972321 0.917297 0.231110
0.973969 0.917297 0.231110
0.975616 0.917297 0.231110
0.977264 0.917297 0.231110
0.497681 0.841125 0.236755
0.499329 0.841125 0.236755
0.500977 0.841125 0.236755
0.502594 0.841125 0.236755
0.504242 0.841125 0.236755
0.505890 0.841125 0.236755
0.507538 0.841125 0.236755
0.509186 0.841125 0.236755
0.510834 0.841125 0.236755
0.512482 0.841125 0.236755
0.514130 0.841125 0.236755
0.543701 0.846527 0.235443
0.593140 0.855743 0.233124
0.643463 0.865021 0.230621
0.689331 0.873352 0.228577
0.727142 0.880005 0.227570
0.767639 0.887054 0.226776
0.810699 0.894470 0.226196
0.856201 0.902130 0.225922
0.902863 0.909851 0.226318
0.937744 0.915527 0.229004
0.960663 0.919098 0.231415
0.962494 0.919128 0.231445
0.964142 0.919128 0.231445
0.965790 0.919128 0.231445
0.967438 0.919128 0.231445
0.969055 0.919128 0.231445
0.970703 0.919128 0.231445
0.972351 0.919128 0.231445
0.973999 0.919128 0.231445
0.975647 0.919128 0.231445
0.977295 0.919128 0.231445
0.497681 0.842743 0.236755
0.499329 0.842743 0.236755
0.500977 0.842743 0.236755
0.502594 0.842743 0.236755
0.504242 0.842743 0.236755
0.505890 0.842743 0.236755
0.507538 0.842743 0.236755
0.509186 0.842743 0.236755
0.510834 0.842743 0.236755
0.512482 0.842743 0.236755
0.514130 0.842743 0.236755
0.543701 0.848175 0.235443
0.593140 0.857391 0.233124
0.643463 0.866669 0.230621
0.689331 0.875000 0.228577
0.727142 0.881653 0.227570
0.767639 0.888702 0.226776
0.810699 0.896118 0.226196
0.856201 0.903778 0.225922
0.902863 0.911469 0.226318
0.937744 0.917145 0.229004
0.960663 0.920746 0.231415
0.962494 0.920776 0.231445
0.964142 0.920776 0.231445
0.965790 0.920776 0.231445
0.967438 0.920776 0.231445
0.969055 0.920776 0.231445
0.970703 0.920776 0.231445
0.972351 0.920776 0.231445
0.973999 0.920776 0.231445
0.975647 0.920776 0.231445
0.977295 0.920776 0.231445
0.497681 0.844391 0.236755
0.499329 0.844391 0.236755
0.500977 0.844391 0.236755
0.502594 0.844391 0.236755
0.504242 0.844391 0.236755
0.505890 0.844391 0.236755
0.507538 0.844391 0.236755
0.509186 0.844391 0.236755
0.510834 0.844391 0.236755
0.512482 0.844391 0.236755
0.514130 0.844391 0.236755
0.543701 0.849823 0.235443
0.593140 0.859039 0.233124
0.643463 0.868317 0.230621
0.689331 0.876648 0.228577
0.727142 0.883301 0.227570
0.767639 0.890350 0.226776
0.810699 0.897736 0.226196
0.856201 0.905426 0.225922
0.902863 0.913116 0.226318
0.937744 0.918793 0.229004
0.960663 0.922394 0.231415
0.962494 0.922424 0.231445
0.964142 0.922424 0.231445
0.965790 0.922424 0.231445
0.967438 0.922424 0.231445
0.969055 0.922424 0.231445
0.970703 0.922424 0.231445
0.972351 0.922424 0.231445
0.973999 0.922424 0.231445
0.975647 0.922424 0.231445
0.977295 0.922424 0.231445
0.497681 0.846039 0.236755
0.499329 0.846039 0.236755
0.500977 0.846039 0.236755
0.502594 0.846039 0.236755
0.504242 0.846039 0.236755
0.505890 0.846039 0.236755
0.507538 0.846039 0.236755
0.509186 0.846039 0.236755
0.510834 0.846039 0.236755
0.512482 0.846039 0.236755
0.514130 0.846039 0.236755
0.543701 0.851471 0.235443
0.593140 0.860687 0.233124
0.643463 0.869965 0.230621
0.689331 0.878296 0.228577
0.727142 0.884949 0.227570
0.767639 0.891968 0.226776
0.810699 0.899384 0.226196
0.856201 0.907074 0.225922
0.902863 0.914764 0.226318
0.937744 0.920441 0.229004
0.960663 0.924042 0.231415
0.962494 0.924072 0.231445
0.964142 0.924072 0.231445
0.965790 0.924072 0.231445
0.967438 0.924072 0.231445
0.969055 0.924072 0.231445
0.970703 0.924072 0.231445
0.972351 0.924072 0.231445
0.973999 0.924072 0.231445
0.975647 0.924072 0.231445
0.977295 0.924072 0.231445
0.497681 0.847687 0.236755
0.499329 0.847687 0.236755
0.500977 0.847687 0.236755
0.502594 0.847687 0.236755
0.504242 0.847687 0.236755
0.505890 0.847687 0.236755
0.507538 0.847687 0.236755
0.509186 0.847687 0.236755
0.510834 0.847687 0.236755
0.512482 0.847687 0.236755
0.514130 0.847687 0.236755
0.543701 0.853119 0.235443
0.593140 0.862305 0.233124
0.643463 0.871613 0.230621
0.689331 0.879913 0.228577
0.727142 0.886597 0.227570
0.767639 0.893616 0.226776
0.810699 0.901031 0.226196
0.856201 0.908722 0.225922
0.902863 0.916412 0.226318
0.937744 0.922089 0.229004
0.960663 0.925690 0.231415
0.962494 0.925720 0.231445
0.964142 0.925720 0.231445
0.965790 0.925720 0.231445
0.967438 0.925720 0.231445
0.969055 0.925720 0.231445
0.970703 0.925720 0.231445
0.972351 0.925720 0.231445
0.973999 0.925720 0.231445
0.975647 0.925720 0.231445
0.977295 0.925720 0.231445
0.497681 0.849335 0.236755
0.499329 0.849335 0.236755
0.500977 0.849335 0.236755
0.502594 0.849335 0.236755
0.504242 0.849335 0.236755
0.505890 0.849335 0.236755
0.507538 0.849335 0.236755
0.509186 0.849335 0.236755
0.510834 0.849335 0.236755
0.512482 0.849335 0.236755
0.514130 0.849335 0.236755
0.543701 0.854767 0.235443
0.593140 0.863953 0.233124
0.643463 0.873260 0.230621
0.689331 0.881561 0.228577
0.727142 0.888245 0.227570
