Color-Correction/LUTs/GH5/Basic/IWLTBAP/U-PANASONIC-V-LOG-V8-LTR.cube
# Copyright: (C) Copyright 2010-2018 by IWLTBAP SAS
# Cannot be resold, shared or otherwise redistributed
# Website: https://luts.iwltbap.com
TITLE "Panasonic V-Log Version 8 (Utility LOG to Rec.709)"
LUT_3D_SIZE 5
0.038574 0.038574 0.038574
0.232971 0.043884 0.055939
0.636047 0.000000 0.091705
1.000000 0.000000 0.141571
1.000000 0.000000 0.168610
0.000000 0.217804 0.019836
0.201569 0.215179 0.022736
0.625336 0.239471 0.051544
1.000000 0.248260 0.104706
1.000000 0.298096 0.124939
0.000000 0.598450 0.000000
0.000000 0.597473 0.000000
0.557617 0.591827 0.000000
0.984619 0.636322 0.000000
1.000000 0.689728 0.000000
0.000000 0.972839 0.000000
0.000000 0.972321 0.000000
0.406067 0.969696 0.000000
0.909912 0.963226 0.000000
1.000000 0.991821 0.000000
0.000000 1.000000 0.000000
0.000000 1.000000 0.000000
0.390778 1.000000 0.000000
0.909668 1.000000 0.000000
1.000000 1.000000 0.000000
0.030273 0.000000 0.203857
0.226837 0.000000 0.204742
0.633820 0.000000 0.252502
1.000000 0.000000 0.311005
1.000000 0.000000 0.363892
0.000000 0.197174 0.193207
0.234314 0.234314 0.234314
0.679962 0.259430 0.286224
1.000000 0.272827 0.345306
1.000000 0.325806 0.397003
0.000000 0.591187 0.132172
0.000000 0.645294 0.190643
0.608215 0.639282 0.200867
1.000000 0.682343 0.271423
1.000000 0.734253 0.328705
0.000000 0.968597 0.000000
0.000000 0.996918 0.034088
0.487946 0.993774 0.041656
0.939789 0.988495 0.051514
1.000000 1.000000 0.167328
0.000000 1.000000 0.000000
0.000000 1.000000 0.043945
0.517700 1.000000 0.046356
0.942017 1.000000 0.049347
1.000000 1.000000 0.050079
0.000000 0.000000 0.563507
0.224426 0.000000 0.563873
0.620880 0.000000 0.565796
1.000000 0.000000 0.624390
1.000000 0.000000 0.679688
0.000000 0.000000 0.559631
0.223969 0.045685 0.613495
0.665924 0.004059 0.615601
1.000000 0.017670 0.672424
1.000000 0.040497 0.725342
0.000000 0.546631 0.536591
0.000000 0.598328 0.589325
0.643768 0.643768 0.643768
1.000000 0.684814 0.698853
1.000000 0.735748 0.749939
0.000000 0.944183 0.535156
0.000000 0.972900 0.594482
0.546265 0.989502 0.655670
0.953491 0.984039 0.659332
1.000000 0.996735 0.717407
0.000000 1.000000 0.573547
0.000000 1.000000 0.640594
0.597076 1.000000 0.706268
0.955505 1.000000 0.709290
1.000000 1.000000 0.709991
0.000000 0.000000 0.919067
0.123749 0.000000 0.919312
0.651245 0.000000 0.920441
1.000000 0.000000 0.922668
1.000000 0.000000 0.956207
0.000000 0.000000 0.916412
0.126862 0.000000 0.948425
0.694916 0.000000 0.949738
1.000000 0.000000 0.951874
1.000000 0.000000 0.977142
0.000000 0.483765 0.903503
0.000000 0.550476 0.934052
0.668549 0.609680 0.958679
1.000000 0.596588 0.960724
1.000000 0.664337 0.977814
0.000000 0.892731 0.877045
0.000000 0.923523 0.908783
0.505585 0.943848 0.935181
0.956451 0.956451 0.956451
1.000000 0.969482 0.970673
0.000000 1.000000 0.898102
0.000000 1.000000 0.926575
0.564697 1.000000 0.949707
0.959625 1.000000 0.967133
0.998352 1.000000 0.967407
0.000000 0.000000 1.000000
0.183197 0.000000 1.000000
0.702850 0.000000 1.000000
1.000000 0.000000 1.000000
1.000000 0.000000 1.000000
0.000000 0.000000 1.000000
0.203613 0.000000 1.000000
0.745880 0.000000 1.000000
1.000000 0.000000 1.000000
1.000000 0.000000 1.000000
0.000000 0.504517 1.000000
0.000000 0.590179 1.000000
0.719208 0.660034 1.000000
1.000000 0.649292 1.000000
1.000000 0.646912 1.000000
0.000000 0.903961 0.994659
0.000000 0.934143 0.994904
0.591766 0.952667 0.996307
0.968109 0.963776 0.999054
1.000000 0.962891 0.999359
0.000000 1.000000 0.985779
0.000000 1.000000 0.988434
0.557220 1.000000 0.991852
0.957458 0.997070 0.996002
1.000000 1.000000 1.000000
