Color-Correction/LUTs/GH5/Basic/IWLTBAP/U-PANASONIC-V-LOG-V4-LTR.cube
# Copyright: (C) Copyright 2010-2018 by IWLTBAP SAS
# Cannot be resold, shared or otherwise redistributed
# Website: https://luts.iwltbap.com
TITLE "Panasonic V-Log Version 4 (Utility LOG to Rec.709)"
LUT_3D_SIZE 5
0.015686 0.015686 0.015686
0.229401 0.000000 0.000000
0.727448 0.000000 0.000000
0.996063 0.002930 0.000000
0.996063 0.000000 0.000000
0.000000 0.241180 0.060791
0.187256 0.181366 0.017639
0.687256 0.023529 0.001953
0.997070 0.000977 0.000977
0.996063 0.002930 0.000000
0.003937 0.768616 0.154907
0.094116 0.714691 0.119598
0.584320 0.564697 0.029419
0.998047 0.431366 0.000977
1.000000 0.399994 0.000000
0.000000 0.996063 0.235291
0.024506 0.999023 0.202942
0.497070 1.000000 0.107849
0.937256 0.904907 0.029419
0.997070 0.881378 0.015686
0.000000 1.000000 0.247070
0.019623 1.000000 0.216675
0.488220 0.998047 0.125488
0.924500 0.997070 0.052948
1.000000 0.976471 0.027466
0.012756 0.023529 0.188232
0.216675 0.000000 0.143127
0.715698 0.000000 0.049988
0.998047 0.001953 0.001953
0.996063 0.000000 0.000000
0.002930 0.241180 0.220581
0.180389 0.186279 0.183319
0.672546 0.038239 0.096069
0.997070 0.001953 0.015686
0.996063 0.000000 0.010773
0.001953 0.767639 0.308838
0.101959 0.714691 0.276459
0.582367 0.567657 0.185303
0.992157 0.439209 0.103912
0.998047 0.409790 0.086273
0.001953 0.997070 0.390198
0.025482 0.999023 0.355896
0.500977 1.000000 0.266663
0.941162 0.907837 0.187256
1.000000 0.884308 0.171570
0.002930 0.999023 0.407837
0.014709 1.000000 0.369598
0.490204 0.999023 0.286285
0.922546 1.000000 0.202942
1.000000 0.980377 0.181366
0.017639 0.033325 0.588226
0.205872 0.001953 0.555878
0.701965 0.001953 0.454895
1.000000 0.001953 0.372559
1.000000 0.000000 0.352936
0.002930 0.247070 0.618622
0.179413 0.194122 0.580383
0.662750 0.050995 0.489227
0.998047 0.003937 0.404907
0.996063 0.000977 0.392151
0.001953 0.776459 0.707855
0.097046 0.719604 0.663727
0.578430 0.578430 0.578430
0.991180 0.453918 0.498047
1.000000 0.423523 0.480377
0.001953 1.000000 0.780396
0.031372 0.999023 0.748047
0.501953 1.000000 0.654907
0.932343 0.917633 0.579407
0.998047 0.894104 0.557831
0.001953 0.996063 0.796082
0.007843 1.000000 0.756866
0.478424 0.998047 0.672546
0.922546 0.997070 0.590210
1.000000 0.994110 0.568634
0.015686 0.043152 0.931366
0.199005 0.000977 0.892151
0.682343 0.000977 0.802948
0.999023 0.000000 0.723541
1.000000 0.002930 0.704895
0.001953 0.257843 0.962738
0.178436 0.202942 0.933319
0.653931 0.061768 0.838226
0.996063 0.001953 0.754913
0.999023 0.001953 0.740204
0.003937 0.782349 1.000000
0.099030 0.724518 0.998047
0.572540 0.584320 0.929413
0.994110 0.456848 0.852936
0.998047 0.433319 0.831360
0.000000 1.000000 1.000000
0.030396 0.999023 1.000000
0.496063 0.998047 0.995087
0.926483 0.927460 0.934326
1.000000 0.901947 0.912750
0.000977 1.000000 1.000000
0.000000 1.000000 1.000000
0.451965 0.999023 1.000000
0.912750 0.997070 0.947052
0.999023 1.000000 0.925476
0.019623 0.043152 0.992157
0.198029 0.002930 0.964691
0.686279 0.000000 0.874512
0.999023 0.002930 0.795105
0.996063 0.003937 0.776459
0.000977 0.259796 1.000000
0.172546 0.203918 0.998047
0.654907 0.064697 0.910797
1.000000 0.002930 0.826477
1.000000 0.000000 0.813721
0.005890 0.784302 1.000000
0.097046 0.726471 0.998047
0.576477 0.586273 1.000000
0.992157 0.458832 0.912750
0.996063 0.427460 0.901947
0.000000 1.000000 0.994110
0.014709 0.998047 0.998047
0.478424 0.998047 1.000000
0.932343 0.925476 1.000000
0.997070 0.901947 0.981384
0.003937 1.000000 1.000000
0.000977 0.997070 0.997070
0.415680 1.000000 1.000000
0.893127 0.999023 0.997070
1.000000 1.000000 1.000000
