Color-Correction/LUTs/GH5/Basic/IWLTBAP/U-PANASONIC-V-LOG-HDR-LTR.cube
# Copyright: (C) Copyright 2010-2018 by IWLTBAP SAS
# Cannot be resold, shared or otherwise redistributed
# Website: https://luts.iwltbap.com
TITLE "Panasonic V-Log HDR (Utility LOG to Rec.709)"
LUT_3D_SIZE 9
0.000244 0.000244 0.000244
0.018738 0.000000 0.000244
0.139435 0.000000 0.004272
0.286987 0.010406 0.023407
0.459106 0.047882 0.077850
0.645660 0.101166 0.167297
0.889832 0.162842 0.283600
0.953979 0.182861 0.339355
0.953979 0.182861 0.339355
0.001282 0.015533 0.002930
0.026459 0.020905 0.001587
0.158081 0.012177 0.001526
0.305695 0.010132 0.012817
0.465851 0.045105 0.068817
0.648590 0.099670 0.162018
0.891113 0.162231 0.281891
0.954102 0.182434 0.337921
0.954102 0.182434 0.337921
0.010803 0.134277 0.017883
0.015259 0.139496 0.010345
0.168304 0.147675 0.015503
0.312683 0.120178 0.023285
0.486053 0.079468 0.041321
0.668762 0.084045 0.113037
0.899811 0.156952 0.267181
0.954712 0.179260 0.327087
0.954712 0.179260 0.327087
0.043671 0.269562 0.063995
0.041809 0.271851 0.054443
0.089935 0.279816 0.039307
0.316589 0.284119 0.051392
0.484924 0.237793 0.063019
0.683502 0.181335 0.084564
0.923370 0.133301 0.187653
0.955872 0.216156 0.302399
0.955872 0.216156 0.302399
0.101257 0.418732 0.147766
0.099640 0.419373 0.141632
0.090790 0.423035 0.097778
0.197357 0.431305 0.093536
0.484955 0.447815 0.109680
0.679779 0.386169 0.119232
0.934845 0.310760 0.134033
0.958801 0.311737 0.240051
0.958801 0.311737 0.240051
0.168030 0.605286 0.261566
0.167511 0.605560 0.259216
0.163757 0.607422 0.241089
0.156433 0.615356 0.155945
0.331299 0.621094 0.157684
0.672455 0.634338 0.167572
0.927338 0.583649 0.171417
0.948364 0.585846 0.346313
0.948364 0.585846 0.346313
0.206238 0.879974 0.382446
0.206177 0.880127 0.381409
0.205566 0.880920 0.374359
0.203308 0.883667 0.348755
0.210663 0.894470 0.194000
0.500916 0.897583 0.193695
0.940918 0.899597 0.194275
0.967285 0.898407 0.504303
0.967285 0.898407 0.504303
0.191406 0.966309 0.433685
0.191467 0.966309 0.432922
0.191925 0.966309 0.427643
0.193542 0.966156 0.409149
0.244629 0.964233 0.349609
0.502686 0.967529 0.341797
0.863800 0.985229 0.441498
0.999390 0.997467 0.749451
0.999390 0.997467 0.749451
0.191406 0.966309 0.433685
0.191467 0.966309 0.432922
0.191925 0.966309 0.427643
0.193542 0.966156 0.409149
0.244629 0.964233 0.349609
0.502686 0.967529 0.341797
0.863800 0.985229 0.441498
0.999390 0.997467 0.749451
0.999390 0.997467 0.749451
0.000244 0.000244 0.024536
0.021667 0.000153 0.017883
0.141327 0.000244 0.019379
0.287140 0.012695 0.035309
0.458130 0.051636 0.088043
0.645233 0.102875 0.172424
0.889648 0.163574 0.285767
0.953857 0.183258 0.340729
0.953857 0.183258 0.340729
0.001892 0.017059 0.018433
0.018188 0.017059 0.018433
0.145294 0.013184 0.018250
0.291779 0.021423 0.033234
0.463684 0.049438 0.080414
0.647400 0.101593 0.167908
0.890686 0.162933 0.283936
0.953949 0.182922 0.339539
0.953949 0.182922 0.339539
0.011658 0.131775 0.030151
0.021698 0.137726 0.028992
0.182404 0.163574 0.032227
0.317780 0.123077 0.034393
0.489990 0.071869 0.041901
0.668091 0.087097 0.121490
0.899445 0.157806 0.269653
0.954620 0.179810 0.328888
0.954620 0.179810 0.328888
0.045471 0.268219 0.074219
0.047241 0.270996 0.068665
0.085602 0.282104 0.042389
0.328979 0.296722 0.057739
0.489014 0.237610 0.063660
0.685242 0.178497 0.084656
0.922668 0.134644 0.192902
0.955841 0.216827 0.304504
0.955841 0.216827 0.304504
0.103058 0.418518 0.153839
0.101837 0.419647 0.149200
0.092377 0.423462 0.104797
0.195312 0.432434 0.093872
0.489929 0.453033 0.111389
0.681305 0.386353 0.119507
0.935333 0.309479 0.133850
0.958893 0.310425 0.239899
0.958893 0.310425 0.239899
0.168610 0.605255 0.264038
0.168213 0.605591 0.261993
0.164490 0.607483 0.244293
0.155518 0.615295 0.159637
0.330505 0.621490 0.157837
0.673889 0.635986 0.167999
0.927734 0.583649 0.171448
0.948364 0.585693 0.346375
0.948364 0.585693 0.346375
0.206329 0.879974 0.383514
0.206268 0.880157 0.382568
0.205658 0.880920 0.375519
0.203400 0.883667 0.350037
0.209045 0.894531 0.196045
0.500519 0.897644 0.193665
0.941162 0.899841 0.194275
0.967316 0.898499 0.504364
0.967316 0.898499 0.504364
0.191345 0.966309 0.434418
0.191406 0.966309 0.433777
0.191864 0.966309 0.428528
0.193481 0.966187 0.410065
0.244659 0.964233 0.350769
0.502197 0.967499 0.341797
0.863708 0.985229 0.441498
0.999390 0.997467 0.749481
0.999390 0.997467 0.749481
0.191345 0.966309 0.434418
0.191406 0.966309 0.433777
0.191864 0.966309 0.428528
0.193481 0.966187 0.410065
0.244659 0.964233 0.350769
0.502197 0.967499 0.341797
0.863708 0.985229 0.441498
0.999390 0.997467 0.749481
0.999390 0.997467 0.749481
0.003784 0.000458 0.131348
0.028625 0.001984 0.105225
0.139069 0.009918 0.116974
0.286285 0.028473 0.117310
0.453339 0.070068 0.144989
0.641754 0.113342 0.203186
0.888489 0.168213 0.299530
0.953186 0.186127 0.350311
0.953186 0.186127 0.350311
0.003510 0.020477 0.121613
0.021637 0.017120 0.153412
0.147644 0.021820 0.129181
0.295349 0.034332 0.119965
0.458588 0.069641 0.141571
0.644012 0.112427 0.200195
0.889526 0.167664 0.297882
0.953247 0.185791 0.349182
0.953247 0.185791 0.349182
0.022400 0.132172 0.131073
0.031616 0.134460 0.133453
0.133209 0.132996 0.135376
0.291351 0.121063 0.127686
0.459106 0.121521 0.145538
0.650085 0.133606 0.191620
0.896454 0.163544 0.285980
0.953857 0.183289 0.340729
0.953857 0.183289 0.340729
0.059021 0.267334 0.138580
0.061981 0.268066 0.136475
0.119446 0.276184 0.143036
0.312805 0.289703 0.146790
0.493835 0.255798 0.144562
0.684570 0.180084 0.122711
0.919769 0.143097 0.222717
0.955200 0.219635 0.318146
0.955200 0.219635 0.318146
0.111755 0.415649 0.188385
0.111115 0.416290 0.185364
0.139343 0.423309 0.184387
0.200500 0.440552 0.132172
0.520599 0.486115 0.167938
0.687561 0.391144 0.150055
0.938629 0.300293 0.132690
0.957794 0.315735 0.260498
0.957794 0.315735 0.260498
0.172150 0.604187 0.279663
0.171722 0.604584 0.277954
0.171417 0.607452 0.265594
0.159943 0.615143 0.195312
0.324554 0.623962 0.158661
0.684296 0.647278 0.170868
0.930328 0.583771 0.171448
0.947662 0.587433 0.360657
0.947662 0.587433 0.360657
0.207214 0.879852 0.390503
0.207092 0.879974 0.389587
0.206329 0.880951 0.383423
0.204163 0.883728 0.358856
0.203918 0.892395 0.217804
0.497833 0.898376 0.193573
0.942719 0.901886 0.194275
0.967438 0.899109 0.504761
0.967438 0.899109 0.504761
0.190765 0.966309 0.439758
0.190857 0.966309 0.439148
0.191345 0.966309 0.434418
0.192932 0.966309 0.416382
0.244781 0.964233 0.359283
0.502258 0.967865 0.350311
0.863220 0.985229 0.441620
0.999420 0.997528 0.749695
0.999420 0.997528 0.749695
0.190765 0.966309 0.439758
0.190857 0.966309 0.439148
0.191345 0.966309 0.434418
0.192932 0.966309 0.416382
0.244781 0.964233 0.359283
0.502258 0.967865 0.350311
0.863220 0.985229 0.441620
0.999420 0.997528 0.749695
0.999420 0.997528 0.749695
0.023376 0.016296 0.265259
0.046783 0.017975 0.252747
0.146179 0.023804 0.234070
0.281067 0.038239 0.248383
0.447754 0.083344 0.236053
0.634705 0.133301 0.267975
0.885254 0.180328 0.337677
0.950226 0.193787 0.378510
0.950226 0.193787 0.378510
0.020264 0.033051 0.272705
0.039032 0.030304 0.277283
0.151337 0.034271 0.243500
0.287750 0.042633 0.253662
0.452026 0.084747 0.236938
0.636749 0.133423 0.267120
0.886169 0.180054 0.336639
0.950317 0.193573 0.377686
0.950317 0.193573 0.377686
0.045868 0.136749 0.250214
0.049988 0.136902 0.259644
0.133026 0.128082 0.286438
0.292603 0.116394 0.260376
0.456726 0.127289 0.243347
0.643585 0.150543 0.262604
0.892059 0.177795 0.328156
0.951202 0.191925 0.370972
0.951202 0.191925 0.370972
0.075806 0.262482 0.260376
0.079285 0.263794 0.261414
0.128845 0.265839 0.265106
0.258636 0.257843 0.260620
0.444366 0.242737 0.250092
0.642151 0.239716 0.267517
0.894592 0.246490 0.323792
0.951355 0.237274 0.359619
0.951355 0.237274 0.359619
0.127991 0.413971 0.259705
0.127808 0.414490 0.258331
0.156372 0.415314 0.258698
0.243683 0.430847 0.269562
0.474609 0.448944 0.274078
0.685364 0.412018 0.270874
0.932434 0.315277 0.237457
0.955994 0.300323 0.283295
0.955994 0.300323 0.283295
0.181824 0.602051 0.320465
0.181580 0.602173 0.319366
0.181244 0.603546 0.311310
0.254974 0.612762 0.313385
0.336517 0.630798 0.248138
0.712616 0.674591 0.280029
0.930969 0.589813 0.254730
0.947418 0.585663 0.373077
0.947418 0.585663 0.373077
0.208893 0.879456 0.411896
0.208832 0.879578 0.411194
0.208527 0.880493 0.405731
0.228333 0.883179 0.391266
0.226929 0.891327 0.295197
0.489380 0.900726 0.202576
0.947510 0.908356 0.195648
0.968628 0.902039 0.518372
0.968628 0.902039 0.518372
0.189270 0.966309 0.456512
0.189331 0.966309 0.455872
0.189697 0.966309 0.451630
0.191132 0.966309 0.436584
0.232910 0.964752 0.381775
0.496307 0.967896 0.363556
0.863373 0.985748 0.458710
0.999573 0.997620 0.760132
0.999573 0.997620 0.760132
0.189270 0.966309 0.456512
0.189331 0.966309 0.455872
0.189697 0.966309 0.451630
0.191132 0.966309 0.436584
0.232910 0.964752 0.381775
0.496307 0.967896 0.363556
0.863373 0.985748 0.458710
0.999573 0.997620 0.760132
0.999573 0.997620 0.760132
0.071991 0.048737 0.425079
0.088318 0.050049 0.419891
0.168518 0.056458 0.392975
0.275085 0.071259 0.377472
0.445221 0.094025 0.392792
0.637878 0.146301 0.374969
0.880798 0.197144 0.417999
0.947418 0.202362 0.445953
0.947418 0.202362 0.445953
0.061005 0.052277 0.445770
0.082672 0.058655 0.428802
0.166840 0.064484 0.398590
0.276520 0.078033 0.379822
0.449280 0.095551 0.395996
0.639374 0.146729 0.375397
0.881409 0.197174 0.417694
0.947418 0.202362 0.445496
0.947418 0.202362 0.445496
0.085205 0.151825 0.400818
0.085449 0.149780 0.411224
0.148743 0.128143 0.439667
0.286285 0.132172 0.397766
0.453430 0.134247 0.402161
0.650269 0.150787 0.378662
0.886078 0.197449 0.415314
0.947418 0.202271 0.442261
0.947418 0.202271 0.442261
0.111786 0.260834 0.387665
0.112915 0.261200 0.390778
0.139771 0.261230 0.405365
0.262238 0.254578 0.428925
0.451324 0.240967 0.406403
0.643616 0.247192 0.388611
0.890015 0.257385 0.415253
0.947418 0.238434 0.437195
0.947418 0.238434 0.437195
0.141327 0.410858 0.403748
0.141693 0.411774 0.404480
0.171082 0.414062 0.406189
0.251038 0.420471 0.409576
0.412170 0.411469 0.407837
0.630157 0.393951 0.397186
0.889954 0.385834 0.419586
0.946045 0.380005 0.443787
0.946045 0.380005 0.443787
0.200073 0.602478 0.409424
0.200073 0.602600 0.408936
0.203979 0.603607 0.405853
0.273895 0.603088 0.406616
0.386993 0.618225 0.419281
0.658691 0.632538 0.416687
0.928711 0.605377 0.405273
0.945312 0.581940 0.427032
0.945312 0.581940 0.427032
0.208405 0.878906 0.468170
0.208435 0.878967 0.467712
0.208405 0.879578 0.464233
0.225800 0.881500 0.454590
0.358826 0.889160 0.453949
0.495697 0.906525 0.351379
0.958496 0.926971 0.360321
0.969543 0.911163 0.558990
0.969543 0.911163 0.558990
0.180603 0.966309 0.504486
0.180756 0.966309 0.503998
0.181488 0.966309 0.500671
0.184143 0.966309 0.489227
0.322937 0.967499 0.479736
0.487457 0.967712 0.422455
0.861694 0.986969 0.488556
1.000000 0.998047 0.783234
1.000000 0.998047 0.783234
0.180603 0.966309 0.504486
0.180756 0.966309 0.503998
0.181488 0.966309 0.500671
0.184143 0.966309 0.489227
0.322937 0.967499 0.479736
0.487457 0.967712 0.422455
0.861694 0.986969 0.488556
1.000000 0.998047 0.783234
1.000000 0.998047 0.783234
0.149963 0.099548 0.609161
0.158783 0.100708 0.606720
0.204498 0.108276 0.592926
0.296692 0.121094 0.568542
0.431091 0.144318 0.553162
0.629425 0.158844 0.576813
0.884430 0.199402 0.568115
0.947418 0.205139 0.587952
0.947418 0.205139 0.587952
0.142883 0.100464 0.616455
0.155396 0.105927 0.609894
0.202850 0.112976 0.595703
0.296661 0.125916 0.570709
0.431458 0.148804 0.553772
0.630646 0.159241 0.578033
0.885193 0.199463 0.568390
0.947418 0.205139 0.587952
0.947418 0.205139 0.587952
0.113770 0.149506 0.626038
0.111664 0.137085 0.636658
0.188904 0.149872 0.616302
0.294586 0.161743 0.584076
0.434631 0.180603 0.559753
0.638763 0.162750 0.585632
0.889893 0.199860 0.569855
0.947418 0.205139 0.587830
0.947418 0.205139 0.587830
0.153107 0.278381 0.574829
0.153168 0.277466 0.577911
0.159882 0.270721 0.598053
0.269470 0.248627 0.625488
0.442719 0.253723 0.576477
0.636322 0.247986 0.585205
0.900543 0.218567 0.571991
0.946838 0.255585 0.587952
0.946838 0.255585 0.587952
0.180847 0.411804 0.570282
0.181122 0.411926 0.571503
0.182739 0.412598 0.579407
0.253357 0.414795 0.592285
0.414124 0.402985 0.617737
0.637146 0.387329 0.593750
0.897858 0.377136 0.581421
0.945312 0.371124 0.592163
0.945312 0.371124 0.592163
0.211639 0.601288 0.594666
0.211700 0.601593 0.594940
0.218445 0.602509 0.596405
0.288361 0.604340 0.596802
0.392609 0.609039 0.600311
0.596161 0.597443 0.598083
0.898224 0.578369 0.585785
0.946838 0.569611 0.593994
0.946838 0.569611 0.593994
0.197144 0.883881 0.596436
0.197144 0.883911 0.596191
0.197021 0.884491 0.594513
0.226196 0.885437 0.590942
0.353607 0.887634 0.588837
0.532166 0.901611 0.593994
0.935608 0.905212 0.568085
0.971039 0.909821 0.612549
0.971039 0.909821 0.612549
0.148712 0.972687 0.616638
0.148743 0.972656 0.616364
0.149078 0.972534 0.614441
0.150360 0.972046 0.607971
0.290253 0.973389 0.604736
0.497345 0.977570 0.602142
0.858551 0.990784 0.584625
1.000000 0.998413 0.799591
1.000000 0.998413 0.799591
0.148712 0.972687 0.616638
0.148743 0.972656 0.616364
0.149078 0.972534 0.614441
0.150360 0.972046 0.607971
0.290253 0.973389 0.604736
0.497345 0.977570 0.602142
0.858551 0.990784 0.584625
1.000000 0.998413 0.799591
1.000000 0.998413 0.799591
0.249268 0.145264 0.875549
0.253784 0.146851 0.874420
0.282043 0.152679 0.867157
0.346832 0.169312 0.845245
0.468781 0.191650 0.809937
0.633331 0.227722 0.789459
0.892670 0.202301 0.831451
0.951447 0.242218 0.821442
0.951447 0.242218 0.821442
0.245728 0.145142 0.879181
0.251556 0.149872 0.875854
0.280426 0.155945 0.868561
0.346252 0.172791 0.846588
0.468964 0.195312 0.811035
0.633820 0.230316 0.789886
0.893280 0.202332 0.832092
0.951447 0.242218 0.821777
0.951447 0.242218 0.821777
0.214172 0.143585 0.904297
0.220245 0.143585 0.903595
0.267029 0.180084 0.878387
0.341339 0.196564 0.855408
0.469269 0.218048 0.818024
0.636169 0.247131 0.792877
0.897278 0.202637 0.835815
0.950348 0.254547 0.821960
0.950348 0.254547 0.821960
0.168335 0.267670 0.892426
0.167206 0.263275 0.896393
0.172333 0.230865 0.920441
0.315277 0.255829 0.887360
0.467041 0.272400 0.839111
0.641968 0.292450 0.803772
0.907867 0.217651 0.846466
0.946930 0.295227 0.824738
0.946930 0.295227 0.824738
0.205231 0.434235 0.826721
0.205200 0.433929 0.828278
0.204803 0.431488 0.839478
0.236450 0.421356 0.870850
0.424469 0.388123 0.910614
0.654694 0.392181 0.834625
0.912903 0.369263 0.853271
0.948029 0.369385 0.835175
0.948029 0.369385 0.835175
0.216736 0.610229 0.829681
0.216705 0.610260 0.830231
0.216370 0.610626 0.834198
0.215332 0.611969 0.847931
0.348969 0.610077 0.870026
0.599518 0.585754 0.908936
0.927155 0.553955 0.873535
0.955658 0.531372 0.863525
0.955658 0.531372 0.863525
0.163452 0.892761 0.881226
0.163391 0.892883 0.881317
0.162781 0.893677 0.881958
0.198639 0.894897 0.883148
0.321503 0.897400 0.885651
0.496094 0.903412 0.888031
0.887756 0.889648 0.886475
0.988586 0.884155 0.880341
0.988586 0.884155 0.880341
0.102173 0.976990 0.883270
0.102203 0.976990 0.883240
0.102264 0.976990 0.882965
0.104584 0.976990 0.881989
0.252655 0.978943 0.882294
0.448975 0.982849 0.880829
0.835632 0.998322 0.884338
1.000000 0.999176 0.884888
1.000000 0.999176 0.884888
0.102173 0.976990 0.883270
0.102203 0.976990 0.883240
0.102264 0.976990 0.882965
0.104584 0.976990 0.881989
0.252655 0.978943 0.882294
0.448975 0.982849 0.880829
0.835632 0.998322 0.884338
1.000000 0.999176 0.884888
1.000000 0.999176 0.884888
0.294128 0.151245 0.980927
0.297638 0.152069 0.980865
0.320221 0.158875 0.979675
0.379761 0.178040 0.971710
0.497040 0.213593 0.953522
0.669189 0.241608 0.925964
0.925964 0.196960 0.945953
0.971527 0.263245 0.955383
0.971527 0.263245 0.955383
0.291107 0.150391 0.981049
0.295746 0.155090 0.980743
0.318817 0.162323 0.979980
0.379089 0.181885 0.972290
0.496674 0.216217 0.953796
0.669464 0.243713 0.926575
0.926483 0.196960 0.946350
0.971588 0.263245 0.955688
0.971588 0.263245 0.955688
0.267212 0.150116 0.981415
0.271637 0.150177 0.981323
0.307404 0.185791 0.980103
0.373474 0.203827 0.975616
0.495178 0.233124 0.956451
0.671936 0.257355 0.929962
0.929810 0.196899 0.948914
0.971069 0.271942 0.956482
0.971069 0.271942 0.956482
0.159393 0.203522 0.979614
0.157684 0.194031 0.980408
0.205627 0.174652 0.981323
0.347748 0.256042 0.976898
0.489197 0.278198 0.965485
0.677826 0.294556 0.938538
0.939301 0.209747 0.955627
0.971558 0.298706 0.958710
0.971558 0.298706 0.958710
0.197876 0.441193 0.966431
0.197662 0.440430 0.967377
0.196167 0.434143 0.973480
0.238251 0.411896 0.976807
0.442352 0.382568 0.976868
0.692322 0.385681 0.958801
0.946381 0.351410 0.962433
0.973846 0.371490 0.964447
0.973846 0.371490 0.964447
0.192627 0.623077 0.959045
0.192566 0.623077 0.959442
0.191925 0.622833 0.962189
0.189972 0.621704 0.970520
0.318329 0.615417 0.982758
0.598236 0.571320 0.981049
0.962219 0.537323 0.975525
0.983307 0.533997 0.977844
0.983307 0.533997 0.977844
0.035004 0.916656 0.987823
0.034821 0.916718 0.987885
0.033752 0.917206 0.988312
0.030487 0.918640 0.989594
0.145844 0.922211 0.992950
0.392212 0.920197 0.993256
0.904846 0.888000 0.993988
0.997711 0.878082 0.993103
0.997711 0.878082 0.993103
0.000000 0.997833 0.997833
0.000000 0.997833 0.997833
0.000000 0.997833 0.997833
0.000000 0.997833 0.997833
0.118195 0.999939 0.997833
0.385468 0.999939 0.999939
0.800018 1.000000 1.000000
1.000000 1.000000 1.000000
1.000000 1.000000 1.000000
0.000000 0.997833 0.997833
0.000000 0.997833 0.997833
0.000000 0.997833 0.997833
0.000000 0.997833 0.997833
0.118195 0.999939 0.997833
0.385468 0.999939 0.999939
0.800018 1.000000 1.000000
1.000000 1.000000 1.000000
1.000000 1.000000 1.000000
0.294128 0.151245 0.980927
0.297638 0.152069 0.980865
0.320221 0.158875 0.979675
0.379761 0.178040 0.971710
0.497040 0.213593 0.953522
0.669189 0.241608 0.925964
0.925964 0.196960 0.945953
0.971527 0.263245 0.955383
0.971527 0.263245 0.955383
0.291107 0.150391 0.981049
0.295746 0.155090 0.980743
0.318817 0.162323 0.979980
0.379089 0.181885 0.972290
0.496674 0.216217 0.953796
0.669464 0.243713 0.926575
0.926483 0.196960 0.946350
0.971588 0.263245 0.955688
0.971588 0.263245 0.955688
0.267212 0.150116 0.981415
0.271637 0.150177 0.981323
0.307404 0.185791 0.980103
0.373474 0.203827 0.975616
0.495178 0.233124 0.956451
0.671936 0.257355 0.929962
0.929810 0.196899 0.948914
0.971069 0.271942 0.956482
0.971069 0.271942 0.956482
0.159393 0.203522 0.979614
0.157684 0.194031 0.980408
0.205627 0.174652 0.981323
0.347748 0.256042 0.976898
0.489197 0.278198 0.965485
0.677826 0.294556 0.938538
0.939301 0.209747 0.955627
0.971558 0.298706 0.958710
0.971558 0.298706 0.958710
0.197876 0.441193 0.966431
0.197662 0.440430 0.967377
0.196167 0.434143 0.973480
0.238251 0.411896 0.976807
0.442352 0.382568 0.976868
0.692322 0.385681 0.958801
0.946381 0.351410 0.962433
0.973846 0.371490 0.964447
0.973846 0.371490 0.964447
0.192627 0.623077 0.959045
0.192566 0.623077 0.959442
0.191925 0.622833 0.962189
0.189972 0.621704 0.970520
0.318329 0.615417 0.982758
0.598236 0.571320 0.981049
0.962219 0.537323 0.975525
0.983307 0.533997 0.977844
0.983307 0.533997 0.977844
0.035004 0.916656 0.987823
0.034821 0.916718 0.987885
0.033752 0.917206 0.988312
0.030487 0.918640 0.989594
0.145844 0.922211 0.992950
0.392212 0.920197 0.993256
0.904846 0.888000 0.993988
0.997711 0.878082 0.993103
0.997711 0.878082 0.993103
0.000000 0.997833 0.997833
0.000000 0.997833 0.997833
0.000000 0.997833 0.997833
0.000000 0.997833 0.997833
0.118195 0.999939 0.997833
0.385468 0.999939 0.999939
0.800018 1.000000 1.000000
1.000000 1.000000 1.000000
1.000000 1.000000 1.000000
0.000000 0.997833 0.997833
0.000000 0.997833 0.997833
0.000000 0.997833 0.997833
0.000000 0.997833 0.997833
0.118195 0.999939 0.997833
0.385468 0.999939 0.999939
0.800018 1.000000 1.000000
1.000000 1.000000 1.000000
1.000000 1.000000 1.000000
