Color-Correction/LUTs/GH5/Basic/IWLTBAP/U-PANASONIC-V-LOG-V1-LTR.cube
# Copyright: (C) Copyright 2010-2018 by IWLTBAP SAS
# Cannot be resold, shared or otherwise redistributed
# Website: https://luts.iwltbap.com
TITLE "Panasonic V-Log Version 1 (Utility LOG to Rec.709)"
LUT_3D_SIZE 5
DOMAIN_MIN 0.000000 0.000000 0.000000
DOMAIN_MAX 0.903226 0.903226 0.903226
0.000000 0.000000 0.000000
0.050018 0.000000 0.000000
0.416718 0.000000 0.000000
0.964111 0.000000 0.000000
1.000000 0.000000 0.000000
0.000000 0.069275 0.000000
0.048584 0.043976 0.000000
0.437683 0.017273 0.000000
0.965027 0.084686 0.000000
1.000000 0.000000 0.000000
0.000000 0.539093 0.000000
0.016479 0.521759 0.000000
0.375153 0.366821 0.000000
0.937988 0.242096 0.000000
1.000000 0.163696 0.000000
0.000000 0.998444 0.080719
0.000000 0.998352 0.080017
0.255981 0.967804 0.000000
0.857544 0.838287 0.000000
0.999939 0.742065 0.000000
0.000000 1.000000 0.067963
0.000000 1.000000 0.067017
0.109070 1.000000 0.000000
0.754608 1.000000 0.000000
0.998840 0.977051 0.000000
0.000000 0.000000 0.019348
0.053711 0.000000 0.021332
0.422211 0.000000 0.017883
0.965546 0.000000 0.077026
1.000000 0.000000 0.039459
0.000000 0.071625 0.060028
0.047821 0.045532 0.043823
0.439392 0.003235 0.013336
0.965302 0.053162 0.044983
1.000000 0.000000 0.000000
0.000000 0.540527 0.140808
0.000000 0.523590 0.122192
0.373901 0.366791 0.000000
0.939148 0.238342 0.000000
1.000000 0.162506 0.000000
0.000000 0.998413 0.103485
0.000000 0.998291 0.099548
0.248474 0.967896 0.024384
0.857422 0.838135 0.000000
0.999939 0.741760 0.000000
0.000000 1.000000 0.081451
0.000000 1.000000 0.081238
0.099396 1.000000 0.000061
0.754242 1.000000 0.000000
0.998840 0.977020 0.000000
0.000000 0.000000 0.243866
0.077637 0.000000 0.265717
0.437714 0.000000 0.288300
0.966370 0.000000 0.249329
1.000000 0.000000 0.206238
0.000000 0.106598 0.360046
0.050934 0.060577 0.349548
0.445129 0.003632 0.319855
0.966156 0.052826 0.250946
1.000000 0.000000 0.200470
0.000000 0.549896 0.510620
0.000000 0.533875 0.499115
0.363770 0.369690 0.386688
0.937561 0.197266 0.286255
1.000000 0.124786 0.224792
0.000000 0.999298 0.569824
0.000000 0.999451 0.567200
0.199646 0.978027 0.470093
0.852570 0.844696 0.304108
1.000000 0.741516 0.224609
0.000000 1.000000 0.477600
0.000000 1.000000 0.474548
0.074158 1.000000 0.413696
0.745178 1.000000 0.215546
0.999542 0.980591 0.132141
0.000000 0.030396 0.764923
0.122681 0.000000 0.769135
0.495483 0.000000 0.746490
0.967590 0.000000 0.662384
1.000000 0.000000 0.632294
0.000000 0.149048 0.835266
0.069000 0.092255 0.828247
0.491028 0.033508 0.780334
0.968384 0.046539 0.674194
1.000000 0.000000 0.634979
0.000000 0.569061 0.944336
0.000000 0.558014 0.942261
0.366547 0.389069 0.877655
0.936554 0.198151 0.764679
1.000000 0.124298 0.709167
0.000000 1.000000 0.994659
0.000000 1.000000 0.994659
0.186554 0.981201 0.966034
0.850525 0.857971 0.877625
0.999969 0.790527 0.830994
0.000000 1.000000 0.992828
0.000000 1.000000 0.992645
0.069946 1.000000 0.983887
0.776764 1.000000 0.885559
0.997955 0.995575 0.839447
0.000000 0.042084 0.986450
0.129456 0.000000 0.975067
0.498322 0.000000 0.920959
0.970367 0.000000 0.818451
1.000000 0.000000 0.773621
0.000000 0.149292 0.996460
0.077393 0.099640 0.991974
0.486633 0.049561 0.931274
0.971008 0.000000 0.822754
1.000000 0.000000 0.774231
0.000000 0.559448 1.000000
0.000000 0.550079 1.000000
0.362610 0.389038 0.995636
0.936096 0.189117 0.904816
1.000000 0.115479 0.846771
0.000000 1.000000 1.000000
0.000000 1.000000 1.000000
0.172638 0.976379 1.000000
0.850769 0.861877 0.997223
0.999969 0.789368 0.961731
0.000000 1.000000 1.000000
0.000000 1.000000 1.000000
0.065857 1.000000 1.000000
0.768372 1.000000 1.000000
0.997101 0.998322 0.998535
