Color-Correction/LUTs/GH5/Basic/IWLTBAP/U-PANASONIC-V-LOG-V2-LTR.cube
# Copyright: (C) Copyright 2010-2018 by IWLTBAP SAS
# Cannot be resold, shared or otherwise redistributed
# Website: https://luts.iwltbap.com
TITLE "Panasonic V-Log Version 2 (Utility LOG to Rec.709)"
LUT_3D_SIZE 8
DOMAIN_MIN 0.000000 0.000000 0.000000
DOMAIN_MAX 0.903226 0.903226 0.903226
0.000000 0.000000 0.000000
0.056183 0.000000 0.000000
0.189117 0.000000 0.000000
0.424683 0.000000 0.000000
0.718872 0.000000 0.000000
0.967499 0.000000 0.000000
0.996063 0.000000 0.000000
0.996063 0.000000 0.000000
0.000000 0.061676 0.007263
0.045471 0.043945 0.000000
0.178406 0.004547 0.000000
0.413971 0.000000 0.000000
0.708191 0.000000 0.000000
0.960449 0.000000 0.000000
0.996063 0.000000 0.000000
0.996063 0.000000 0.000000
0.000000 0.207123 0.032257
0.022064 0.189178 0.020874
0.155029 0.149963 0.000000
0.390564 0.080292 0.000000
0.684814 0.000000 0.000000
0.944733 0.000000 0.000000
0.996063 0.000000 0.000000
0.996063 0.000000 0.000000
0.000000 0.464600 0.076324
0.000000 0.446808 0.065094
0.113403 0.407471 0.040375
0.348969 0.337799 0.000000
0.643311 0.250732 0.000000
0.913055 0.170380 0.000000
0.996063 0.119171 0.000000
0.996063 0.103729 0.000000
0.000000 0.786407 0.131531
0.000000 0.768585 0.120361
0.061554 0.729279 0.095581
0.297089 0.659607 0.051514
0.591522 0.572662 0.000000
0.861115 0.492157 0.000000
0.994751 0.440979 0.000000
0.996063 0.425537 0.000000
0.000000 0.992371 0.182648
0.000000 0.989319 0.171326
0.013702 0.979156 0.146515
0.249207 0.942535 0.102600
0.543549 0.866333 0.047607
0.813232 0.785950 0.000000
0.977203 0.734833 0.000000
0.996063 0.719208 0.000000
0.000000 0.996063 0.215027
0.000000 0.996063 0.203857
0.000000 0.996063 0.179077
0.218689 0.996063 0.135040
0.513123 0.996063 0.080139
0.782837 0.970856 0.029388
0.954285 0.923218 0.000000
0.996063 0.907562 0.000000
0.000000 0.996063 0.224884
0.000000 0.996063 0.213684
0.000000 0.996063 0.188934
0.209473 0.996063 0.144867
0.503876 0.996063 0.089996
0.773560 0.996063 0.039185
0.944977 0.983826 0.007080
0.995789 0.968384 0.000000
0.000000 0.000000 0.044952
0.055664 0.000000 0.033783
0.188599 0.000000 0.008972
0.424164 0.000000 0.000000
0.718353 0.000000 0.000000
0.967163 0.000000 0.000000
0.996063 0.000000 0.000000
0.996063 0.000000 0.000000
0.000000 0.062897 0.056213
0.044983 0.044983 0.044983
0.177917 0.005798 0.020203
0.413483 0.000000 0.000000
0.707886 0.000000 0.000000
0.960205 0.000000 0.000000
0.996063 0.000000 0.000000
0.996063 0.000000 0.000000
0.000000 0.208191 0.081238
0.021545 0.190430 0.070007
0.154480 0.151031 0.045197
0.390045 0.081360 0.001221
0.684448 0.000000 0.000000
0.944489 0.000000 0.000000
0.996063 0.000000 0.000000
0.996063 0.000000 0.000000
0.000000 0.465668 0.125488
0.000000 0.447937 0.114105
0.113037 0.408691 0.089325
0.348602 0.338867 0.045441
0.642822 0.251923 0.000000
0.912567 0.171448 0.000000
0.996063 0.120300 0.000000
0.996063 0.104797 0.000000
0.000000 0.787598 0.180664
0.000000 0.769745 0.169434
0.061035 0.730469 0.144653
0.296600 0.660797 0.100708
0.591003 0.573700 0.045715
0.860718 0.493317 0.000000
0.996063 0.442139 0.000000
0.996063 0.426605 0.000000
0.000000 0.992554 0.231659
0.000000 0.989563 0.220490
0.013275 0.983032 0.195587
0.248840 0.956879 0.151672
0.543121 0.869629 0.096771
0.812805 0.789368 0.045990
0.987366 0.738190 0.013672
0.996063 0.722534 0.003967
0.000000 0.996063 0.264099
0.000000 0.996063 0.252869
0.000000 0.996063 0.228088
0.218262 0.996063 0.184082
0.512604 0.996063 0.129150
0.782288 0.979523 0.078522
0.957458 0.928467 0.046204
0.996063 0.912781 0.036407
0.000000 0.996063 0.273865
0.000000 0.996063 0.262665
0.000000 0.996063 0.237915
0.208954 0.996063 0.194031
0.503326 0.996063 0.139069
0.773041 0.996063 0.088348
0.948181 0.985992 0.056061
0.996063 0.970520 0.046234
0.000000 0.000000 0.153412
0.054626 0.000000 0.141998
0.187561 0.000000 0.117249
0.423126 0.000000 0.073364
0.717468 0.000000 0.018402
0.966492 0.000000 0.000000
0.996063 0.000000 0.000000
0.996063 0.000000 0.000000
0.000000 0.065308 0.164581
0.043945 0.047424 0.153412
0.176880 0.008209 0.128632
0.412445 0.000000 0.084564
0.706848 0.000000 0.029694
0.959473 0.000000 0.000000
0.996063 0.000000 0.000000
0.996063 0.000000 0.000000
0.000000 0.210602 0.189606
0.020538 0.192841 0.178223
0.153473 0.153473 0.153473
0.389038 0.083832 0.109619
0.683380 0.000000 0.054657
0.943817 0.000000 0.003967
0.996063 0.000000 0.000000
0.996063 0.000000 0.000000
0.000000 0.468231 0.233765
0.000000 0.450317 0.222504
0.112030 0.411102 0.197693
0.347565 0.341461 0.153748
0.641815 0.254364 0.098785
0.911530 0.173889 0.048065
0.996063 0.122711 0.015839
0.996063 0.107239 0.006042
0.000000 0.790009 0.288910
0.000000 0.772278 0.277771
0.060120 0.732880 0.252960
0.295685 0.663239 0.208923
0.589996 0.576141 0.154022
0.859619 0.495789 0.103394
0.996063 0.444641 0.071106
0.996063 0.429077 0.061279
0.000000 0.992889 0.339996
0.000000 0.989899 0.328705
0.012177 0.983398 0.303955
0.247742 0.959320 0.259949
0.542084 0.872040 0.205048
0.811768 0.791748 0.154388
0.986450 0.740570 0.122101
0.996063 0.725098 0.112305
0.000000 0.996063 0.372406
0.000000 0.996063 0.361237
0.000000 0.996063 0.336456
0.217316 0.996063 0.292480
0.511566 0.996063 0.237518
0.781281 0.981689 0.186829
0.956512 0.931030 0.154572
0.996063 0.915283 0.144775
0.000000 0.996063 0.382324
0.000000 0.996063 0.371063
0.000000 0.996063 0.346283
0.208069 0.996063 0.302277
0.502350 0.996063 0.247345
0.772034 0.996063 0.196625
0.947174 0.988434 0.164398
0.996063 0.972931 0.154633
0.000000 0.003693 0.345215
0.052765 0.000000 0.333984
0.185699 0.000000 0.309265
0.421265 0.000000 0.265167
0.715668 0.000000 0.210327
0.965393 0.000000 0.159668
0.996063 0.000000 0.127380
0.996063 0.000000 0.117584
0.000000 0.069611 0.356567
0.042114 0.051880 0.345367
0.175079 0.012451 0.320435
0.410614 0.000000 0.276611
0.705017 0.000000 0.221649
0.958344 0.000000 0.170929
0.996063 0.000000 0.138641
0.996063 0.000000 0.128815
0.000000 0.215027 0.381439
0.018799 0.197113 0.370270
0.151611 0.157898 0.345459
0.387146 0.088226 0.301453
0.681580 0.001770 0.246521
0.942627 0.000000 0.195953
0.996063 0.000000 0.163605
0.996063 0.000000 0.153809
0.000000 0.472504 0.425751
0.000000 0.454742 0.414551
0.110138 0.415375 0.389709
0.345703 0.345703 0.345703
0.640137 0.258636 0.290741
0.909821 0.178284 0.240051
0.996063 0.127106 0.207855
0.996063 0.111511 0.198029
0.000000 0.794373 0.480988
0.000000 0.776520 0.469727
0.058319 0.737183 0.444916
0.293823 0.667511 0.400970
0.588104 0.580566 0.346008
0.857819 0.500122 0.295410
0.996063 0.448883 0.263031
0.996063 0.433441 0.253235
0.000000 0.993683 0.531921
0.000000 0.990601 0.520691
0.010376 0.984192 0.495941
0.245941 0.963715 0.451874
0.540253 0.876495 0.397034
0.809937 0.796021 0.346283
0.984802 0.744812 0.314087
0.996063 0.729370 0.304291
0.000000 0.996063 0.564484
0.000000 0.996063 0.553192
0.000000 0.996063 0.528412
0.215546 0.996063 0.484436
0.509735 0.996063 0.429443
0.779419 0.985535 0.378815
0.954651 0.935272 0.346466
0.996063 0.919647 0.336670
0.000000 0.996063 0.574310
0.000000 0.996063 0.563049
0.000000 0.996063 0.538239
0.206268 0.996063 0.494293
0.500488 0.996063 0.439301
0.770172 0.996063 0.388611
0.945282 0.992432 0.356293
0.996002 0.977173 0.346619
0.000000 0.009216 0.585175
0.050476 0.000000 0.573975
0.183411 0.000000 0.549103
0.418945 0.000000 0.505127
0.713379 0.000000 0.450317
0.963898 0.000000 0.399506
0.996063 0.000000 0.367157
0.996063 0.000000 0.357452
0.000000 0.075073 0.596405
0.039917 0.057220 0.585175
0.172913 0.017883 0.560455
0.408447 0.000000 0.516418
0.702698 0.000000 0.461517
0.956696 0.000000 0.410797
0.996063 0.000000 0.378571
0.996063 0.000000 0.368774
0.000000 0.220428 0.621399
0.016541 0.202576 0.610229
0.149414 0.163269 0.585297
0.384979 0.093628 0.541443
0.679291 0.006500 0.486511
0.941071 0.000000 0.435791
0.996063 0.000000 0.403534
0.996063 0.000000 0.393677
0.000000 0.477936 0.665619
0.000000 0.460175 0.654327
0.107849 0.420776 0.629517
0.343414 0.351074 0.585541
0.637848 0.264038 0.530579
0.907562 0.183777 0.480011
0.996063 0.132568 0.447662
0.996063 0.117035 0.437897
0.000000 0.799713 0.720856
0.000000 0.781982 0.709534
0.056091 0.742554 0.684723
0.291656 0.672974 0.640930
0.585938 0.585938 0.585938
0.855652 0.505585 0.535278
0.996063 0.454407 0.502930
0.996063 0.438812 0.493103
0.000000 0.994568 0.771820
0.000000 0.991577 0.760590
0.008179 0.985077 0.735809
0.243744 0.967529 0.691864
0.538086 0.881836 0.636902
0.807648 0.801514 0.586182
0.982819 0.750366 0.553925
0.996063 0.734863 0.544159
0.000000 0.996063 0.804260
0.000000 0.996063 0.793030
0.000000 0.996063 0.768219
0.213196 0.996063 0.724335
0.507507 0.996063 0.669342
0.777161 0.990265 0.618652
0.952423 0.940704 0.586426
0.996063 0.925018 0.576599
0.000000 0.996063 0.814209
0.000000 0.996063 0.802887
0.000000 0.996063 0.778076
0.203979 0.996063 0.734161
0.498291 0.996063 0.679169
0.767883 0.996063 0.628571
0.943085 0.996063 0.596252
0.995544 0.982666 0.586426
0.000000 0.014282 0.806519
0.048401 0.000000 0.795319
0.181366 0.000000 0.770447
0.416901 0.000000 0.726624
0.711334 0.000000 0.671600
0.962463 0.000000 0.620972
0.996063 0.000000 0.588623
0.996063 0.000000 0.578796
0.000000 0.080048 0.817871
0.037872 0.062195 0.806671
0.170746 0.022888 0.781830
0.406311 0.000000 0.737823
0.700653 0.000000 0.682922
0.955322 0.000000 0.632141
0.996063 0.000000 0.599884
0.996063 0.000000 0.590088
0.000000 0.225403 0.842773
0.014404 0.207672 0.831573
0.147339 0.168213 0.806671
0.382812 0.098602 0.762817
0.677216 0.011475 0.707916
0.939697 0.000000 0.657166
0.996063 0.000000 0.624878
0.996063 0.000000 0.615021
0.000000 0.482941 0.886963
0.000000 0.465149 0.875732
0.105804 0.425812 0.850983
0.341370 0.356201 0.806915
0.635712 0.269104 0.752045
0.905426 0.188751 0.701324
0.996063 0.137543 0.669098
0.996063 0.122101 0.659332
0.000000 0.804810 0.942444
0.000000 0.787018 0.931122
0.054047 0.747711 0.906219
0.289612 0.678070 0.862213
0.583771 0.590881 0.807373
0.853485 0.510559 0.756592
0.996063 0.459412 0.724426
0.996063 0.443909 0.714569
0.000000 0.995453 0.981995
0.000000 0.992462 0.978210
0.006042 0.985962 0.957306
0.241608 0.970306 0.913391
0.536011 0.886810 0.858246
0.805573 0.806610 0.807648
0.980743 0.755402 0.775299
0.996063 0.739899 0.765503
0.000000 0.996063 0.991882
0.000000 0.996063 0.985443
0.000000 0.996063 0.970398
0.211151 0.996063 0.941864
0.505341 0.996063 0.888947
0.775055 0.993134 0.838165
0.950226 0.945801 0.805847
0.996063 0.930176 0.795990
0.000000 0.996063 0.988739
0.000000 0.996063 0.986786
0.000000 0.996063 0.982758
0.201935 0.996063 0.954926
0.496124 0.996063 0.899933
0.765839 0.996063 0.849121
0.940948 0.996063 0.816925
0.993652 0.987732 0.807098
0.000000 0.017487 0.947632
0.047058 0.000000 0.936432
0.179993 0.000000 0.911499
0.415558 0.000000 0.867493
0.709961 0.000000 0.812561
0.961517 0.000000 0.761932
0.996063 0.000000 0.729614
0.996063 0.000000 0.719788
0.000000 0.083313 0.959076
0.036560 0.065430 0.947815
0.169495 0.026123 0.922821
0.405060 0.000000 0.878815
0.699310 0.000000 0.823853
0.954468 0.000000 0.773224
0.996063 0.000000 0.740814
0.996063 0.000000 0.731018
0.000000 0.228577 0.983978
0.013123 0.210876 0.972778
0.146088 0.171448 0.947876
0.381592 0.101776 0.903748
0.675873 0.014709 0.848755
0.938751 0.000000 0.798126
0.996063 0.000000 0.765839
0.996063 0.000000 0.756012
0.000000 0.486145 0.996063
0.000000 0.468353 0.995728
0.104462 0.429016 0.990051
0.339996 0.359253 0.948120
0.634430 0.272339 0.893036
0.904144 0.191925 0.842285
0.996063 0.140747 0.810120
0.996063 0.125183 0.800323
0.000000 0.808044 0.996063
0.000000 0.790161 0.996063
0.052673 0.750854 0.996063
0.288239 0.681122 0.993225
0.582397 0.594116 0.948517
0.852112 0.513763 0.897552
0.996063 0.462555 0.865265
0.996063 0.446991 0.855560
0.000000 0.996063 0.996063
0.000000 0.993103 0.996063
0.004700 0.986603 0.996063
0.240265 0.972107 0.996063
0.534668 0.890045 0.992798
0.804230 0.809784 0.948792
0.979584 0.758606 0.916321
0.996063 0.742920 0.906494
0.000000 0.996063 0.996063
0.000000 0.996063 0.996063
0.000000 0.996063 0.996063
0.209839 0.996063 0.996063
0.504181 0.996063 0.996063
0.773712 0.993927 0.976349
0.948883 0.948883 0.946594
0.996063 0.933411 0.936737
0.000000 0.996063 0.996063
0.000000 0.996063 0.996063
0.000000 0.996063 0.996063
0.200562 0.996063 0.996063
0.494904 0.996063 0.996063
0.764465 0.996063 0.990173
0.939575 0.996063 0.958923
0.992310 0.990936 0.949066
0.000000 0.018341 0.990570
0.046753 0.000641 0.979340
0.179688 0.000000 0.954590
0.415253 0.000000 0.910278
0.709442 0.000000 0.855408
0.961121 0.000000 0.804626
0.996063 0.000000 0.772278
0.996063 0.000000 0.762695
0.000000 0.084198 0.996063
0.036041 0.066467 0.990570
0.169037 0.027100 0.965820
0.404572 0.000000 0.921570
0.699005 0.000000 0.866669
0.954132 0.000000 0.816040
0.996063 0.000000 0.783722
0.996063 0.000000 0.773895
0.000000 0.229614 0.996063
0.012634 0.211761 0.996063
0.145599 0.172546 0.990814
0.381165 0.102722 0.946808
0.675568 0.015717 0.891632
0.938416 0.000000 0.840912
0.996063 0.000000 0.808716
0.996063 0.000000 0.798920
0.000000 0.487091 0.996063
0.000000 0.469360 0.996063
0.104126 0.430023 0.996063
0.339691 0.360382 0.991058
0.633881 0.273285 0.936035
0.903595 0.192871 0.885132
0.996063 0.141754 0.852844
0.996063 0.126160 0.842987
0.000000 0.808990 0.996063
0.000000 0.791168 0.996063
0.052246 0.751862 0.996063
0.287811 0.682159 0.996063
0.582123 0.595093 0.991333
0.851807 0.514740 0.940582
0.996063 0.463562 0.908081
0.996063 0.448090 0.898254
0.000000 0.996063 0.996063
0.000000 0.993347 0.996063
0.004364 0.986816 0.996063
0.239929 0.972626 0.996063
0.534210 0.891113 0.996063
0.803894 0.810669 0.991577
0.979095 0.759491 0.959381
0.996063 0.744019 0.949554
0.000000 0.996063 0.996063
0.000000 0.996063 0.996063
0.000000 0.996063 0.996063
0.209412 0.996063 0.996063
0.503693 0.996063 0.996063
0.773407 0.994202 0.996063
0.948547 0.949921 0.991241
0.996063 0.934265 0.981415
0.000000 0.996063 0.996063
0.000000 0.996063 0.996063
0.000000 0.996063 0.996063
0.200134 0.996063 0.996063
0.494476 0.996063 0.996063
0.764160 0.996063 0.996063
0.939301 0.996063 0.996063
0.991821 0.991821 0.991821
