Color-Correction/LUTs/GH5/Basic/IWLTBAP/U-PANASONIC-V-LOG-V7-LTR.cube
# Copyright: (C) Copyright 2010-2018 by IWLTBAP SAS
# Cannot be resold, shared or otherwise redistributed
# Website: https://luts.iwltbap.com
TITLE "Panasonic V-Log Version 7 (Utility LOG to Rec.709)"
LUT_3D_SIZE 9
0.000000 0.000000 0.000000
0.021088 0.000000 0.000000
0.104034 0.000000 0.000000
0.233856 0.000000 0.011932
0.397552 0.000000 0.043152
0.603912 0.035278 0.114380
0.866882 0.084351 0.206177
0.930450 0.098480 0.257690
0.940613 0.107147 0.261658
0.000000 0.017731 0.000000
0.021698 0.025330 0.002777
0.118988 0.010834 0.000000
0.249390 0.000977 0.001984
0.407349 0.004913 0.037689
0.612366 0.034790 0.112549
0.874512 0.082977 0.207947
0.928345 0.092346 0.254456
0.940613 0.107147 0.261658
0.000000 0.102264 0.013214
0.000580 0.099884 0.000793
0.132141 0.112122 0.003174
0.260803 0.094025 0.003540
0.427429 0.051819 0.013428
0.627716 0.023956 0.069824
0.877106 0.080566 0.195221
0.932129 0.093445 0.244873
0.938080 0.104340 0.248962
0.000000 0.223480 0.030457
0.000000 0.229431 0.023254
0.042908 0.230957 0.003174
0.270691 0.236816 0.009460
0.444946 0.201324 0.023254
0.647949 0.143463 0.043182
0.891998 0.059357 0.124329
0.930450 0.125641 0.222992
0.936371 0.129517 0.226685
0.000000 0.358398 0.097870
0.000000 0.377716 0.102936
0.000000 0.375214 0.058777
0.144501 0.386108 0.054199
0.440857 0.393982 0.065094
0.646454 0.345062 0.075684
0.900879 0.258636 0.082367
0.928772 0.237823 0.158752
0.935547 0.249664 0.170685
0.001770 0.549805 0.179688
0.011627 0.549805 0.183807
0.002960 0.551270 0.162445
0.001190 0.562622 0.106171
0.259735 0.575867 0.106689
0.648956 0.590576 0.115265
0.902161 0.544891 0.112579
0.922852 0.536987 0.248535
0.930450 0.544922 0.254456
0.000000 0.865173 0.275452
0.000000 0.856506 0.274078
0.000000 0.857452 0.265411
0.000000 0.855560 0.237152
0.000000 0.873840 0.108948
0.439270 0.871887 0.105316
0.917786 0.883453 0.098816
0.937653 0.873352 0.399017
0.941498 0.878632 0.412476
0.000000 0.955048 0.326172
0.000000 0.952667 0.322906
0.000000 0.951233 0.315613
0.000000 0.949280 0.290466
0.000000 0.952179 0.226624
0.433075 0.956970 0.217560
0.837830 0.966644 0.324280
0.971558 0.980652 0.699188
0.968933 0.977722 0.707703
0.000000 0.957458 0.327484
0.000000 0.954102 0.324341
0.000000 0.951691 0.314697
0.000000 0.949768 0.288635
0.000000 0.953613 0.227142
0.428436 0.953613 0.214447
0.837402 0.966156 0.325714
0.965027 0.973389 0.695007
0.971558 0.980652 0.706635
0.000000 0.000000 0.011749
0.017548 0.000000 0.012909
0.096649 0.000000 0.013702
0.234833 0.000000 0.022491
0.398529 0.001465 0.054810
0.597961 0.036285 0.117004
0.865997 0.083405 0.206604
0.926636 0.090820 0.251282
0.936401 0.102936 0.258148
0.000000 0.017731 0.017639
0.008667 0.011322 0.009064
0.095154 0.010834 0.009949
0.229156 0.003448 0.013794
0.404236 0.001984 0.044891
0.609894 0.037750 0.115265
0.860840 0.077576 0.200714
0.927063 0.091858 0.251282
0.934662 0.100983 0.258575
0.000000 0.094055 0.016052
0.003540 0.100739 0.017639
0.142365 0.121246 0.008667
0.262329 0.091522 0.012909
0.429993 0.043060 0.008087
0.624786 0.023468 0.077484
0.872406 0.078125 0.191101
0.927490 0.093964 0.244019
0.938080 0.101440 0.248535
0.000000 0.226440 0.045074
0.000000 0.229431 0.040649
0.040344 0.232422 0.003540
0.285187 0.251160 0.011230
0.444977 0.205719 0.022461
0.638123 0.133942 0.040070
0.895813 0.062408 0.129211
0.928345 0.124146 0.222992
0.935547 0.125977 0.223938
0.000000 0.365326 0.107422
0.000000 0.377197 0.108521
0.000000 0.375702 0.063812
0.140900 0.390533 0.056976
0.450104 0.400452 0.067505
0.648438 0.341644 0.075714
0.904694 0.259583 0.086029
0.930450 0.242249 0.165680
0.935547 0.240295 0.163818
0.009857 0.550293 0.185669
0.013428 0.552734 0.184692
0.004028 0.554718 0.168335
0.003357 0.564575 0.107117
0.256134 0.576843 0.106171
0.648956 0.593079 0.117004
0.903839 0.545898 0.111633
0.926208 0.534546 0.249908
0.930450 0.544922 0.254456
0.000000 0.861328 0.275909
0.000000 0.862274 0.279053
0.000000 0.858917 0.270844
0.000000 0.869507 0.245331
0.000000 0.872375 0.113434
0.442902 0.877197 0.104797
0.914001 0.875275 0.096069
0.935547 0.866638 0.398529
0.942322 0.875763 0.405884
0.000000 0.956024 0.328003
0.000000 0.955536 0.329773
0.000000 0.955048 0.320129
0.000000 0.957001 0.302399
0.000000 0.954590 0.233521
0.431061 0.955536 0.221161
0.837433 0.966644 0.329346
0.965454 0.973877 0.699707
0.969818 0.978210 0.704529
0.000000 0.956970 0.326569
0.000000 0.957947 0.331665
0.000000 0.957458 0.323425
0.000000 0.958923 0.300995
0.000000 0.953613 0.231232
0.428436 0.956512 0.217560
0.838715 0.966156 0.326172
0.968506 0.977234 0.701874
0.968506 0.977234 0.703461
0.000000 0.000000 0.079742
0.025146 0.000000 0.068024
0.107025 0.000000 0.080658
0.226562 0.000000 0.078308
0.388245 0.007904 0.096069
0.597931 0.045624 0.141937
0.862579 0.087402 0.218964
0.927490 0.095978 0.263977
0.930450 0.099518 0.265381
0.000000 0.015778 0.073883
0.017548 0.014313 0.108337
0.117493 0.010834 0.088837
0.239563 0.002960 0.082001
0.403717 0.010345 0.099243
0.605408 0.048340 0.141602
0.865082 0.083496 0.218964
0.926239 0.093903 0.262573
0.935089 0.104370 0.266296
0.000000 0.104187 0.098877
0.001099 0.098419 0.092926
0.100922 0.094452 0.096954
0.242126 0.083435 0.084686
0.399597 0.070648 0.096954
0.611877 0.072174 0.134735
0.872833 0.084351 0.208862
0.930450 0.095490 0.254456
0.936371 0.102417 0.259949
0.000000 0.221008 0.097412
0.000000 0.227448 0.094238
0.065277 0.229431 0.101105
0.268097 0.241333 0.099335
0.453186 0.214478 0.100250
0.650421 0.133545 0.078308
0.889435 0.066254 0.152069
0.930023 0.126099 0.234894
0.936401 0.130890 0.238068
0.002380 0.355408 0.133362
0.007690 0.371277 0.140594
0.052002 0.374207 0.135193
0.144531 0.393524 0.088684
0.483978 0.436432 0.114349
0.657288 0.343079 0.099243
0.905121 0.244781 0.082367
0.927490 0.236328 0.178772
0.936401 0.248688 0.187927
0.008667 0.550293 0.197968
0.018738 0.554230 0.202972
0.011353 0.557709 0.185669
0.004425 0.567505 0.131500
0.251434 0.583740 0.108063
0.664551 0.607788 0.118774
0.904694 0.546387 0.112579
0.923676 0.539429 0.263580
0.932556 0.548340 0.272217
0.000000 0.869019 0.289062
0.000000 0.864685 0.288666
0.000000 0.864197 0.278168
0.000000 0.864227 0.253540
0.000000 0.876709 0.127045
0.434631 0.878174 0.107117
0.920319 0.886322 0.098816
0.938538 0.872375 0.401764
0.944031 0.879608 0.407776
0.000000 0.958893 0.337555
0.000000 0.957458 0.335754
0.000000 0.955048 0.328888
0.000000 0.954590 0.307343
0.000000 0.955536 0.244446
0.429993 0.957458 0.230774
0.837769 0.966644 0.321136
0.970673 0.979675 0.703461
0.971985 0.981140 0.709320
0.000000 0.959381 0.334808
0.000000 0.957947 0.338470
0.000000 0.956482 0.330292
0.000000 0.953613 0.307343
0.000000 0.956512 0.240845
0.425354 0.953613 0.226227
0.839935 0.967133 0.314697
0.965881 0.974335 0.698120
0.970673 0.979675 0.708740
0.005432 0.000000 0.202545
0.035095 0.000000 0.197052
0.120056 0.000000 0.175110
0.237976 0.000000 0.188416
0.389801 0.021698 0.179260
0.593445 0.077148 0.204285
0.861694 0.094452 0.249451
0.923706 0.098022 0.288208
0.930450 0.108246 0.294128
0.000000 0.017242 0.212585
0.017548 0.008881 0.214783
0.121124 0.006897 0.177002
0.239014 0.000000 0.191132
0.394958 0.025024 0.179749
0.599915 0.078552 0.204803
0.862976 0.092957 0.250793
0.924957 0.100006 0.286316
0.932159 0.107697 0.293243
0.000000 0.098389 0.189728
0.000000 0.098907 0.201630
0.088409 0.084961 0.222107
0.246277 0.075653 0.199768
0.405273 0.076630 0.184265
0.604919 0.088318 0.197510
0.869873 0.092896 0.242157
0.928345 0.100494 0.284058
0.933868 0.108643 0.292358
0.000000 0.223480 0.208466
0.000000 0.221008 0.208038
0.068359 0.214539 0.206207
0.211487 0.206665 0.201599
0.402679 0.188873 0.191071
0.603912 0.169098 0.197021
0.876678 0.156219 0.243958
0.928345 0.136383 0.271759
0.933411 0.142853 0.276367
0.043121 0.363861 0.204834
0.047394 0.372223 0.206604
0.079224 0.366333 0.202484
0.179810 0.385132 0.213440
0.438782 0.396515 0.210785
0.661652 0.362366 0.201141
0.904694 0.246765 0.162506
0.932159 0.224030 0.204315
0.936829 0.233917 0.208466
0.028687 0.546844 0.236267
0.032043 0.553772 0.237183
0.028778 0.555237 0.228485
0.130432 0.565033 0.231720
0.258209 0.592590 0.173340
0.690216 0.637665 0.192505
0.908508 0.548340 0.171082
0.926208 0.536530 0.279480
0.932159 0.543396 0.282715
0.000000 0.865173 0.310608
0.000000 0.861298 0.311523
0.000000 0.865173 0.306000
0.000000 0.867096 0.286835
0.000000 0.870453 0.187469
0.425354 0.887756 0.110718
0.923309 0.890167 0.096069
0.938934 0.874786 0.418488
0.943207 0.884888 0.431976
0.000000 0.956512 0.356903
0.000000 0.955048 0.353241
0.000000 0.956512 0.349548
0.000000 0.957458 0.331635
0.000000 0.954102 0.269928
0.416595 0.956024 0.243073
0.837830 0.968567 0.352295
0.968933 0.977234 0.710358
0.973328 0.981140 0.719452
0.000000 0.958435 0.351837
0.000000 0.957947 0.355499
0.000000 0.956970 0.348175
0.000000 0.959869 0.337097
0.000000 0.953613 0.267670
0.411957 0.956512 0.240356
0.842651 0.968567 0.352753
0.968933 0.977234 0.711426
0.971558 0.980652 0.718903
0.026825 0.001984 0.342194
0.054169 0.001984 0.342682
0.134155 0.007874 0.317444
0.235901 0.016754 0.299622
0.391327 0.023651 0.314667
0.593414 0.080505 0.301941
0.862579 0.116089 0.339417
0.925385 0.108673 0.359680
0.927063 0.111145 0.360596
0.002869 0.001984 0.370697
0.040802 0.013306 0.353699
0.133118 0.019714 0.323364
0.237457 0.026031 0.306915
0.394409 0.024536 0.316101
0.598907 0.082977 0.306915
0.865540 0.113586 0.335327
0.925812 0.107758 0.359680
0.930023 0.114594 0.366577
0.005524 0.108124 0.333008
0.002960 0.100922 0.339478
0.100922 0.080414 0.370697
0.243683 0.084442 0.324738
0.400604 0.071716 0.323883
0.607910 0.085419 0.309235
0.866852 0.115051 0.333923
0.927490 0.111145 0.358765
0.931305 0.117035 0.364258
0.023071 0.212097 0.322906
0.023651 0.211609 0.328827
0.063660 0.211609 0.343567
0.208923 0.196350 0.357819
0.412506 0.183441 0.335754
0.610901 0.173492 0.317444
0.875397 0.157166 0.332977
0.926666 0.137451 0.352295
0.933411 0.143341 0.355560
0.038239 0.354431 0.331177
0.048859 0.366852 0.344482
0.085480 0.364349 0.343079
0.175690 0.368347 0.342194
0.360260 0.350525 0.336639
0.602936 0.322876 0.317902
0.876251 0.302063 0.333954
0.924103 0.280365 0.345856
0.932159 0.289246 0.356934
0.073456 0.545868 0.322876
0.083374 0.554230 0.328857
0.075623 0.552765 0.320648
0.154388 0.560638 0.329346
0.298157 0.576324 0.335754
0.634125 0.592102 0.327484
0.911438 0.559143 0.313324
0.924530 0.527649 0.328400
0.932129 0.538971 0.336700
0.000000 0.868073 0.373474
0.000000 0.857971 0.370239
0.000000 0.867096 0.367035
0.000000 0.859894 0.356445
0.195435 0.867096 0.351379
0.425354 0.882477 0.240814
0.936401 0.910339 0.246277
0.942352 0.889191 0.477905
0.944061 0.888245 0.480011
0.000000 0.960358 0.413696
0.000000 0.956512 0.412262
0.000000 0.956970 0.405334
0.000000 0.954590 0.389587
0.057709 0.957947 0.385437
0.406281 0.956970 0.311951
0.834320 0.967133 0.386841
0.970245 0.978699 0.741577
0.973755 0.981140 0.746460
0.000000 0.957458 0.410431
0.000000 0.960358 0.415558
0.000000 0.957458 0.409485
0.000000 0.957947 0.395630
0.045624 0.955536 0.378967
0.402679 0.953613 0.307800
0.837402 0.968079 0.388214
0.968506 0.976746 0.738342
0.973328 0.980652 0.745392
0.074646 0.022980 0.539795
0.093079 0.025421 0.539307
0.152802 0.036774 0.524384
0.258728 0.052307 0.495728
0.388763 0.070312 0.473511
0.591919 0.080994 0.499512
0.857391 0.108643 0.492920
0.923706 0.099518 0.510498
0.927063 0.104797 0.517670
0.070862 0.026428 0.555298
0.085999 0.033325 0.542175
0.150238 0.043671 0.527283
0.258179 0.058716 0.500000
0.398041 0.079102 0.480591
0.594421 0.079041 0.501434
0.858276 0.107635 0.491486
0.923706 0.099518 0.514313
0.927490 0.103882 0.520081
0.012238 0.084930 0.569550
0.016357 0.072235 0.581818
0.123138 0.081421 0.560699
0.253021 0.089844 0.514771
0.394440 0.104797 0.487671
0.604919 0.083984 0.508087
0.865540 0.108215 0.496185
0.924133 0.104767 0.519104
0.930450 0.110138 0.518616
0.061066 0.213074 0.514313
0.058899 0.212585 0.522919
0.061646 0.205200 0.543182
0.203186 0.174500 0.569916
0.402191 0.180969 0.510040
0.604889 0.160614 0.510986
0.880951 0.120514 0.505737
0.924530 0.137878 0.520050
0.927094 0.141357 0.521484
0.076141 0.351501 0.509033
0.079773 0.356934 0.513336
0.078186 0.351532 0.520996
0.150726 0.349030 0.540253
0.353088 0.333710 0.563568
0.614868 0.309998 0.530182
0.886902 0.276367 0.512360
0.926636 0.261108 0.522949
0.927063 0.262543 0.519104
0.063141 0.552277 0.530121
0.067902 0.556244 0.532043
0.071411 0.548340 0.525818
0.148682 0.553772 0.529144
0.293488 0.564087 0.537354
0.553162 0.544403 0.527710
0.881348 0.522736 0.511475
0.924957 0.509460 0.512360
0.928345 0.511932 0.515259
0.000000 0.859406 0.511475
0.000000 0.857971 0.511444
0.000000 0.859406 0.510498
0.000000 0.868073 0.502869
0.106079 0.866608 0.504333
0.470123 0.877197 0.521973
0.914001 0.886810 0.484863
0.944031 0.885376 0.536499
0.944031 0.882477 0.535492
0.000000 0.960846 0.531586
0.000000 0.957458 0.529144
0.000000 0.956970 0.532043
0.000000 0.957947 0.523895
0.000000 0.958893 0.522888
0.430023 0.961792 0.530121
0.843964 0.970490 0.508087
0.969391 0.977722 0.760681
0.972900 0.979675 0.765076
0.000000 0.956512 0.529175
0.000000 0.957947 0.531586
0.000000 0.956024 0.528687
0.000000 0.958893 0.528656
0.000000 0.957458 0.521942
0.428436 0.958893 0.525360
0.843994 0.970001 0.509064
0.968933 0.977234 0.763397
0.970245 0.979187 0.765594
0.166351 0.052643 0.842316
0.174622 0.058777 0.842865
0.214111 0.067719 0.845673
0.286224 0.081055 0.810150
0.430511 0.103363 0.774017
0.608398 0.130463 0.748199
0.860840 0.100403 0.794006
0.921173 0.120575 0.785065
0.923676 0.127197 0.789490
0.160065 0.053680 0.846863
0.166870 0.062927 0.842316
0.204224 0.066895 0.834961
0.284637 0.081940 0.807922
0.428986 0.107269 0.769653
0.603912 0.134521 0.748199
0.868988 0.100952 0.805115
0.917786 0.117981 0.784546
0.921143 0.124603 0.790100
0.111237 0.052795 0.875214
0.126343 0.054108 0.875793
0.190216 0.092438 0.855927
0.282043 0.107727 0.827667
0.427429 0.126099 0.776215
0.609894 0.150726 0.750916
0.870270 0.097473 0.802948
0.919891 0.127625 0.785095
0.921997 0.136047 0.788391
0.037689 0.176025 0.865570
0.033234 0.172028 0.878052
0.040771 0.141388 0.903564
0.236420 0.164154 0.864410
0.425385 0.180969 0.814148
0.608398 0.192352 0.760223
0.875824 0.107300 0.813568
0.920319 0.170074 0.792328
0.921570 0.174988 0.795074
0.069977 0.349518 0.797333
0.071960 0.350494 0.796783
0.069855 0.347565 0.811859
0.096802 0.332703 0.841736
0.348938 0.297150 0.892242
0.624298 0.296692 0.801758
0.881348 0.255615 0.822083
0.916931 0.255157 0.803467
0.916931 0.255646 0.805115
0.000000 0.552246 0.797882
0.001190 0.551788 0.799042
0.000000 0.552246 0.799561
0.002167 0.553253 0.814697
0.206848 0.552765 0.843445
0.553680 0.519775 0.887146
0.895355 0.480347 0.845734
0.920319 0.449310 0.837250
0.922424 0.453705 0.842865
0.002167 0.855560 0.853638
0.003357 0.857941 0.856476
0.002167 0.860352 0.857056
0.003357 0.855560 0.854767
0.051331 0.862274 0.858154
0.423340 0.867096 0.861603
0.868500 0.860352 0.860474
0.958160 0.851654 0.847443
0.962067 0.860352 0.855896
0.000000 0.957947 0.878632
0.000000 0.958435 0.866699
0.000000 0.956512 0.874634
0.000000 0.959869 0.862701
0.000000 0.958435 0.864990
0.327179 0.962769 0.860992
0.845123 0.973389 0.870056
0.972443 0.980164 0.870636
0.975525 0.981140 0.878601
0.000000 0.957458 0.869507
0.000000 0.957458 0.865021
0.000000 0.956482 0.861603
0.000000 0.956482 0.871765
0.000000 0.960358 0.864990
0.326691 0.962769 0.860413
0.826691 0.972900 0.857025
0.974213 0.979675 0.870056
0.971558 0.979675 0.868378
0.214630 0.043549 0.964783
0.222931 0.040710 0.969727
0.250427 0.051697 0.969727
0.322021 0.067871 0.955963
0.457825 0.103424 0.938080
0.640076 0.123047 0.904236
0.886475 0.050110 0.930817
0.923706 0.103424 0.938660
0.930054 0.110657 0.942566
0.210449 0.038757 0.968079
0.219269 0.047760 0.969727
0.247864 0.053131 0.964233
0.319458 0.071198 0.959290
0.458832 0.104797 0.936951
0.639099 0.126526 0.906494
0.887756 0.051758 0.929657
0.929199 0.104675 0.939209
0.928345 0.104858 0.939758
0.178284 0.036285 0.962585
0.188141 0.040710 0.969727
0.231262 0.078125 0.963135
0.314789 0.096924 0.965881
0.454193 0.124115 0.943115
0.638123 0.136536 0.905914
0.889435 0.050110 0.932495
0.927063 0.112549 0.938080
0.927063 0.115021 0.939758
0.001770 0.099365 0.966431
0.005035 0.095367 0.969727
0.079193 0.074066 0.967529
0.275848 0.157196 0.969727
0.447021 0.173492 0.958160
0.644989 0.177490 0.918396
0.896240 0.056000 0.936401
0.927917 0.149872 0.944214
0.930450 0.154236 0.945343
0.000000 0.349518 0.954834
0.000000 0.352478 0.959290
0.000580 0.343109 0.963104
0.046387 0.323303 0.969727
0.367523 0.286316 0.969727
0.656769 0.281372 0.943115
0.907227 0.218994 0.947021
0.932129 0.239777 0.949829
0.932129 0.240845 0.952087
0.096741 0.560181 0.943665
0.096222 0.562103 0.943115
0.100342 0.559143 0.947571
0.109741 0.559662 0.954834
0.142395 0.554749 0.970276
0.545105 0.501038 0.966980
0.919037 0.456635 0.963684
0.935089 0.446838 0.962585
0.935516 0.451263 0.962036
0.089020 0.884888 0.972992
0.090515 0.884888 0.975220
0.091003 0.881042 0.972473
0.088470 0.893066 0.979614
0.090576 0.891144 0.979614
0.278961 0.894012 0.982849
0.893250 0.870453 0.980682
0.957703 0.859344 0.974091
0.959442 0.855042 0.979065
0.061127 0.977234 0.983398
0.064117 0.974365 0.980164
0.061127 0.972443 0.980682
0.061127 0.974365 0.981781
0.057434 0.973877 0.981232
0.275360 0.981140 0.987152
0.829346 0.982086 0.984467
0.982544 0.984497 0.987152
0.982544 0.984497 0.987152
0.061646 0.976746 0.982849
0.061646 0.970978 0.979614
0.059021 0.976746 0.982849
0.060059 0.972900 0.980682
0.061646 0.976746 0.982849
0.274323 0.978699 0.985016
0.826813 0.984497 0.987152
0.982086 0.984497 0.987152
0.982086 0.981140 0.982849
0.219269 0.048309 0.965302
0.227600 0.051697 0.974121
0.253540 0.061859 0.973022
0.327698 0.076569 0.959290
0.453156 0.105286 0.940887
0.643066 0.128571 0.911011
0.886475 0.050110 0.926300
0.927063 0.096008 0.938660
0.930450 0.103424 0.943115
0.213593 0.044708 0.968079
0.218750 0.049744 0.969177
0.246826 0.057892 0.968079
0.324585 0.075104 0.963654
0.453156 0.107697 0.939209
0.644043 0.130493 0.907043
0.882202 0.048615 0.924591
0.920288 0.085449 0.929688
0.930450 0.100006 0.943115
0.180786 0.041138 0.966431
0.188690 0.043304 0.970276
0.232788 0.078491 0.969727
0.315308 0.096954 0.967529
0.456268 0.124969 0.940887
0.642578 0.140472 0.907623
0.888184 0.050110 0.928558
0.922852 0.095978 0.935303
0.930450 0.111145 0.943115
0.002960 0.100891 0.967499
0.001190 0.089935 0.965302
0.088531 0.071655 0.968628
0.271179 0.152344 0.966431
0.445984 0.173065 0.953705
0.644501 0.176544 0.916687
0.892822 0.050415 0.931915
0.923279 0.135986 0.933594
0.924957 0.143951 0.936981
0.000000 0.348541 0.952087
0.000000 0.346588 0.948730
0.002380 0.345551 0.963135
0.027832 0.318390 0.963654
0.364441 0.281311 0.963135
0.657257 0.277893 0.943665
0.897491 0.206207 0.938599
0.922852 0.228424 0.942017
0.923706 0.233856 0.947540
0.085846 0.549347 0.934723
0.091156 0.554260 0.941437
0.096191 0.553741 0.944214
0.099274 0.552765 0.948120
0.131500 0.550323 0.967529
0.537476 0.490204 0.964233
0.910614 0.442871 0.953125
0.928772 0.433990 0.954865
0.930450 0.442383 0.956482
0.088501 0.870941 0.966431
0.091553 0.873810 0.969696
0.092621 0.875763 0.970795
0.087952 0.879608 0.970764
0.086334 0.881531 0.969696
0.234863 0.881531 0.972992
0.875366 0.853577 0.975220
0.950867 0.845917 0.967529
0.955994 0.847839 0.971924
0.061127 0.963745 0.975739
0.063568 0.970032 0.978516
0.060577 0.966156 0.974121
0.063110 0.969055 0.977966
0.060577 0.968109 0.976288
0.228607 0.967133 0.975220
0.794891 0.971954 0.976288
0.976410 0.978210 0.980133
0.982086 0.984497 0.986633
0.061646 0.965210 0.974121
0.061646 0.966156 0.974670
0.061646 0.965210 0.974121
0.061646 0.972900 0.978516
0.061646 0.969055 0.978485
0.241608 0.969055 0.978516
0.796204 0.977722 0.980682
0.978577 0.980652 0.982849
0.982086 0.984497 0.982849
