Color-Correction/LUTs/GH5/Basic/IWLTBAP/U-PANASONIC-V-LOG-V5-LTR.cube
# Copyright: (C) Copyright 2010-2018 by IWLTBAP SAS
# Cannot be resold, shared or otherwise redistributed
# Website: https://luts.iwltbap.com
TITLE "Panasonic V-Log Version 5 (Utility LOG to Rec.709)"
LUT_3D_SIZE 5
0.000000 0.000000 0.000000
0.123322 0.000000 0.000000
0.603302 0.000000 0.000000
1.000000 0.000000 0.000000
1.000000 0.000000 0.019287
0.000000 0.109436 0.000000
0.085968 0.106293 0.000000
0.590546 0.135132 0.000000
1.000000 0.145538 0.000000
1.000000 0.204651 0.000000
0.000000 0.560669 0.000000
0.000000 0.559509 0.000000
0.509949 0.552826 0.000000
1.000000 0.605591 0.000000
1.000000 0.668884 0.000000
0.000000 1.000000 0.000000
0.000000 1.000000 0.000000
0.329437 1.000000 0.000000
0.929413 0.993103 0.000000
1.000000 1.000000 0.000000
0.000000 1.000000 0.000000
0.000000 1.000000 0.000000
0.311249 1.000000 0.000000
0.929138 1.000000 0.000000
1.000000 1.000000 0.000000
0.000000 0.000000 0.062469
0.115997 0.000000 0.063538
0.600647 0.000000 0.121979
1.000000 0.000000 0.193573
1.000000 0.000000 0.258301
0.000000 0.084991 0.049408
0.124939 0.129028 0.099731
0.655579 0.158783 0.163208
1.000000 0.174683 0.235535
1.000000 0.237457 0.298798
0.000000 0.552063 0.000000
0.000000 0.616211 0.046295
0.570160 0.609100 0.058777
1.000000 0.660156 0.145111
1.000000 0.721680 0.215240
0.000000 0.999451 0.000000
0.000000 1.000000 0.000000
0.426941 1.000000 0.000000
0.964996 1.000000 0.000000
1.000000 1.000000 0.017761
0.000000 1.000000 0.000000
0.000000 1.000000 0.000000
0.462402 1.000000 0.000000
0.967651 1.000000 0.000000
1.000000 1.000000 0.000000
0.000000 0.000000 0.502563
0.113159 0.000000 0.502991
0.585236 0.000000 0.505341
1.000000 0.000000 0.577057
1.000000 0.000000 0.644714
0.000000 0.000000 0.497833
0.112610 0.000000 0.563721
0.638885 0.000000 0.566315
1.000000 0.000000 0.635864
1.000000 0.000000 0.700592
0.000000 0.499237 0.469635
0.000000 0.560547 0.534119
0.612518 0.614410 0.600769
1.000000 0.663055 0.668182
1.000000 0.723450 0.730713
0.000000 0.970520 0.467865
0.000000 1.000000 0.540466
0.496429 1.000000 0.615356
0.981323 1.000000 0.619812
1.000000 1.000000 0.690918
0.000000 1.000000 0.514832
0.000000 1.000000 0.596893
0.556915 1.000000 0.677277
0.983734 1.000000 0.680969
1.000000 1.000000 0.681793
0.000000 0.000000 0.937683
0.000000 0.000000 0.937958
0.621429 0.000000 0.939362
1.000000 0.000000 0.942078
1.000000 0.000000 0.983093
0.000000 0.000000 0.934418
0.000000 0.000000 0.973572
0.673401 0.000000 0.975189
1.000000 0.000000 0.977814
1.000000 0.000000 1.000000
0.000000 0.424744 0.918640
0.000000 0.503845 0.955994
0.642029 0.574005 0.986145
1.000000 0.558472 0.988647
1.000000 0.638794 1.000000
0.000000 0.909546 0.886230
0.000000 0.946045 0.925079
0.447968 0.970123 0.957397
0.984833 0.985107 0.983429
1.000000 1.000000 1.000000
0.000000 1.000000 0.912018
0.000000 1.000000 0.946838
0.518341 1.000000 0.975159
0.988647 1.000000 0.996490
1.000000 1.000000 0.996826
0.000000 0.000000 1.000000
0.064056 0.000000 1.000000
0.682861 0.000000 1.000000
1.000000 0.000000 1.000000
1.000000 0.000000 1.000000
0.000000 0.000000 1.000000
0.088348 0.000000 1.000000
0.734070 0.000000 1.000000
1.000000 0.000000 1.000000
1.000000 0.000000 1.000000
0.000000 0.449341 1.000000
0.000000 0.550873 1.000000
0.702362 0.633698 1.000000
1.000000 0.620941 1.000000
1.000000 0.618134 1.000000
0.000000 0.922852 1.000000
0.000000 0.958618 1.000000
0.550598 0.980560 1.000000
0.998718 0.993774 1.000000
1.000000 0.992706 1.000000
0.000000 1.000000 1.000000
0.000000 1.000000 1.000000
0.509430 1.000000 1.000000
0.986053 1.000000 1.000000
1.000000 1.000000 1.000000
