Color-Correction/LUTs/GH5/Basic/IWLTBAP/U-PANASONIC-V-LOG-V6-LTR.cube
# Copyright: (C) Copyright 2010-2018 by IWLTBAP SAS
# Cannot be resold, shared or otherwise redistributed
# Website: https://luts.iwltbap.com
TITLE "Panasonic V-Log Version 6 (Utility LOG to Rec.709)"
LUT_3D_SIZE 5
0.000000 0.000000 0.000000
0.127167 0.018646 0.040588
0.264862 0.054565 0.098145
0.457458 0.108124 0.175262
0.646820 0.159851 0.250214
0.029114 0.117920 0.033722
0.157745 0.118073 0.003510
0.347107 0.102600 0.065491
0.563019 0.132721 0.156647
0.743591 0.182068 0.237396
0.088318 0.301392 0.101654
0.147430 0.351013 0.058258
0.519958 0.416443 0.021515
0.808746 0.386810 0.117523
0.991425 0.439270 0.219330
0.194519 0.639984 0.223206
0.231934 0.707825 0.186218
0.536591 0.868439 0.151062
0.962372 0.902466 0.354675
0.950500 0.897430 0.448792
0.240936 0.788574 0.276459
0.280090 0.853516 0.230621
0.598267 0.864655 0.272125
0.921631 0.894531 0.451233
0.921631 0.894531 0.451233
0.015625 0.018951 0.083221
0.163483 0.033905 0.142853
0.298340 0.066925 0.164093
0.483337 0.117493 0.229065
0.667389 0.167694 0.301392
0.011230 0.124725 0.126831
0.109802 0.091522 0.098602
0.378052 0.084412 0.146332
0.552521 0.135223 0.234039
0.655060 0.162994 0.270844
0.077271 0.316284 0.165039
0.098907 0.336639 0.115051
0.526337 0.426575 0.022522
0.848602 0.363953 0.144958
0.976013 0.383270 0.217407
0.186188 0.664001 0.290894
0.204010 0.670410 0.234100
0.471191 0.866730 0.156494
0.957703 0.909729 0.359070
0.946472 0.891815 0.451263
0.229126 0.811340 0.354401
0.235718 0.799438 0.312317
0.564056 0.862122 0.296265
0.863068 0.829865 0.438934
0.875793 0.840851 0.473328
0.054962 0.065002 0.212555
0.157227 0.065887 0.251221
0.342499 0.085541 0.302368
0.532318 0.136627 0.358429
0.719757 0.187164 0.432983
0.037476 0.136108 0.250366
0.090302 0.108704 0.313232
0.412567 0.105652 0.362640
0.624084 0.161865 0.398956
0.719055 0.186920 0.431122
0.039551 0.346222 0.353455
0.042511 0.366730 0.372742
0.377899 0.345337 0.357391
0.966003 0.269989 0.404083
0.983002 0.330475 0.466034
0.156799 0.714111 0.477112
0.170441 0.733795 0.456207
0.360840 0.872162 0.354340
0.901794 0.871674 0.475128
0.946564 0.886169 0.609802
0.201050 0.857758 0.538666
0.205872 0.857300 0.525635
0.550476 0.924652 0.563049
0.976074 0.947327 0.710907
0.980011 0.953247 0.741821
0.085358 0.100586 0.320190
0.159271 0.108673 0.367767
0.359436 0.124939 0.450897
0.607727 0.165436 0.545776
0.789154 0.205872 0.618500
0.080200 0.167236 0.396271
0.095276 0.169342 0.438934
0.389160 0.158691 0.549896
0.715698 0.193573 0.644836
0.804688 0.212067 0.656250
0.066956 0.369965 0.530518
0.080231 0.383759 0.580292
0.246216 0.273102 0.806549
0.887756 0.316193 0.814240
0.887268 0.398834 0.801971
0.111816 0.775269 0.746948
0.122620 0.801147 0.752289
0.320190 0.893250 0.813507
0.933533 0.926849 0.926422
0.997162 0.945007 0.935303
0.237915 0.869934 0.754791
0.259003 0.874115 0.760590
0.551758 0.919891 0.847839
0.993011 0.998230 0.992645
0.999512 0.999512 0.994812
0.112518 0.132965 0.418732
0.160339 0.138336 0.449493
0.364746 0.163422 0.557770
0.665253 0.191071 0.696838
0.853455 0.237610 0.760559
0.102417 0.181824 0.470886
0.105133 0.158997 0.448425
0.342377 0.160889 0.546600
0.727844 0.198120 0.717468
0.853455 0.237610 0.760559
0.097504 0.395874 0.640259
0.097504 0.396332 0.640594
0.213318 0.314178 0.857056
0.857391 0.344574 0.889282
0.884247 0.429352 0.852356
0.115784 0.814636 0.810883
0.126007 0.830109 0.802673
0.354706 0.903290 0.875183
0.903992 0.917999 0.987488
0.994659 0.968842 0.992828
0.239685 0.871063 0.761658
0.270020 0.877563 0.772980
0.571777 0.920746 0.859314
0.993439 0.998688 0.997925
0.999969 0.999969 0.999969
