Color-Correction/LUTs/GH5/Basic/IWLTBAP/U-PANASONIC-V-LOG-V5-LTR.cube
# Copyright: (C) Copyright 2010-2018 by IWLTBAP SAS
# Cannot be resold, shared or otherwise redistributed
# Website: https://luts.iwltbap.com
TITLE "Panasonic V-Log Version 5 (Utility LOG to Rec.709)"
LUT_3D_SIZE 33
0.000000 0.000000 0.000000
0.000000 0.000000 0.000000
0.000000 0.000000 0.000000
0.000000 0.000000 0.000000
0.000000 0.000000 0.000000
0.014252 0.000000 0.000000
0.046234 0.000000 0.000000
0.081268 0.000000 0.000000
0.123322 0.000000 0.000000
0.172424 0.000000 0.000000
0.227081 0.000000 0.000000
0.286346 0.000000 0.000000
0.349152 0.000000 0.000000
0.412506 0.000000 0.000000
0.476074 0.000000 0.000000
0.539673 0.000000 0.000000
0.603302 0.000000 0.000000
0.666809 0.000000 0.000000
0.729889 0.000000 0.000000
0.792725 0.000000 0.000000
0.854980 0.000000 0.000000
0.916016 0.000000 0.000000
0.975006 0.000000 0.000000
1.000000 0.000000 0.000000
1.000000 0.000000 0.000000
1.000000 0.000000 0.000000
1.000000 0.000000 0.000000
1.000000 0.000000 0.002502
1.000000 0.000000 0.006592
1.000000 0.000000 0.010071
1.000000 0.000000 0.013184
1.000000 0.000000 0.016388
1.000000 0.000000 0.019287
0.000000 0.000000 0.000000
0.000000 0.000000 0.000000
0.000000 0.000000 0.000000
0.000000 0.000000 0.000000
0.000000 0.000000 0.000000
0.011627 0.000000 0.000000
0.044006 0.000000 0.000000
0.079346 0.000000 0.000000
0.121582 0.000000 0.000000
0.171082 0.000000 0.000000
0.225891 0.000000 0.000000
0.285309 0.000000 0.000000
0.348297 0.000000 0.000000
0.411743 0.000000 0.000000
0.475403 0.000000 0.000000
0.539124 0.000000 0.000000
0.602753 0.000000 0.000000
0.666260 0.000000 0.000000
0.729431 0.000000 0.000000
0.792267 0.000000 0.000000
0.854523 0.000000 0.000000
0.915527 0.000000 0.000000
0.974670 0.000000 0.000000
1.000000 0.000000 0.000000
1.000000 0.000000 0.000000
1.000000 0.000000 0.000000
1.000000 0.000000 0.000000
1.000000 0.000000 0.000763
1.000000 0.000000 0.004761
1.000000 0.000000 0.008240
1.000000 0.000000 0.011353
1.000000 0.000000 0.014526
1.000000 0.000000 0.017426
0.000000 0.000000 0.000000
0.000000 0.000000 0.000000
0.000000 0.000000 0.000000
0.000000 0.000000 0.000000
0.000000 0.000000 0.000000
0.008423 0.000000 0.000000
0.041199 0.000000 0.000000
0.077026 0.000000 0.000000
0.119659 0.000000 0.000000
0.169342 0.000000 0.000000
0.224487 0.000000 0.000000
0.284058 0.000000 0.000000
0.347198 0.000000 0.000000
0.410797 0.000000 0.000000
0.474548 0.000000 0.000000
0.538361 0.000000 0.000000
0.602081 0.000000 0.000000
0.665649 0.000000 0.000000
0.728851 0.000000 0.000000
0.791779 0.000000 0.000000
0.854004 0.000000 0.000000
0.915039 0.000000 0.000000
0.974121 0.000000 0.000000
1.000000 0.000000 0.000000
1.000000 0.000000 0.000000
1.000000 0.000000 0.000000
1.000000 0.000000 0.000000
1.000000 0.000000 0.000000
1.000000 0.000000 0.002655
1.000000 0.000000 0.005981
1.000000 0.000000 0.009064
1.000000 0.000000 0.012115
1.000000 0.000000 0.014923
0.000000 0.000000 0.000000
0.000000 0.000000 0.000000
0.000000 0.000000 0.000000
0.000000 0.000000 0.000000
0.000000 0.000000 0.000000
0.004181 0.000000 0.000000
0.037628 0.000000 0.000000
0.073822 0.000000 0.000000
0.117035 0.000000 0.000000
0.167175 0.000000 0.000000
0.222626 0.000000 0.000000
0.282593 0.000000 0.000000
0.345856 0.000000 0.000000
0.409546 0.000000 0.000000
0.473511 0.000000 0.000000
0.537323 0.000000 0.000000
0.601166 0.000000 0.000000
0.664825 0.000000 0.000000
0.728058 0.000000 0.000000
0.790985 0.000000 0.000000
0.853333 0.000000 0.000000
0.914459 0.000000 0.000000
0.973541 0.000000 0.000000
1.000000 0.000000 0.000000
1.000000 0.000000 0.000000
1.000000 0.000000 0.000000
1.000000 0.000000 0.000000
1.000000 0.000000 0.000000
1.000000 0.000000 0.000000
1.000000 0.000000 0.003113
1.000000 0.000000 0.006134
1.000000 0.000000 0.009216
1.000000 0.000000 0.011841
0.000000 0.000000 0.000000
0.000000 0.000000 0.000000
0.000000 0.000000 0.000000
0.000000 0.000000 0.000000
0.000000 0.000000 0.000000
0.000000 0.000000 0.000000
0.033081 0.000000 0.000000
0.069946 0.000000 0.000000
0.113586 0.000000 0.000000
0.164337 0.000000 0.000000
0.220215 0.000000 0.000000
0.280396 0.000000 0.000000
0.344116 0.000000 0.000000
0.408020 0.000000 0.000000
0.472107 0.000000 0.000000
0.536255 0.000000 0.000000
0.600067 0.000000 0.000000
0.663757 0.000000 0.000000
0.727112 0.000000 0.000000
0.790100 0.000000 0.000000
0.852386 0.000000 0.000000
0.913544 0.000000 0.000000
0.972687 0.000000 0.000000
1.000000 0.000000 0.000000
1.000000 0.000000 0.000000
1.000000 0.000000 0.000000
1.000000 0.000000 0.000000
1.000000 0.000000 0.000000
1.000000 0.000000 0.000000
1.000000 0.000000 0.000000
1.000000 0.000000 0.001801
1.000000 0.000000 0.004791
1.000000 0.000000 0.007416
0.000000 0.007996 0.000000
0.000000 0.007721 0.000000
0.000000 0.007477 0.000000
0.000000 0.007111 0.000000
0.000000 0.006622 0.000000
0.000000 0.006073 0.000000
0.026733 0.009033 0.000000
0.064697 0.011688 0.000000
0.109344 0.014069 0.000000
0.160614 0.015564 0.000000
0.217163 0.017090 0.000000
0.277832 0.017914 0.000000
0.341766 0.017609 0.000000
0.406097 0.016602 0.000000
0.470337 0.014435 0.000000
0.534515 0.010986 0.000000
0.598602 0.006927 0.000000
0.662415 0.001312 0.000000
0.725830 0.000000 0.000000
0.788940 0.000000 0.000000
0.851318 0.000000 0.000000
0.912476 0.000000 0.000000
0.971680 0.000000 0.000000
1.000000 0.000000 0.000000
1.000000 0.000000 0.000000
1.000000 0.000000 0.000000
1.000000 0.000000 0.000000
1.000000 0.000000 0.000000
1.000000 0.000000 0.000000
1.000000 0.000000 0.000000
1.000000 0.000000 0.000000
1.000000 0.000000 0.000000
1.000000 0.000000 0.001129
0.000000 0.037628 0.000000
0.000000 0.037384 0.000000
0.000000 0.037140 0.000000
0.000000 0.036804 0.000000
0.000000 0.036438 0.000000
0.000000 0.035919 0.000000
0.019104 0.035339 0.000000
0.057678 0.038818 0.000000
0.103485 0.041962 0.000000
0.155914 0.044678 0.000000
0.212982 0.046692 0.000000
0.274414 0.048035 0.000000
0.338989 0.048615 0.000000
0.403595 0.048584 0.000000
0.468109 0.048798 0.000000
0.532471 0.048096 0.000000
0.596649 0.046417 0.000000
0.660583 0.044342 0.000000
0.724121 0.041016 0.000000
0.787292 0.035950 0.000000
0.849854 0.030334 0.000000
0.911133 0.024902 0.000000
0.970459 0.017609 0.000000
1.000000 0.011963 0.000000
1.000000 0.008148 0.000000
1.000000 0.003754 0.000000
1.000000 0.003571 0.000000
1.000000 0.006805 0.000000
1.000000 0.013062 0.000000
1.000000 0.020630 0.000000
1.000000 0.032135 0.000000
1.000000 0.046509 0.000000
1.000000 0.060242 0.000000
0.000000 0.070251 0.000000
0.000000 0.070038 0.000000
0.000000 0.069824 0.000000
0.000000 0.069550 0.000000
0.000000 0.069183 0.000000
0.000000 0.068756 0.000000
0.011749 0.068176 0.000000
0.049377 0.067505 0.000000
0.095825 0.071808 0.000000
0.149506 0.075775 0.000000
0.207855 0.079285 0.000000
0.269684 0.082184 0.000000
0.334930 0.084290 0.000000
0.400055 0.086182 0.000000
0.464905 0.086975 0.000000
0.529694 0.087372 0.000000
0.594238 0.087463 0.000000
0.658234 0.087799 0.000000
0.721863 0.088013 0.000000
0.785217 0.087311 0.000000
0.847717 0.085358 0.000000
0.909088 0.083710 0.000000
0.968445 0.081940 0.000000
1.000000 0.079773 0.000000
1.000000 0.079346 0.000000
1.000000 0.081573 0.000000
1.000000 0.085480 0.000000
1.000000 0.090271 0.000000
1.000000 0.096771 0.000000
1.000000 0.104889 0.000000
1.000000 0.113831 0.000000
1.000000 0.123932 0.000000
1.000000 0.134796 0.000000
0.000000 0.109436 0.000000
0.000000 0.109314 0.000000
0.000000 0.109131 0.000000
0.000000 0.108887 0.000000
0.000000 0.108551 0.000000
0.000000 0.108215 0.000000
0.000000 0.107697 0.000000
0.040436 0.107086 0.000000
0.085968 0.106293 0.000000
0.140717 0.110535 0.000000
0.200714 0.114319 0.000000
0.263947 0.118835 0.000000
0.329529 0.123077 0.000000
0.395325 0.126801 0.000000
0.460724 0.130096 0.000000
0.525665 0.132721 0.000000
0.590546 0.135132 0.000000
0.654999 0.137115 0.000000
0.718903 0.138245 0.000000
0.782501 0.139465 0.000000
0.845184 0.140533 0.000000
0.906555 0.141296 0.000000
0.965973 0.142090 0.000000
1.000000 0.143738 0.000000
1.000000 0.145538 0.000000
1.000000 0.148560 0.000000
1.000000 0.153992 0.000000
1.000000 0.160400 0.000000
1.000000 0.167908 0.000000
1.000000 0.176483 0.000000
1.000000 0.185333 0.000000
1.000000 0.194824 0.000000
1.000000 0.204651 0.000000
0.000000 0.155396 0.000000
0.000000 0.155273 0.000000
0.000000 0.155121 0.000000
0.000000 0.154938 0.000000
0.000000 0.154724 0.000000
0.000000 0.154358 0.000000
0.000000 0.153961 0.000000
0.024139 0.153351 0.000000
0.074005 0.152679 0.000000
0.128876 0.151733 0.000000
0.189911 0.157135 0.000000
0.255035 0.162140 0.000000
0.322510 0.166931 0.000000
0.388977 0.171234 0.000000
0.455200 0.175659 0.000000
0.520782 0.180115 0.000000
0.585846 0.184143 0.000000
0.650635 0.187836 0.000000
0.714905 0.191284 0.000000
0.778564 0.193970 0.000000
0.841522 0.196686 0.000000
0.903290 0.199432 0.000000
0.962860 0.201752 0.000000
1.000000 0.204834 0.000000
1.000000 0.208740 0.000000
1.000000 0.212982 0.000000
1.000000 0.218872 0.000000
1.000000 0.225647 0.000000
1.000000 0.233276 0.000000
1.000000 0.241608 0.000000
1.000000 0.250305 0.000000
1.000000 0.260284 0.000000
1.000000 0.270386 0.000000
0.000000 0.206665 0.000000
0.000000 0.206543 0.000000
0.000000 0.206360 0.000000
0.000000 0.206238 0.000000
0.000000 0.206024 0.000000
0.000000 0.205780 0.000000
0.000000 0.205383 0.000000
0.000000 0.204926 0.000000
0.054474 0.204315 0.000000
0.116516 0.203430 0.000000
0.176849 0.202423 0.000000
0.243225 0.208618 0.000000
0.312469 0.214630 0.000000
0.380737 0.220276 0.000000
0.447571 0.225769 0.000000
0.514069 0.230774 0.000000
0.580078 0.235657 0.000000
0.645294 0.240021 0.000000
0.709961 0.244537 0.000000
0.774048 0.249084 0.000000
0.837128 0.252991 0.000000
0.899078 0.256866 0.000000
0.958954 0.260925 0.000000
1.000000 0.264801 0.000000
1.000000 0.269440 0.000000
1.000000 0.274841 0.000000
1.000000 0.281464 0.000000
1.000000 0.288361 0.000000
1.000000 0.295837 0.000000
1.000000 0.304291 0.000000
1.000000 0.312561 0.000000
1.000000 0.321655 0.000000
1.000000 0.331055 0.000000
0.000000 0.262268 0.000000
0.000000 0.262177 0.000000
0.000000 0.262085 0.000000
0.000000 0.261932 0.000000
0.000000 0.261719 0.000000
0.000000 0.261444 0.000000
0.000000 0.261169 0.000000
0.000000 0.260742 0.000000
0.027710 0.260254 0.000000
0.096863 0.259521 0.000000
0.163849 0.258606 0.000000
0.229065 0.257538 0.000000
0.299774 0.264221 0.000000
0.369751 0.270782 0.000000
0.438599 0.276917 0.000000
0.505646 0.282990 0.000000
0.572449 0.288757 0.000000
0.638611 0.294250 0.000000
0.703705 0.299408 0.000000
0.768372 0.304199 0.000000
0.832062 0.309265 0.000000
0.894196 0.313843 0.000000
0.954285 0.318298 0.000000
1.000000 0.323273 0.000000
1.000000 0.328308 0.000000
1.000000 0.334015 0.000000
1.000000 0.340698 0.000000
1.000000 0.348114 0.000000
1.000000 0.355988 0.000000
1.000000 0.364410 0.000000
1.000000 0.373016 0.000000
1.000000 0.381744 0.000000
1.000000 0.390594 0.000000
0.000000 0.321320 0.000000
0.000000 0.321259 0.000000
0.000000 0.321198 0.000000
0.000000 0.321075 0.000000
0.000000 0.320862 0.000000
0.000000 0.320618 0.000000
0.000000 0.320404 0.000000
0.000000 0.320068 0.000000
0.000000 0.319611 0.000000
0.069794 0.318970 0.000000
0.144592 0.318146 0.000000
0.215759 0.317108 0.000000
0.284515 0.315857 0.000000
0.356171 0.322693 0.000000
0.426849 0.329346 0.000000
0.496033 0.335541 0.000000
0.563507 0.341858 0.000000
0.630432 0.347900 0.000000
0.696564 0.353668 0.000000
0.761536 0.359131 0.000000
0.825684 0.364227 0.000000
0.888611 0.369659 0.000000
0.948944 0.374664 0.000000
1.000000 0.380096 0.000000
1.000000 0.385986 0.000000
1.000000 0.391968 0.000000
1.000000 0.398804 0.000000
1.000000 0.406067 0.000000
1.000000 0.413757 0.000000
1.000000 0.421967 0.000000
1.000000 0.430664 0.000000
1.000000 0.439453 0.000000
1.000000 0.448822 0.000000
0.000000 0.380920 0.000000
0.000000 0.380859 0.000000
0.000000 0.380798 0.000000
0.000000 0.380707 0.000000
0.000000 0.380554 0.000000
0.000000 0.380310 0.000000
0.000000 0.380096 0.000000
0.000000 0.379822 0.000000
0.000000 0.379425 0.000000
0.017029 0.378906 0.000000
0.120209 0.378143 0.000000
0.198090 0.377167 0.000000
0.271515 0.376099 0.000000
0.340576 0.374878 0.000000
0.412781 0.381714 0.000000
0.483643 0.388519 0.000000
0.553314 0.395020 0.000000
0.620972 0.401337 0.000000
0.687866 0.407410 0.000000
0.754028 0.413300 0.000000
0.818512 0.418976 0.000000
0.881744 0.424591 0.000000
0.942749 0.430145 0.000000
0.997803 0.435791 0.000000
1.000000 0.441895 0.000000
1.000000 0.448547 0.000000
1.000000 0.455566 0.000000
1.000000 0.462952 0.000000
1.000000 0.470642 0.000000
1.000000 0.478912 0.000000
1.000000 0.487335 0.000000
1.000000 0.495880 0.000000
1.000000 0.505127 0.000000
0.000000 0.440796 0.000000
0.000000 0.440735 0.000000
0.000000 0.440674 0.000000
0.000000 0.440552 0.000000
0.000000 0.440430 0.000000
0.000000 0.440277 0.000000
0.000000 0.440125 0.000000
0.000000 0.439819 0.000000
0.000000 0.439453 0.000000
0.000000 0.438965 0.000000
0.075165 0.438293 0.000000
0.175568 0.437531 0.000000
0.254852 0.436584 0.000000
0.327698 0.435455 0.000000
0.397003 0.434174 0.000000
0.469452 0.440857 0.000000
0.540527 0.447815 0.000000
0.610199 0.454437 0.000000
0.677856 0.460724 0.000000
0.744781 0.467041 0.000000
0.810516 0.473083 0.000000
0.874176 0.479065 0.000000
0.935486 0.484985 0.000000
0.991150 0.490906 0.000000
1.000000 0.497131 0.000000
1.000000 0.503906 0.000000
1.000000 0.511017 0.000000
1.000000 0.518585 0.000000
1.000000 0.526520 0.000000
1.000000 0.534851 0.000000
1.000000 0.543213 0.000000
1.000000 0.551666 0.000000
1.000000 0.560638 0.000000
0.000000 0.500732 0.000000
0.000000 0.500732 0.000000
0.000000 0.500671 0.000000
0.000000 0.500580 0.000000
0.000000 0.500397 0.000000
0.000000 0.500214 0.000000
0.000000 0.500061 0.000000
0.000000 0.499847 0.000000
0.000000 0.499512 0.000000
0.000000 0.499054 0.000000
0.017426 0.498444 0.000000
0.136932 0.497772 0.000000
0.233795 0.496979 0.000000
0.311615 0.495880 0.000000
0.384247 0.494720 0.000000
0.453461 0.493469 0.000000
0.526001 0.500336 0.000000
0.597107 0.507263 0.000000
0.666870 0.513824 0.000000
0.734436 0.520142 0.000000
0.800842 0.526642 0.000000
0.865631 0.532928 0.000000
0.927429 0.539185 0.000000
0.983490 0.545349 0.000000
1.000000 0.551849 0.000000
1.000000 0.558655 0.000000
1.000000 0.565826 0.000000
1.000000 0.573303 0.000000
1.000000 0.581360 0.000000
1.000000 0.589478 0.000000
1.000000 0.597748 0.000000
1.000000 0.606415 0.000000
1.000000 0.615387 0.000000
0.000000 0.560669 0.000000
0.000000 0.560638 0.000000
0.000000 0.560547 0.000000
0.000000 0.560486 0.000000
0.000000 0.560394 0.000000
0.000000 0.560211 0.000000
0.000000 0.560028 0.000000
0.000000 0.559814 0.000000
0.000000 0.559509 0.000000
0.000000 0.559143 0.000000
0.000000 0.558655 0.000000
0.075439 0.557953 0.000000
0.201447 0.557190 0.000000
0.292511 0.556335 0.000000
0.368927 0.555267 0.000000
0.441132 0.554108 0.000000
0.509949 0.552826 0.000000
0.582428 0.559753 0.000000
0.653473 0.566650 0.000000
0.723053 0.573212 0.000000
0.790192 0.579834 0.000000
0.855621 0.586365 0.000000
0.918427 0.592712 0.000000
0.974884 0.599060 0.000000
1.000000 0.605591 0.000000
1.000000 0.612732 0.000000
1.000000 0.620178 0.000000
1.000000 0.627747 0.000000
1.000000 0.635529 0.000000
1.000000 0.643646 0.000000
1.000000 0.651947 0.000000
1.000000 0.660522 0.000000
1.000000 0.668884 0.000000
0.000000 0.620453 0.000000
0.000000 0.620422 0.000000
0.000000 0.620392 0.000000
0.000000 0.620300 0.000000
0.000000 0.620178 0.000000
0.000000 0.620026 0.000000
0.000000 0.619904 0.000000
0.000000 0.619690 0.000000
0.000000 0.619385 0.000000
0.000000 0.618958 0.000000
0.000000 0.618530 0.000000
0.012115 0.617950 0.000000
0.158875 0.617218 0.000000
0.264343 0.616425 0.000000
0.350922 0.615570 0.000000
0.426422 0.614471 0.000000
0.498016 0.613281 0.000000
0.566284 0.612030 0.000000
0.638580 0.618958 0.000000
0.709412 0.625793 0.000000
0.778442 0.632629 0.000000
0.844727 0.639252 0.000000
0.908203 0.645630 0.000000
0.965515 0.652161 0.000000
1.000000 0.658905 0.000000
1.000000 0.665955 0.000000
1.000000 0.673279 0.000000
1.000000 0.681183 0.000000
1.000000 0.688904 0.000000
1.000000 0.697144 0.000000
1.000000 0.705414 0.000000
1.000000 0.713806 0.000000
1.000000 0.722137 0.000000
0.000000 0.679932 0.000000
0.000000 0.679901 0.000000
0.000000 0.679871 0.000000
0.000000 0.679810 0.000000
0.000000 0.679718 0.000000
0.000000 0.679565 0.000000
0.000000 0.679443 0.000000
0.000000 0.679230 0.000000
0.000000 0.678955 0.000000
0.000000 0.678589 0.000000
0.000000 0.678162 0.000000
0.000000 0.677612 0.000000
0.108124 0.676941 0.000000
0.228851 0.676239 0.000000
0.324493 0.675415 0.000000
0.409210 0.674438 0.000000
0.483856 0.673370 0.000000
0.554565 0.672211 0.000000
0.622375 0.670898 0.000000
0.694519 0.677826 0.000000
0.764740 0.684570 0.000000
0.832642 0.691498 0.000000
0.896973 0.698029 0.000000
0.954987 0.704712 0.000000
1.000000 0.711761 0.000000
1.000000 0.718597 0.000000
1.000000 0.726044 0.000000
1.000000 0.733612 0.000000
1.000000 0.741516 0.000000
1.000000 0.749390 0.000000
1.000000 0.757690 0.000000
1.000000 0.766205 0.000000
1.000000 0.774567 0.000000
0.000000 0.739227 0.000000
0.000000 0.739136 0.000000
0.000000 0.739075 0.000000
0.000000 0.738983 0.000000
0.000000 0.738953 0.000000
0.000000 0.738861 0.000000
0.000000 0.738708 0.000000
0.000000 0.738556 0.000000
0.000000 0.738281 0.000000
0.000000 0.737946 0.000000
0.000000 0.737518 0.000000
0.000000 0.736969 0.000000
0.000000 0.736389 0.000000
0.186554 0.735718 0.000000
0.292603 0.735016 0.000000
0.384613 0.734131 0.000000
0.467224 0.733185 0.000000
0.540741 0.732025 0.000000
0.610809 0.730865 0.000000
0.678253 0.729584 0.000000
0.749756 0.736359 0.000000
0.818848 0.743042 0.000000
0.884674 0.749756 0.000000
0.943359 0.756561 0.000000
0.993164 0.763641 0.000000
1.000000 0.770782 0.000000
1.000000 0.778229 0.000000
1.000000 0.785675 0.000000
1.000000 0.793365 0.000000
1.000000 0.801117 0.000000
1.000000 0.809296 0.000000
1.000000 0.817596 0.000000
1.000000 0.825806 0.000000
0.000000 0.797852 0.000000
0.000000 0.797852 0.000000
0.000000 0.797821 0.000000
0.000000 0.797699 0.000000
0.000000 0.797668 0.000000
0.000000 0.797577 0.000000
0.000000 0.797424 0.000000
0.000000 0.797211 0.000000
0.000000 0.796997 0.000000
0.000000 0.796661 0.000000
0.000000 0.796265 0.000000
0.000000 0.795807 0.000000
0.000000 0.795197 0.000000
0.105164 0.794556 0.000000
0.257019 0.793854 0.000000
0.355743 0.793091 0.000000
0.444885 0.792206 0.000000
0.525146 0.791290 0.000000
0.597321 0.790100 0.000000
0.666901 0.788879 0.000000
0.733551 0.787689 0.000000
0.803864 0.794373 0.000000
0.870758 0.801147 0.000000
0.930786 0.807800 0.000000
0.981201 0.814789 0.000000
1.000000 0.821869 0.000000
1.000000 0.829193 0.000000
1.000000 0.836700 0.000000
1.000000 0.844482 0.000000
1.000000 0.852325 0.000000
1.000000 0.860260 0.000000
1.000000 0.867859 0.000000
1.000000 0.875824 0.000000
0.000000 0.855377 0.000000
0.000000 0.855286 0.000000
0.000000 0.855286 0.000000
0.000000 0.855255 0.000000
0.000000 0.855194 0.000000
0.000000 0.855103 0.000000
0.000000 0.854950 0.000000
0.000000 0.854706 0.000000
0.000000 0.854523 0.000000
0.000000 0.854279 0.000000
0.000000 0.853882 0.000000
0.000000 0.853394 0.000000
0.000000 0.852905 0.000000
0.021240 0.852325 0.000000
0.204254 0.851654 0.000000
0.324921 0.850891 0.000000
0.419708 0.850067 0.000000
0.505341 0.849121 0.000000
0.582947 0.848206 0.000000
0.654083 0.847046 0.000000
0.722595 0.845856 0.000000
0.787811 0.844574 0.000000
0.855865 0.851440 0.000000
0.916870 0.858521 0.000000
0.968384 0.865173 0.000000
1.000000 0.871735 0.000000
1.000000 0.878632 0.000000
1.000000 0.885925 0.000000
1.000000 0.893219 0.000000
1.000000 0.900818 0.000000
1.000000 0.908478 0.000000
1.000000 0.916290 0.000000
1.000000 0.923828 0.000000
0.000000 0.911102 0.000000
0.000000 0.911041 0.000000
0.000000 0.910919 0.000000
0.000000 0.910919 0.000000
0.000000 0.910889 0.000000
0.000000 0.910797 0.000000
0.000000 0.910614 0.000000
0.000000 0.910431 0.000000
0.000000 0.910217 0.000000
0.000000 0.909912 0.000000
0.000000 0.909607 0.000000
0.000000 0.909180 0.000000
0.000000 0.908722 0.000000
0.000000 0.908142 0.000000
0.125427 0.907532 0.000000
0.283325 0.906830 0.000000
0.392365 0.906067 0.000000
0.482910 0.905182 0.000000
0.564850 0.904236 0.000000
0.640472 0.903259 0.000000
0.710968 0.902100 0.000000
0.777863 0.900940 0.000000
0.840363 0.899750 0.000000
0.902344 0.906342 0.000000
0.954712 0.913025 0.000000
0.998199 0.919830 0.000000
1.000000 0.926636 0.000000
1.000000 0.932404 0.000000
1.000000 0.938477 0.000000
1.000000 0.944702 0.000000
1.000000 0.950989 0.000000
1.000000 0.957367 0.000000
1.000000 0.964020 0.000000
0.000000 0.961823 0.000000
0.000000 0.961761 0.000000
0.000000 0.961700 0.000000
0.000000 0.961609 0.000000
0.000000 0.961548 0.000000
0.000000 0.961517 0.000000
0.000000 0.961334 0.000000
0.000000 0.961182 0.000000
0.000000 0.960968 0.000000
0.000000 0.960632 0.000000
0.000000 0.960358 0.000000
0.000000 0.960022 0.000000
0.000000 0.959534 0.000000
0.000000 0.958984 0.000000
0.045685 0.958374 0.000000
0.236420 0.957733 0.000000
0.360748 0.957001 0.000000
0.461151 0.956177 0.000000
0.547577 0.955292 0.000000
0.626099 0.954376 0.000000
0.699768 0.953308 0.000000
0.768890 0.952209 0.000000
0.831970 0.951019 0.000000
0.888214 0.949982 0.000000
0.941711 0.955261 0.000000
0.986084 0.960938 0.000000
1.000000 0.966553 0.000000
1.000000 0.972626 0.000000
1.000000 0.978790 0.000000
1.000000 0.984070 0.000000
1.000000 0.989044 0.000000
1.000000 0.994171 0.000000
1.000000 0.999329 0.000000
0.000000 1.000000 0.000000
0.000000 1.000000 0.000000
0.000000 1.000000 0.000000
0.000000 1.000000 0.000000
0.000000 1.000000 0.000000
0.000000 1.000000 0.000000
0.000000 1.000000 0.000000
0.000000 1.000000 0.000000
0.000000 1.000000 0.000000
0.000000 1.000000 0.000000
0.000000 1.000000 0.000000
0.000000 1.000000 0.000000
0.000000 1.000000 0.000000
0.000000 1.000000 0.000000
0.000000 1.000000 0.000000
0.196228 1.000000 0.000000
0.329437 1.000000 0.000000
0.439911 0.999969 0.000000
0.533173 0.999115 0.000000
0.614044 0.998199 0.000000
0.689819 0.997284 0.000000
0.760834 0.996185 0.000000
0.825134 0.995056 0.000000
0.880676 0.994049 0.000000
0.929413 0.993103 0.000000
0.974701 0.997498 0.000000
1.000000 1.000000 0.000000
1.000000 1.000000 0.000000
1.000000 1.000000 0.000000
1.000000 1.000000 0.000000
1.000000 1.000000 0.000000
1.000000 1.000000 0.000000
1.000000 1.000000 0.000000
0.000000 1.000000 0.000000
0.000000 1.000000 0.000000
0.000000 1.000000 0.000000
0.000000 1.000000 0.000000
0.000000 1.000000 0.000000
0.000000 1.000000 0.000000
0.000000 1.000000 0.000000
0.000000 1.000000 0.000000
0.000000 1.000000 0.000000
0.000000 1.000000 0.000000
0.000000 1.000000 0.000000
0.000000 1.000000 0.000000
0.000000 1.000000 0.000000
0.000000 1.000000 0.000000
0.000000 1.000000 0.000000
0.145233 1.000000 0.000000
0.303741 1.000000 0.000000
0.421295 1.000000 0.000000
0.519836 1.000000 0.000000
0.604950 1.000000 0.000000
0.682129 1.000000 0.000000
0.754211 1.000000 0.000000
0.820557 1.000000 0.000000
0.875153 1.000000 0.000000
0.922943 1.000000 0.000000
0.964111 1.000000 0.000000
1.000000 1.000000 0.000000
1.000000 1.000000 0.000000
1.000000 1.000000 0.000000
1.000000 1.000000 0.000000
1.000000 1.000000 0.000000
1.000000 1.000000 0.000000
1.000000 1.000000 0.000000
0.000000 1.000000 0.000000
0.000000 1.000000 0.000000
0.000000 1.000000 0.000000
0.000000 1.000000 0.000000
0.000000 1.000000 0.000000
0.000000 1.000000 0.000000
0.000000 1.000000 0.000000
0.000000 1.000000 0.000000
0.000000 1.000000 0.000000
0.000000 1.000000 0.000000
0.000000 1.000000 0.000000
0.000000 1.000000 0.000000
0.000000 1.000000 0.000000
0.000000 1.000000 0.000000
0.000000 1.000000 0.000000
0.082336 1.000000 0.000000
0.293335 1.000000 0.000000
0.410248 1.000000 0.000000
0.511597 1.000000 0.000000
0.600525 1.000000 0.000000
0.678497 1.000000 0.000000
0.750854 1.000000 0.000000
