Color-Correction/LUTs/GH5/Basic/IWLTBAP/U-PANASONIC-V-LOG-V2-LTR.cube
# Copyright: (C) Copyright 2010-2018 by IWLTBAP SAS
# Cannot be resold, shared or otherwise redistributed
# Website: https://luts.iwltbap.com
TITLE "Panasonic V-Log Version 2 (Utility LOG to Rec.709)"
LUT_3D_SIZE 32
0.000000 0.000000 0.000000
0.009338 0.000000 0.000000
0.022491 0.000000 0.000000
0.037415 0.000000 0.000000
0.056183 0.000000 0.000000
0.079834 0.000000 0.000000
0.109436 0.000000 0.000000
0.145782 0.000000 0.000000
0.189117 0.000000 0.000000
0.239044 0.000000 0.000000
0.295441 0.000000 0.000000
0.357574 0.000000 0.000000
0.424683 0.000000 0.000000
0.495544 0.000000 0.000000
0.569031 0.000000 0.000000
0.643890 0.000000 0.000000
0.718872 0.000000 0.000000
0.792236 0.000000 0.000000
0.863007 0.000000 0.000000
0.929626 0.000000 0.000000
0.967499 0.000000 0.000000
0.989288 0.000000 0.000000
0.996063 0.000000 0.000000
0.996063 0.000000 0.000000
0.996063 0.000000 0.000000
0.996063 0.000000 0.000000
0.996063 0.000000 0.000000
0.996063 0.000000 0.000000
0.996063 0.000000 0.000000
0.996063 0.000000 0.000000
0.996063 0.000000 0.000000
0.996063 0.000000 0.000000
0.000000 0.010590 0.000000
0.007050 0.006744 0.000000
0.020172 0.002899 0.000000
0.035095 0.000000 0.000000
0.053589 0.000000 0.000000
0.077332 0.000000 0.000000
0.107147 0.000000 0.000000
0.143433 0.000000 0.000000
0.186584 0.000000 0.000000
0.236542 0.000000 0.000000
0.293030 0.000000 0.000000
0.355042 0.000000 0.000000
0.422119 0.000000 0.000000
0.493011 0.000000 0.000000
0.566589 0.000000 0.000000
0.641571 0.000000 0.000000
0.716553 0.000000 0.000000
0.789948 0.000000 0.000000
0.860565 0.000000 0.000000
0.927246 0.000000 0.000000
0.966034 0.000000 0.000000
0.988953 0.000000 0.000000
0.996063 0.000000 0.000000
0.996063 0.000000 0.000000
0.996063 0.000000 0.000000
0.996063 0.000000 0.000000
0.996063 0.000000 0.000000
0.996063 0.000000 0.000000
0.996063 0.000000 0.000000
0.996063 0.000000 0.000000
0.996063 0.000000 0.000000
0.996063 0.000000 0.000000
0.000000 0.025055 0.000946
0.004700 0.020996 0.000000
0.017853 0.017120 0.000000
0.032776 0.012634 0.000000
0.051300 0.007141 0.000000
0.074982 0.000183 0.000000
0.104828 0.000000 0.000000
0.141083 0.000000 0.000000
0.184296 0.000000 0.000000
0.234406 0.000000 0.000000
0.290771 0.000000 0.000000
0.352875 0.000000 0.000000
0.419800 0.000000 0.000000
0.490692 0.000000 0.000000
0.564270 0.000000 0.000000
0.639282 0.000000 0.000000
0.714203 0.000000 0.000000
0.787628 0.000000 0.000000
0.858215 0.000000 0.000000
0.924896 0.000000 0.000000
0.964417 0.000000 0.000000
0.988556 0.000000 0.000000
0.996063 0.000000 0.000000
0.996063 0.000000 0.000000
0.996063 0.000000 0.000000
0.996063 0.000000 0.000000
0.996063 0.000000 0.000000
0.996063 0.000000 0.000000
0.996063 0.000000 0.000000
0.996063 0.000000 0.000000
0.996063 0.000000 0.000000
0.996063 0.000000 0.000000
0.000000 0.041290 0.003784
0.002106 0.037445 0.001251
0.015228 0.033569 0.000000
0.030182 0.029114 0.000000
0.048706 0.023590 0.000000
0.072357 0.016663 0.000000
0.102203 0.007812 0.000000
0.138489 0.000000 0.000000
0.181641 0.000000 0.000000
0.231628 0.000000 0.000000
0.288116 0.000000 0.000000
0.350128 0.000000 0.000000
0.417175 0.000000 0.000000
0.488068 0.000000 0.000000
0.561646 0.000000 0.000000
0.636658 0.000000 0.000000
0.711578 0.000000 0.000000
0.785034 0.000000 0.000000
0.855621 0.000000 0.000000
0.922272 0.000000 0.000000
0.962646 0.000000 0.000000
0.988159 0.000000 0.000000
0.996063 0.000000 0.000000
0.996063 0.000000 0.000000
0.996063 0.000000 0.000000
0.996063 0.000000 0.000000
0.996063 0.000000 0.000000
0.996063 0.000000 0.000000
0.996063 0.000000 0.000000
0.996063 0.000000 0.000000
0.996063 0.000000 0.000000
0.996063 0.000000 0.000000
0.000000 0.061676 0.007263
0.000000 0.057800 0.004669
0.011841 0.053925 0.002319
0.026764 0.049469 0.000000
0.045471 0.043945 0.000000
0.069214 0.037018 0.000000
0.098816 0.028229 0.000000
0.135284 0.017303 0.000000
0.178406 0.004547 0.000000
0.228363 0.000000 0.000000
0.284729 0.000000 0.000000
0.346924 0.000000 0.000000
0.413971 0.000000 0.000000
0.484863 0.000000 0.000000
0.558380 0.000000 0.000000
0.633240 0.000000 0.000000
0.708191 0.000000 0.000000
0.781708 0.000000 0.000000
0.852417 0.000000 0.000000
0.918945 0.000000 0.000000
0.960449 0.000000 0.000000
0.987671 0.000000 0.000000
0.996063 0.000000 0.000000
0.996063 0.000000 0.000000
0.996063 0.000000 0.000000
0.996063 0.000000 0.000000
0.996063 0.000000 0.000000
0.996063 0.000000 0.000000
0.996063 0.000000 0.000000
0.996063 0.000000 0.000000
0.996063 0.000000 0.000000
0.996063 0.000000 0.000000
0.000000 0.087677 0.011749
0.000000 0.083618 0.009216
0.007812 0.079773 0.006622
0.022736 0.075317 0.003967
0.041260 0.069763 0.000336
0.064941 0.062836 0.000000
0.094788 0.054016 0.000000
0.131073 0.043304 0.000000
0.174194 0.030579 0.000000
0.224152 0.015717 0.000000
0.280518 0.000000 0.000000
0.342712 0.000000 0.000000
0.409760 0.000000 0.000000
0.480652 0.000000 0.000000
0.554199 0.000000 0.000000
0.629211 0.000000 0.000000
0.704163 0.000000 0.000000
0.777588 0.000000 0.000000
0.848206 0.000000 0.000000
0.914825 0.000000 0.000000
0.957672 0.000000 0.000000
0.986694 0.000000 0.000000
0.996063 0.000000 0.000000
0.996063 0.000000 0.000000
0.996063 0.000000 0.000000
0.996063 0.000000 0.000000
0.996063 0.000000 0.000000
0.996063 0.000000 0.000000
0.996063 0.000000 0.000000
0.996063 0.000000 0.000000
0.996063 0.000000 0.000000
0.996063 0.000000 0.000000
0.000000 0.120026 0.017334
0.000000 0.116180 0.014771
0.002472 0.112305 0.012238
0.017426 0.107819 0.009583
0.036194 0.102325 0.005920
0.059845 0.095367 0.001648
0.089447 0.086517 0.000000
0.125763 0.075653 0.000000
0.169128 0.062897 0.000000
0.219025 0.048248 0.000000
0.275391 0.031555 0.000000
0.337555 0.013123 0.000000
0.404694 0.000000 0.000000
0.475555 0.000000 0.000000
0.549042 0.000000 0.000000
0.623901 0.000000 0.000000
0.698853 0.000000 0.000000
0.772247 0.000000 0.000000
0.842987 0.000000 0.000000
0.909576 0.000000 0.000000
0.954132 0.000000 0.000000
0.984314 0.000000 0.000000
0.995483 0.000000 0.000000
0.996063 0.000000 0.000000
0.996063 0.000000 0.000000
0.996063 0.000000 0.000000
0.996063 0.000000 0.000000
0.996063 0.000000 0.000000
0.996063 0.000000 0.000000
0.996063 0.000000 0.000000
0.996063 0.000000 0.000000
0.996063 0.000000 0.000000
0.000000 0.159760 0.024048
0.000000 0.155884 0.021484
0.000000 0.152008 0.019135
0.011047 0.147552 0.016266
0.029724 0.142029 0.012848
0.053406 0.135071 0.008331
0.083099 0.126312 0.002960
0.119354 0.115417 0.000000
0.162506 0.102631 0.000000
0.212616 0.087952 0.000000
0.268982 0.071289 0.000000
0.331146 0.052887 0.000000
0.398071 0.032990 0.000000
0.469147 0.012085 0.000000
0.542664 0.000000 0.000000
0.617462 0.000000 0.000000
0.692474 0.000000 0.000000
0.765900 0.000000 0.000000
0.836548 0.000000 0.000000
0.903046 0.000000 0.000000
0.949829 0.000000 0.000000
0.981110 0.000000 0.000000
0.994629 0.000000 0.000000
0.996063 0.000000 0.000000
0.996063 0.000000 0.000000
0.996063 0.000000 0.000000
0.996063 0.000000 0.000000
0.996063 0.000000 0.000000
0.996063 0.000000 0.000000
0.996063 0.000000 0.000000
0.996063 0.000000 0.000000
0.996063 0.000000 0.000000
0.000000 0.207123 0.032257
0.000000 0.203033 0.029694
0.000000 0.199158 0.027191
0.003510 0.194733 0.024506
0.022064 0.189178 0.020874
0.045715 0.182251 0.016541
0.075348 0.173462 0.010986
0.111847 0.162750 0.004272
0.155029 0.149963 0.000000
0.204926 0.135132 0.000000
0.261322 0.118439 0.000000
0.323486 0.100006 0.000000
0.390564 0.080292 0.000000
0.461456 0.059235 0.000000
0.534973 0.037506 0.000000
0.609924 0.015381 0.000000
0.684814 0.000000 0.000000
0.758392 0.000000 0.000000
0.828979 0.000000 0.000000
0.895355 0.000000 0.000000
0.944733 0.000000 0.000000
0.977386 0.000000 0.000000
0.993622 0.000000 0.000000
0.996063 0.000000 0.000000
0.996063 0.000000 0.000000
0.996063 0.000000 0.000000
0.996063 0.000000 0.000000
0.996063 0.000000 0.000000
0.996063 0.000000 0.000000
0.996063 0.000000 0.000000
0.996063 0.000000 0.000000
0.996063 0.000000 0.000000
0.000000 0.261810 0.041565
0.000000 0.257721 0.039032
0.000000 0.253845 0.036682
0.000000 0.249420 0.033813
0.013275 0.243866 0.030365
0.036957 0.236938 0.025848
0.066620 0.228149 0.020264
0.102905 0.217468 0.013611
0.146210 0.204651 0.005554
0.196136 0.189819 0.000000
0.252502 0.173126 0.000000
0.314667 0.154663 0.000000
0.381775 0.134827 0.000000
0.452637 0.113922 0.000000
0.526215 0.092194 0.000000
0.601044 0.070068 0.000000
0.676025 0.047913 0.000000
0.749512 0.026154 0.000000
0.820190 0.005249 0.000000
0.886627 0.000000 0.000000
0.938904 0.000000 0.000000
0.973022 0.000000 0.000000
0.992462 0.000000 0.000000
0.996063 0.000000 0.000000
0.996063 0.000000 0.000000
0.996063 0.000000 0.000000
0.996063 0.000000 0.000000
0.996063 0.000000 0.000000
0.996063 0.000000 0.000000
0.996063 0.000000 0.000000
0.996063 0.000000 0.000000
0.996063 0.000000 0.000000
0.000000 0.323456 0.052124
0.000000 0.319366 0.049561
0.000000 0.315521 0.047241
0.000000 0.311066 0.044373
0.003296 0.305542 0.040924
0.026947 0.298584 0.036469
0.056732 0.289795 0.030884
0.093079 0.279114 0.024139
0.136230 0.266327 0.016144
0.186188 0.251465 0.006653
0.242523 0.234772 0.000000
0.304688 0.216339 0.000000
0.371796 0.196503 0.000000
0.442657 0.175598 0.000000
0.516174 0.153870 0.000000
0.591156 0.131744 0.000000
0.666138 0.109558 0.000000
0.739532 0.087799 0.000000
0.810211 0.066864 0.000000
0.876678 0.047150 0.000000
0.932373 0.029083 0.000000
0.968079 0.012939 0.000000
0.991089 0.001099 0.000000
0.996063 0.000000 0.000000
0.996063 0.000000 0.000000
0.996063 0.000000 0.000000
0.996063 0.000000 0.000000
0.996063 0.000000 0.000000
0.996063 0.000000 0.000000
0.996063 0.000000 0.000000
0.996063 0.000000 0.000000
0.996063 0.000000 0.000000
0.000000 0.391357 0.063751
0.000000 0.387360 0.061188
0.000000 0.383484 0.058838
0.000000 0.379028 0.056000
0.000000 0.373505 0.052551
0.016083 0.366577 0.048065
0.045715 0.357727 0.042664
0.082001 0.347015 0.035767
0.125336 0.334290 0.027771
0.175323 0.319458 0.018433
0.231689 0.302765 0.007904
0.293793 0.284332 0.000000
0.360931 0.264496 0.000000
0.431824 0.243591 0.000000
0.505310 0.221771 0.000000
0.580170 0.199615 0.000000
0.655121 0.177460 0.000000
0.728546 0.155792 0.000000
0.799255 0.134857 0.000000
0.865753 0.115143 0.000000
0.924103 0.097076 0.000000
0.962524 0.080811 0.000000
0.988708 0.066803 0.000000
0.996063 0.055145 0.000000
0.996063 0.045868 0.000000
0.996063 0.038971 0.000000
0.996063 0.034363 0.000000
0.996063 0.031616 0.000000
0.996063 0.030426 0.000000
0.996063 0.029846 0.000000
0.996063 0.029358 0.000000
0.996063 0.028839 0.000000
0.000000 0.464600 0.076324
0.000000 0.460663 0.073792
0.000000 0.456787 0.071442
0.000000 0.452362 0.068573
0.000000 0.446808 0.065094
0.004303 0.439880 0.060638
0.033905 0.431091 0.055237
0.070251 0.420288 0.048370
0.113403 0.407471 0.040375
0.163513 0.392792 0.031036
0.219879 0.376099 0.020477
0.282074 0.357697 0.008881
0.348969 0.337799 0.000000
0.420044 0.316895 0.000000
0.493500 0.295135 0.000000
0.568359 0.272888 0.000000
0.643311 0.250732 0.000000
0.716736 0.229004 0.000000
0.787445 0.208191 0.000000
0.853943 0.188477 0.000000
0.913055 0.170380 0.000000
0.955719 0.154236 0.000000
0.983887 0.140228 0.000000
0.995422 0.128479 0.000000
0.996063 0.119171 0.000000
0.996063 0.112305 0.000000
0.996063 0.107635 0.000000
0.996063 0.104919 0.000000
0.996063 0.103729 0.000000
0.996063 0.103180 0.000000
0.996063 0.102661 0.000000
0.996063 0.102142 0.000000
0.000000 0.542145 0.089691
0.000000 0.538147 0.087128
0.000000 0.534271 0.084747
0.000000 0.529846 0.081909
0.000000 0.524323 0.078400
0.000000 0.517365 0.073975
0.021423 0.508545 0.068542
0.057709 0.497772 0.061676
0.101044 0.485077 0.053589
0.151001 0.470245 0.044312
0.207367 0.453583 0.033722
0.269470 0.435120 0.022186
0.336639 0.415436 0.009644
0.407501 0.394379 0.000000
0.481018 0.372559 0.000000
0.555847 0.350525 0.000000
0.630829 0.328247 0.000000
0.704224 0.306610 0.000000
0.774872 0.285706 0.000000
0.841461 0.265961 0.000000
0.900513 0.247864 0.000000
0.947479 0.231720 0.000000
0.977631 0.217773 0.000000
0.993896 0.206024 0.000000
0.996063 0.196686 0.000000
0.996063 0.189758 0.000000
0.996063 0.185150 0.000000
0.996063 0.182465 0.000000
0.996063 0.181244 0.000000
0.996063 0.180664 0.000000
0.996063 0.180145 0.000000
0.996063 0.179626 0.000000
0.000000 0.622498 0.103516
0.000000 0.618561 0.100983
0.000000 0.614685 0.098511
0.000000 0.610352 0.095764
0.000000 0.604767 0.092163
0.000000 0.597778 0.087830
0.008484 0.588989 0.082275
0.044769 0.578186 0.075562
0.087921 0.565369 0.067413
0.138000 0.550629 0.058105
0.194366 0.534058 0.047516
0.256531 0.515656 0.035889
0.323486 0.495697 0.023560
0.394470 0.474792 0.010315
0.468079 0.453064 0.000000
0.542969 0.430786 0.000000
0.617889 0.408752 0.000000
0.691315 0.386902 0.000000
0.761902 0.366089 0.000000
0.828430 0.346497 0.000000
0.887604 0.328369 0.000000
0.939087 0.312164 0.000000
0.971100 0.298126 0.000000
0.992279 0.286469 0.000000
0.996063 0.277191 0.000000
0.996063 0.270294 0.000000
0.996063 0.265533 0.000000
0.996063 0.262939 0.000000
0.996063 0.261627 0.000000
0.996063 0.261078 0.000000
0.996063 0.260559 0.000000
0.996063 0.260162 0.000000
0.000000 0.704407 0.117462
0.000000 0.700439 0.115021
0.000000 0.696564 0.112579
0.000000 0.692261 0.109711
0.000000 0.686707 0.106293
0.000000 0.679688 0.101868
0.000000 0.670837 0.096375
0.031586 0.660095 0.089508
0.074738 0.647339 0.081512
0.124756 0.632538 0.072174
0.181091 0.615875 0.061615
0.243225 0.597565 0.050018
0.310303 0.577698 0.037506
0.381195 0.556671 0.024384
0.454773 0.534943 0.010590
0.529785 0.512817 0.000000
0.604706 0.490540 0.000000
0.678131 0.468903 0.000000
0.748718 0.447998 0.000000
0.815247 0.428314 0.000000
0.874451 0.410278 0.000000
0.927734 0.394073 0.000000
0.964539 0.380035 0.000000
0.987885 0.368378 0.000000
0.996063 0.359100 0.000000
0.996063 0.352203 0.000000
0.996063 0.347565 0.000000
0.996063 0.344849 0.000000
0.996063 0.343536 0.000000
0.996063 0.342957 0.000000
0.996063 0.342468 0.000000
0.996063 0.342072 0.000000
0.000000 0.786407 0.131531
0.000000 0.782440 0.129120
0.000000 0.778564 0.126678
0.000000 0.774139 0.123779
0.000000 0.768585 0.120361
0.000000 0.761688 0.115967
0.000000 0.752869 0.110413
0.018402 0.742096 0.103577
0.061554 0.729279 0.095581
0.111481 0.714569 0.086273
0.167969 0.697876 0.075714
0.230011 0.679504 0.064087
0.297089 0.659607 0.051514
0.367981 0.638702 0.038391
0.441559 0.616974 0.024689
0.516449 0.594818 0.010620
0.591522 0.572662 0.000000
0.664948 0.550812 0.000000
0.735504 0.529968 0.000000
0.801910 0.510254 0.000000
0.861115 0.492157 0.000000
0.914551 0.476074 0.000000
0.956329 0.462036 0.000000
0.981506 0.450256 0.000000
0.994751 0.440979 0.000000
0.996063 0.434082 0.000000
0.996063 0.429535 0.000000
0.996063 0.426758 0.000000
0.996063 0.425537 0.000000
0.996063 0.424957 0.000000
0.996063 0.424469 0.000000
0.996063 0.423920 0.000000
0.000000 0.866760 0.145386
0.000000 0.862793 0.142792
0.000000 0.858917 0.140472
0.000000 0.854462 0.137634
0.000000 0.848938 0.134155
0.000000 0.841980 0.129700
0.000000 0.833160 0.124176
0.005493 0.822388 0.117401
0.048615 0.809631 0.109406
0.098572 0.794891 0.100067
0.154938 0.778198 0.089508
0.217102 0.759735 0.077911
0.284180 0.740021 0.065308
0.355042 0.718994 0.052063
0.428680 0.697296 0.038391
0.503632 0.675110 0.024445
0.578491 0.652832 0.010468
0.652039 0.631226 0.000000
0.722595 0.610291 0.000000
0.789124 0.590576 0.000000
0.848206 0.572510 0.000000
0.901520 0.556274 0.000000
0.947845 0.542328 0.000000
0.975128 0.530640 0.000000
0.993378 0.521271 0.000000
0.996063 0.514404 0.000000
0.996063 0.509705 0.000000
0.996063 0.507050 0.000000
0.996063 0.505859 0.000000
0.996063 0.505280 0.000000
0.996063 0.504791 0.000000
0.996063 0.504272 0.000000
0.000000 0.944122 0.158630
0.000000 0.940125 0.156097
0.000000 0.936249 0.153748
0.000000 0.931793 0.150879
0.000000 0.926270 0.147461
0.000000 0.919342 0.142914
0.000000 0.910553 0.137451
0.000000 0.899719 0.130676
0.036194 0.886810 0.122681
0.086182 0.872070 0.113342
0.142548 0.855408 0.102814
0.204651 0.837036 0.091187
0.271667 0.817139 0.078583
0.342651 0.796204 0.065308
0.416199 0.774475 0.051636
0.491150 0.752350 0.037689
0.566071 0.730194 0.023743
0.639496 0.708313 0.010040
0.710083 0.687500 0.000000
0.776611 0.667938 0.000000
0.835815 0.649689 0.000000
0.889069 0.633606 0.000000
0.936279 0.619568 0.000000
0.968811 0.607788 0.000000
0.988525 0.598633 0.000000
0.996063 0.591736 0.000000
0.996063 0.587006 0.000000
0.996063 0.584229 0.000000
0.996063 0.583038 0.000000
0.996063 0.582489 0.000000
0.996063 0.582001 0.000000
0.996063 0.581451 0.000000
0.000000 0.981506 0.171112
0.000000 0.978699 0.168549
0.000000 0.975983 0.166199
0.000000 0.972992 0.163361
0.000000 0.969147 0.159912
0.000000 0.964478 0.155548
0.000000 0.958557 0.149902
0.000000 0.951263 0.143127
0.024445 0.942505 0.135101
0.074432 0.932343 0.125824
0.130829 0.920929 0.115234
0.192993 0.906677 0.103638
0.259979 0.888092 0.091156
0.330872 0.867035 0.077942
0.404572 0.845306 0.064148
0.479340 0.823151 0.050171
0.554382 0.800995 0.036194
0.627808 0.779236 0.022522
0.698395 0.758301 0.009369
0.764771 0.738739 0.000000
0.823975 0.720612 0.000000
0.877411 0.704437 0.000000
0.924591 0.690491 0.000000
0.961426 0.678650 0.000000
0.982666 0.669495 0.000000
0.994904 0.662659 0.000000
0.996063 0.657928 0.000000
0.996063 0.655060 0.000000
0.996063 0.653839 0.000000
0.996063 0.653290 0.000000
0.996063 0.652802 0.000000
0.996063 0.652283 0.000000
0.000000 0.992371 0.182648
0.000000 0.991669 0.180084
0.000000 0.990967 0.177612
0.000000 0.990265 0.174866
0.000000 0.989319 0.171326
0.000000 0.988159 0.167023
0.000000 0.986725 0.161438
0.000000 0.984314 0.154602
0.013702 0.979156 0.146515
0.063751 0.971710 0.137177
0.120026 0.963257 0.126648
0.182098 0.954102 0.115112
0.249207 0.942535 0.102600
0.320068 0.928375 0.089417
0.393677 0.910156 0.075653
0.468658 0.888519 0.061676
0.543549 0.866333 0.047607
0.617065 0.844574 0.033875
0.687622 0.823669 0.020782
0.754150 0.804108 0.008392
0.813232 0.785950 0.000000
0.866547 0.769806 0.000000
0.913696 0.755859 0.000000
0.953094 0.744171 0.000000
0.977203 0.734833 0.000000
0.992401 0.727997 0.000000
0.996063 0.723267 0.000000
0.996063 0.720428 0.000000
0.996063 0.719208 0.000000
0.996063 0.718658 0.000000
0.996063 0.718109 0.000000
0.996063 0.717621 0.000000
0.000000 0.996063 0.192902
0.000000 0.996063 0.190369
0.000000 0.996063 0.187927
0.000000 0.996063 0.185150
0.000000 0.996063 0.181610
0.000000 0.996063 0.177185
0.000000 0.996063 0.171600
0.000000 0.996063 0.164948
0.003998 0.995087 0.156830
0.054077 0.992859 0.147552
0.110474 0.990295 0.136963
0.172455 0.985931 0.125336
0.239532 0.977600 0.112854
0.310425 0.966980 0.099579
0.384033 0.956146 0.085907
0.459045 0.942474 0.071899
0.533966 0.925018 0.058014
0.607391 0.904053 0.044250
0.677979 0.883118 0.030945
0.744507 0.863403 0.018585
0.803650 0.845398 0.007202
0.856964 0.829071 0.000000
0.904022 0.815125 0.000000
0.943634 0.803467 0.000000
0.971832 0.794189 0.000000
0.988037 0.787292 0.000000
0.995697 0.782532 0.000000
0.996063 0.779877 0.000000
0.996063 0.778687 0.000000
0.996063 0.778107 0.000000
0.996063 0.777588 0.000000
0.996063 0.777100 0.000000
0.000000 0.996063 0.201782
0.000000 0.996063 0.199188
0.000000 0.996063 0.196869
0.000000 0.996063 0.194000
0.000000 0.996063 0.190552
0.000000 0.996063 0.186066
0.000000 0.996063 0.180603
0.000000 0.996063 0.173767
0.000000 0.996063 0.165771
0.045563 0.996063 0.156464
0.102020 0.996063 0.145905
0.164124 0.996063 0.134277
0.231232 0.994751 0.121704
0.302094 0.991821 0.108459
0.375702 0.985199 0.094788
0.450684 0.974915 0.080811
0.525635 0.963867 0.066833
0.599030 0.951355 0.053162
0.669647 0.934265 0.039856
0.736176 0.915009 0.027435
0.795349 0.896790 0.016022
0.848602 0.880707 0.005859
0.895660 0.866699 0.000000
0.935303 0.855042 0.000000
0.966583 0.845764 0.000000
0.983765 0.838837 0.000000
0.994812 0.834106 0.000000
0.996063 0.831329 0.000000
0.996063 0.830139 0.000000
0.996063 0.829590 0.000000
0.996063 0.829041 0.000000
0.996063 0.828552 0.000000
0.000000 0.996063 0.209076
0.000000 0.996063 0.206726
0.000000 0.996063 0.204224
0.000000 0.996063 0.201324
0.000000 0.996063 0.197937
0.000000 0.996063 0.193542
0.000000 0.996063 0.187988
0.000000 0.996063 0.181122
0.000000 0.996063 0.173126
0.038757 0.996063 0.163818
0.095123 0.996063 0.153259
0.157227 0.996063 0.141724
0.224182 0.996063 0.129242
0.295166 0.996063 0.115997
0.368744 0.996063 0.102173
0.443695 0.994019 0.088165
0.518616 0.988434 0.074188
0.592041 0.978760 0.060516
0.662628 0.968292 0.047363
0.729156 0.956879 0.034973
0.788300 0.940186 0.023560
0.841614 0.923767 0.013397
0.888672 0.909790 0.004547
0.928284 0.898132 0.000000
0.959778 0.888824 0.000000
0.980225 0.881927 0.000000
0.991760 0.877197 0.000000
0.996033 0.874542 0.000000
0.996063 0.873322 0.000000
0.996063 0.872772 0.000000
0.996063 0.872253 0.000000
0.996063 0.871735 0.000000
0.000000 0.996063 0.215027
0.000000 0.996063 0.212555
0.000000 0.996063 0.210175
0.000000 0.996063 0.207275
0.000000 0.996063 0.203857
0.000000 0.996063 0.199371
0.000000 0.996063 0.193848
0.000000 0.996063 0.187073
0.000000 0.996063 0.179077
0.033173 0.996063 0.169769
0.089600 0.996063 0.159210
0.151672 0.996063 0.147583
0.218689 0.996063 0.135040
0.289581 0.996063 0.121796
0.363220 0.996063 0.108093
0.438171 0.996063 0.094116
0.513123 0.996063 0.080139
0.586517 0.994812 0.066467
0.657104 0.989014 0.053162
0.723633 0.980011 0.040802
0.782837 0.970856 0.029388
0.836121 0.958099 0.019226
0.883148 0.944305 0.010376
0.922607 0.932648 0.003052
0.954285 0.923218 0.000000
0.976837 0.916290 0.000000
0.988983 0.911560 0.000000
0.995636 0.908752 0.000000
0.996063 0.907562 0.000000
0.996063 0.906982 0.000000
0.996063 0.906494 0.000000
0.996063 0.905975 0.000000
0.000000 0.996063 0.219482
0.000000 0.996063 0.216919
0.000000 0.996063 0.214417
0.000000 0.996063 0.211731
0.000000 0.996063 0.208282
0.000000 0.996063 0.203766
0.000000 0.996063 0.198212
0.000000 0.996063 0.191498
0.000000 0.996063 0.183441
0.029144 0.996063 0.174042
0.085571 0.996063 0.163635
0.147614 0.996063 0.152008
0.214569 0.996063 0.139465
0.285431 0.996063 0.126190
0.359039 0.996063 0.112488
0.434052 0.996063 0.098572
0.509003 0.996063 0.084564
0.582428 0.996063 0.070892
0.652985 0.996063 0.057617
0.719513 0.994904 0.045166
0.778717 0.987854 0.033752
0.832001 0.979828 0.023590
0.879028 0.969757 0.014771
0.918488 0.958374 0.007416
0.950073 0.949097 0.001465
0.973816 0.942139 0.000000
0.987030 0.937408 0.000000
0.994690 0.934784 0.000000
0.996063 0.933563 0.000000
0.996063 0.933014 0.000000
0.996063 0.932465 0.000000
0.996063 0.931976 0.000000
0.000000 0.996063 0.222321
0.000000 0.996063 0.219971
0.000000 0.996063 0.217407
0.000000 0.996063 0.214569
0.000000 0.996063 0.211151
0.000000 0.996063 0.206818
0.000000 0.996063 0.201202
0.000000 0.996063 0.194366
0.000000 0.996063 0.186371
0.026367 0.996063 0.177002
0.082733 0.996063 0.166473
0.144836 0.996063 0.154846
0.211792 0.996063 0.142395
0.282745 0.996063 0.129211
0.356354 0.996063 0.115417
0.431244 0.996063 0.101379
0.506195 0.996063 0.087433
0.579590 0.996063 0.073730
0.650208 0.996063 0.060608
0.716736 0.996063 0.048218
0.775909 0.996063 0.036835
0.829163 0.991882 0.026489
0.876251 0.985443 0.017761
0.915710 0.976044 0.010284
0.947296 0.966888 0.004486
0.971008 0.959991 0.000092
0.985535 0.955444 0.000000
0.993408 0.952606 0.000000
0.996002 0.951416 0.000000
0.996063 0.950867 0.000000
0.996063 0.950348 0.000000
0.996063 0.949829 0.000000
0.000000 0.996063 0.224030
0.000000 0.996063 0.221710
0.000000 0.996063 0.219116
0.000000 0.996063 0.216278
0.000000 0.996063 0.212830
0.000000 0.996063 0.208557
0.000000 0.996063 0.202942
0.000000 0.996063 0.196075
0.000000 0.996063 0.188049
0.024689 0.996063 0.178741
0.081085 0.996063 0.168152
0.143250 0.996063 0.156647
0.210297 0.996063 0.144196
0.281158 0.996063 0.130951
0.354706 0.996063 0.117157
0.429535 0.996063 0.103088
