Color-Correction/LUTs/GH5/Basic/IWLTBAP/U-PANASONIC-V-LOG-V7-LTR.cube
# Copyright: (C) Copyright 2010-2018 by IWLTBAP SAS
# Cannot be resold, shared or otherwise redistributed
# Website: https://luts.iwltbap.com
TITLE "Panasonic V-Log Version 7 (Utility LOG to Rec.709)"
LUT_3D_SIZE 5
0.000000 0.000000 0.000000
0.104034 0.000000 0.000000
0.397552 0.000000 0.043152
0.866882 0.084351 0.206177
0.940613 0.107147 0.261658
0.000000 0.102264 0.013214
0.132141 0.112122 0.003174
0.427429 0.051819 0.013428
0.877106 0.080566 0.195221
0.938080 0.104340 0.248962
0.000000 0.358398 0.097870
0.000000 0.375214 0.058777
0.440857 0.393982 0.065094
0.900879 0.258636 0.082367
0.935547 0.249664 0.170685
0.000000 0.865173 0.275452
0.000000 0.857452 0.265411
0.000000 0.873840 0.108948
0.917786 0.883453 0.098816
0.941498 0.878632 0.412476
0.000000 0.957458 0.327484
0.000000 0.951691 0.314697
0.000000 0.953613 0.227142
0.837402 0.966156 0.325714
0.971558 0.980652 0.706635
0.000000 0.000000 0.079742
0.107025 0.000000 0.080658
0.388245 0.007904 0.096069
0.862579 0.087402 0.218964
0.930450 0.099518 0.265381
0.000000 0.104187 0.098877
0.100922 0.094452 0.096954
0.399597 0.070648 0.096954
0.872833 0.084351 0.208862
0.936371 0.102417 0.259949
0.002380 0.355408 0.133362
0.052002 0.374207 0.135193
0.483978 0.436432 0.114349
0.905121 0.244781 0.082367
0.936401 0.248688 0.187927
0.000000 0.869019 0.289062
0.000000 0.864197 0.278168
0.000000 0.876709 0.127045
0.920319 0.886322 0.098816
0.944031 0.879608 0.407776
0.000000 0.959381 0.334808
0.000000 0.956482 0.330292
0.000000 0.956512 0.240845
0.839935 0.967133 0.314697
0.970673 0.979675 0.708740
0.026825 0.001984 0.342194
0.134155 0.007874 0.317444
0.391327 0.023651 0.314667
0.862579 0.116089 0.339417
0.927063 0.111145 0.360596
0.005524 0.108124 0.333008
0.100922 0.080414 0.370697
0.400604 0.071716 0.323883
0.866852 0.115051 0.333923
0.931305 0.117035 0.364258
0.038239 0.354431 0.331177
0.085480 0.364349 0.343079
0.360260 0.350525 0.336639
0.876251 0.302063 0.333954
0.932159 0.289246 0.356934
0.000000 0.868073 0.373474
0.000000 0.867096 0.367035
0.195435 0.867096 0.351379
0.936401 0.910339 0.246277
0.944061 0.888245 0.480011
0.000000 0.957458 0.410431
0.000000 0.957458 0.409485
0.045624 0.955536 0.378967
0.837402 0.968079 0.388214
0.973328 0.980652 0.745392
0.166351 0.052643 0.842316
0.214111 0.067719 0.845673
0.430511 0.103363 0.774017
0.860840 0.100403 0.794006
0.923676 0.127197 0.789490
0.111237 0.052795 0.875214
0.190216 0.092438 0.855927
0.427429 0.126099 0.776215
0.870270 0.097473 0.802948
0.921997 0.136047 0.788391
0.069977 0.349518 0.797333
0.069855 0.347565 0.811859
0.348938 0.297150 0.892242
0.881348 0.255615 0.822083
0.916931 0.255646 0.805115
0.002167 0.855560 0.853638
0.002167 0.860352 0.857056
0.051331 0.862274 0.858154
0.868500 0.860352 0.860474
0.962067 0.860352 0.855896
0.000000 0.957458 0.869507
0.000000 0.956482 0.861603
0.000000 0.960358 0.864990
0.826691 0.972900 0.857025
0.971558 0.979675 0.868378
0.219269 0.048309 0.965302
0.253540 0.061859 0.973022
0.453156 0.105286 0.940887
0.886475 0.050110 0.926300
0.930450 0.103424 0.943115
0.180786 0.041138 0.966431
0.232788 0.078491 0.969727
0.456268 0.124969 0.940887
0.888184 0.050110 0.928558
0.930450 0.111145 0.943115
0.000000 0.348541 0.952087
0.002380 0.345551 0.963135
0.364441 0.281311 0.963135
0.897491 0.206207 0.938599
0.923706 0.233856 0.947540
0.088501 0.870941 0.966431
0.092621 0.875763 0.970795
0.086334 0.881531 0.969696
0.875366 0.853577 0.975220
0.955994 0.847839 0.971924
0.061646 0.965210 0.974121
0.061646 0.965210 0.974121
0.061646 0.969055 0.978485
0.796204 0.977722 0.980682
0.982086 0.984497 0.982849
