Color-Correction/LUTs/GH5/Basic/IWLTBAP/U-PANASONIC-V-LOG-HDR-LTR.cube
# Copyright: (C) Copyright 2010-2018 by IWLTBAP SAS
# Cannot be resold, shared or otherwise redistributed
# Website: https://luts.iwltbap.com
TITLE "Panasonic V-Log HDR (Utility LOG to Rec.709)"
LUT_3D_SIZE 5
0.000244 0.000244 0.000244
0.139435 0.000000 0.004272
0.459106 0.047882 0.077850
0.889832 0.162842 0.283600
0.953979 0.182861 0.339355
0.010803 0.134277 0.017883
0.168304 0.147675 0.015503
0.486053 0.079468 0.041321
0.899811 0.156952 0.267181
0.954712 0.179260 0.327087
0.101257 0.418732 0.147766
0.090790 0.423035 0.097778
0.484955 0.447815 0.109680
0.934845 0.310760 0.134033
0.958801 0.311737 0.240051
0.206238 0.879974 0.382446
0.205566 0.880920 0.374359
0.210663 0.894470 0.194000
0.940918 0.899597 0.194275
0.967285 0.898407 0.504303
0.191406 0.966309 0.433685
0.191925 0.966309 0.427643
0.244629 0.964233 0.349609
0.863800 0.985229 0.441498
0.999390 0.997467 0.749451
0.003784 0.000458 0.131348
0.139069 0.009918 0.116974
0.453339 0.070068 0.144989
0.888489 0.168213 0.299530
0.953186 0.186127 0.350311
0.022400 0.132172 0.131073
0.133209 0.132996 0.135376
0.459106 0.121521 0.145538
0.896454 0.163544 0.285980
0.953857 0.183289 0.340729
0.111755 0.415649 0.188385
0.139343 0.423309 0.184387
0.520599 0.486115 0.167938
0.938629 0.300293 0.132690
0.957794 0.315735 0.260498
0.207214 0.879852 0.390503
0.206329 0.880951 0.383423
0.203918 0.892395 0.217804
0.942719 0.901886 0.194275
0.967438 0.899109 0.504761
0.190765 0.966309 0.439758
0.191345 0.966309 0.434418
0.244781 0.964233 0.359283
0.863220 0.985229 0.441620
0.999420 0.997528 0.749695
0.071991 0.048737 0.425079
0.168518 0.056458 0.392975
0.445221 0.094025 0.392792
0.880798 0.197144 0.417999
0.947418 0.202362 0.445953
0.085205 0.151825 0.400818
0.148743 0.128143 0.439667
0.453430 0.134247 0.402161
0.886078 0.197449 0.415314
0.947418 0.202271 0.442261
0.141327 0.410858 0.403748
0.171082 0.414062 0.406189
0.412170 0.411469 0.407837
0.889954 0.385834 0.419586
0.946045 0.380005 0.443787
0.208405 0.878906 0.468170
0.208405 0.879578 0.464233
0.358826 0.889160 0.453949
0.958496 0.926971 0.360321
0.969543 0.911163 0.558990
0.180603 0.966309 0.504486
0.181488 0.966309 0.500671
0.322937 0.967499 0.479736
0.861694 0.986969 0.488556
1.000000 0.998047 0.783234
0.249268 0.145264 0.875549
0.282043 0.152679 0.867157
0.468781 0.191650 0.809937
0.892670 0.202301 0.831451
0.951447 0.242218 0.821442
0.214172 0.143585 0.904297
0.267029 0.180084 0.878387
0.469269 0.218048 0.818024
0.897278 0.202637 0.835815
0.950348 0.254547 0.821960
0.205231 0.434235 0.826721
0.204803 0.431488 0.839478
0.424469 0.388123 0.910614
0.912903 0.369263 0.853271
0.948029 0.369385 0.835175
0.163452 0.892761 0.881226
0.162781 0.893677 0.881958
0.321503 0.897400 0.885651
0.887756 0.889648 0.886475
0.988586 0.884155 0.880341
0.102173 0.976990 0.883270
0.102264 0.976990 0.882965
0.252655 0.978943 0.882294
0.835632 0.998322 0.884338
1.000000 0.999176 0.884888
0.294128 0.151245 0.980927
0.320221 0.158875 0.979675
0.497040 0.213593 0.953522
0.925964 0.196960 0.945953
0.971527 0.263245 0.955383
0.267212 0.150116 0.981415
0.307404 0.185791 0.980103
0.495178 0.233124 0.956451
0.929810 0.196899 0.948914
0.971069 0.271942 0.956482
0.197876 0.441193 0.966431
0.196167 0.434143 0.973480
0.442352 0.382568 0.976868
0.946381 0.351410 0.962433
0.973846 0.371490 0.964447
0.035004 0.916656 0.987823
0.033752 0.917206 0.988312
0.145844 0.922211 0.992950
0.904846 0.888000 0.993988
0.997711 0.878082 0.993103
0.000000 0.997833 0.997833
0.000000 0.997833 0.997833
0.118195 0.999939 0.997833
0.800018 1.000000 1.000000
1.000000 1.000000 1.000000
