Color-Correction/LUTs/GH5/Basic/IWLTBAP/U-PANASONIC-V-LOG-V7-LTR.cube
# Copyright: (C) Copyright 2010-2018 by IWLTBAP SAS
# Cannot be resold, shared or otherwise redistributed
# Website: https://luts.iwltbap.com
TITLE "Panasonic V-Log Version 7 (Utility LOG to Rec.709)"
LUT_3D_SIZE 33
0.000000 0.000000 0.000000
0.000000 0.000000 0.000000
0.000000 0.000000 0.000000
0.000000 0.000000 0.000000
0.021088 0.000000 0.000000
0.030182 0.000000 0.000000
0.057434 0.000000 0.000580
0.073242 0.000000 0.000000
0.104034 0.000000 0.000000
0.124298 0.000000 0.000000
0.165741 0.000000 0.013367
0.194275 0.000000 0.009460
0.233856 0.000000 0.011932
0.269012 0.000000 0.017151
0.315002 0.002228 0.028656
0.359161 0.001831 0.034790
0.397552 0.000000 0.043152
0.445709 0.003693 0.059052
0.488770 0.009613 0.073608
0.547760 0.023224 0.096497
0.603912 0.035278 0.114380
0.666229 0.050812 0.135559
0.729004 0.061127 0.157104
0.796204 0.070068 0.181976
0.866882 0.084351 0.206177
0.920624 0.093109 0.235016
0.933197 0.099518 0.254456
0.930450 0.099518 0.257568
0.930450 0.098480 0.257690
0.930786 0.099518 0.254791
0.930450 0.099518 0.254456
0.930573 0.095764 0.254547
0.940613 0.107147 0.261658
0.000000 0.000000 0.000000
0.000000 0.000000 0.000000
0.000000 0.000000 0.000000
0.000000 0.000000 0.000000
0.017395 0.000000 0.000000
0.030457 0.000000 0.000000
0.059387 0.000610 0.000488
0.071686 0.000000 0.000000
0.103638 0.000000 0.000000
0.132721 0.000000 0.004028
0.164062 0.000000 0.011200
0.189911 0.000000 0.009460
0.226959 0.000000 0.010834
0.270294 0.000000 0.020416
0.307892 0.002228 0.021576
0.359406 0.001709 0.036560
0.391571 0.000000 0.041809
0.444458 0.003937 0.057983
0.491333 0.009735 0.068726
0.547882 0.023102 0.096497
0.605408 0.035156 0.114380
0.665161 0.045746 0.135895
0.727844 0.058319 0.153534
0.795441 0.070312 0.181030
0.868439 0.084229 0.209564
0.920105 0.092377 0.235901
0.930450 0.099518 0.254456
0.930573 0.098907 0.254547
0.929932 0.098236 0.254456
0.927795 0.092346 0.251617
0.930450 0.099274 0.254456
0.930664 0.095764 0.254669
0.937256 0.107147 0.261658
0.000000 0.000000 0.000000
0.000000 0.000000 0.000000
0.000000 0.000000 0.000000
0.000000 0.000000 0.000000
0.021149 0.000000 0.000000
0.026428 0.000000 0.000000
0.054535 0.000488 0.000397
0.075165 0.000000 0.000000
0.099640 0.000000 0.000183
0.124298 0.000000 0.002655
0.158844 0.000000 0.008484
0.188660 0.000000 0.009460
0.226837 0.000000 0.013153
0.266144 0.000000 0.019043
0.308533 0.002228 0.027466
0.352844 0.001587 0.034790
0.391327 0.000000 0.041779
0.440979 0.004181 0.056366
0.485474 0.009857 0.069061
0.549377 0.022980 0.094727
0.603668 0.032074 0.113007
0.665405 0.045990 0.136017
0.726624 0.058197 0.154541
0.793091 0.070557 0.181152
0.867493 0.084137 0.208435
0.922729 0.092499 0.233368
0.930450 0.098755 0.254211
0.930145 0.098907 0.254669
0.929840 0.094727 0.251495
0.927917 0.092346 0.254456
0.930450 0.099274 0.254456
0.930573 0.092102 0.254791
0.937256 0.103424 0.258148
0.000000 0.000000 0.000000
0.000000 0.000000 0.000000
0.000000 0.000000 0.000000
0.000000 0.000000 0.000000
0.017273 0.000000 0.000000
0.026428 0.000000 0.000000
0.058044 0.000366 0.000305
0.072296 0.000000 0.000000
0.095032 0.000000 0.000000
0.129608 0.002838 0.006805
0.158844 0.000000 0.008484
0.190369 0.000000 0.012543
0.223969 0.000000 0.011932
0.264923 0.000000 0.015686
0.307220 0.000000 0.022675
0.346832 0.001831 0.034790
0.394653 0.000000 0.044586
0.439789 0.007141 0.059357
0.490601 0.013306 0.074951
0.547241 0.017761 0.093842
0.603271 0.034607 0.115692
0.669312 0.050049 0.139740
0.727905 0.061951 0.155640
0.799744 0.074951 0.183258
0.864288 0.081879 0.202820
0.922852 0.094208 0.235352
0.930450 0.097992 0.254456
0.932983 0.099518 0.257233
0.927368 0.091705 0.254120
0.930450 0.098755 0.254456
0.930450 0.099274 0.254211
0.933502 0.099152 0.257690
0.937256 0.103424 0.258148
0.000000 0.017731 0.000000
0.000153 0.012085 0.000000
0.000000 0.011566 0.000000
0.000000 0.010834 0.000000
0.021698 0.025330 0.002777
0.039307 0.011841 0.000000
0.063324 0.011322 0.000397
0.087402 0.011841 0.000000
0.118988 0.010834 0.000000
0.147736 0.007507 0.000000
0.178558 0.007629 0.000000
0.215668 0.005157 0.002777
0.249390 0.000977 0.001984
0.282837 0.002350 0.006805
0.321472 0.000000 0.012573
0.362518 0.000488 0.025543
0.407349 0.004913 0.037689
0.451508 0.005310 0.052551
0.501862 0.014801 0.071625
0.556580 0.023224 0.093292
0.612366 0.034790 0.112549
0.666168 0.047180 0.131165
0.733612 0.061127 0.159119
0.796661 0.070526 0.177765
0.874512 0.082977 0.207947
0.922516 0.094055 0.232605
0.935547 0.097992 0.254242
0.930878 0.099518 0.254456
0.928345 0.092346 0.254456
0.930145 0.098755 0.254578
0.928314 0.092865 0.251495
0.931000 0.092102 0.251404
0.940613 0.107147 0.261658
0.000000 0.026398 0.000000
0.000000 0.024231 0.000000
0.000000 0.023834 0.000183
0.000000 0.027832 0.000000
0.016327 0.038361 0.000000
0.043427 0.030975 0.000000
0.060974 0.031952 0.000000
0.092133 0.035400 0.000488
0.119690 0.031708 0.000305
0.147522 0.027527 0.000000
0.175995 0.019104 0.000000
0.216309 0.026764 0.002655
0.251617 0.018097 0.001373
0.287628 0.006287 0.004242
0.326416 0.000000 0.002380
0.371552 0.002106 0.013428
0.411987 0.004669 0.030060
0.452911 0.006409 0.042328
0.506409 0.011200 0.063385
0.557861 0.020691 0.085632
0.615234 0.035278 0.107544
0.666779 0.044006 0.126404
0.733307 0.058197 0.152832
0.797821 0.068909 0.176300
0.872070 0.080933 0.202850
0.924652 0.093933 0.234436
0.932037 0.097351 0.250824
0.927582 0.091980 0.250824
0.927582 0.091980 0.248199
0.930145 0.095123 0.250824
0.927490 0.091827 0.248169
0.930573 0.091583 0.250946
0.937256 0.102814 0.254456
0.000000 0.041809 0.000000
0.000000 0.047241 0.002563
0.000000 0.047028 0.002777
0.000458 0.053040 0.002869
0.007599 0.053406 0.005127
0.023285 0.053650 0.000000
0.068451 0.053406 0.000000
0.092896 0.051178 0.001190
0.115265 0.050751 0.000000
0.151520 0.049164 0.002258
0.179596 0.047211 0.000000
0.214844 0.041809 0.002563
0.253021 0.036163 0.000580
0.288666 0.033173 0.004333
0.327972 0.020691 0.001984
0.370514 0.008270 0.005432
0.422791 0.001984 0.012756
0.468689 0.006531 0.033142
0.510223 0.010345 0.051422
0.563171 0.020569 0.075378
0.617584 0.032074 0.101135
0.670044 0.043701 0.121796
0.735046 0.058197 0.148560
0.800079 0.068909 0.170715
0.869843 0.079346 0.200714
0.924561 0.092224 0.231323
0.931915 0.097229 0.249451
0.927582 0.091980 0.250244
0.927063 0.089417 0.247162
0.929504 0.094757 0.247498
0.927490 0.090851 0.246704
0.927795 0.091583 0.245148
0.936615 0.101929 0.256775
0.000000 0.062103 0.003174
0.000153 0.066223 0.000183
0.000000 0.066101 0.000580
0.000000 0.066101 0.000885
0.000824 0.070282 0.000000
0.016968 0.070160 0.000000
0.036926 0.073242 0.000000
0.095154 0.083130 0.000000
0.121613 0.077820 0.000702
0.151764 0.079468 0.002258
0.177032 0.068085 0.000000
0.213562 0.068542 0.001099
0.252350 0.065491 0.003357
0.284668 0.053040 0.003052
0.324982 0.044006 0.003845
0.372559 0.034485 0.007965
0.424377 0.021301 0.006989
0.471893 0.008636 0.011871
0.514221 0.007904 0.033051
0.563934 0.015167 0.058899
0.621552 0.026917 0.088989
0.677429 0.042999 0.116699
0.735352 0.055084 0.140381
0.802399 0.066956 0.167236
0.876678 0.078613 0.197083
0.925903 0.090942 0.226379
0.931824 0.096252 0.247833
0.927063 0.091339 0.246582
0.929718 0.094604 0.247162
0.930450 0.095123 0.246826
0.927277 0.088501 0.241730
0.929718 0.091339 0.246490
0.934570 0.097229 0.251617
0.000000 0.102264 0.013214
0.000000 0.094788 0.003357
0.000000 0.097687 0.003357
0.000000 0.104828 0.008972
0.000580 0.099884 0.000793
0.016663 0.104584 0.000000
0.038605 0.105682 0.000000
0.066925 0.104584 0.000000
0.132141 0.112122 0.003174
0.162781 0.109100 0.000092
0.186066 0.101196 0.000183
0.223206 0.099396 0.002869
0.260803 0.094025 0.003540
0.290771 0.079468 0.003754
0.335724 0.074646 0.004547
0.376495 0.062561 0.005615
0.427429 0.051819 0.013428
0.474731 0.033569 0.011322
0.523224 0.017975 0.016968
0.576508 0.011475 0.039337
0.627716 0.023956 0.069824
0.680969 0.036285 0.103760
0.743683 0.052765 0.132843
0.806976 0.065338 0.160461
0.877106 0.080566 0.195221
0.923370 0.091248 0.222015
0.932800 0.091949 0.242432
0.930450 0.091339 0.244446
0.932129 0.093445 0.244873
0.931305 0.096497 0.244446
0.930664 0.094452 0.244446
0.931396 0.095642 0.244446
0.938080 0.104340 0.248962
0.000000 0.126434 0.015686
0.000000 0.127686 0.009674
0.000000 0.130585 0.009003
0.000000 0.130951 0.009460
0.000000 0.128174 0.001190
0.005829 0.130310 0.000397
0.036957 0.137665 0.002258
0.058624 0.132874 0.000702
0.093536 0.138550 0.003052
0.160645 0.136627 0.000885
0.191895 0.131927 0.000092
0.228912 0.129456 0.002075
0.259735 0.121887 0.002258
0.291687 0.112244 0.004639
0.341187 0.104492 0.004547
0.379852 0.096405 0.006317
0.428223 0.086060 0.011414
0.476135 0.071442 0.013428
0.525665 0.053528 0.018433
0.576752 0.027222 0.021088
0.635742 0.015900 0.043579
0.690857 0.032196 0.081909
0.744049 0.045349 0.116547
0.811493 0.061371 0.149719
0.883392 0.078278 0.185883
0.925171 0.087128 0.214996
0.930237 0.091187 0.236053
0.928955 0.089691 0.237274
0.931061 0.092224 0.237976
0.928009 0.090942 0.239594
0.929382 0.092773 0.239929
0.930450 0.092621 0.238403
0.933807 0.099518 0.243561
0.000000 0.155243 0.019928
0.000000 0.152374 0.014465
0.000000 0.154785 0.013428
0.000000 0.160431 0.017731
0.000000 0.158234 0.003845
0.000000 0.159546 0.000977
0.017456 0.163879 0.002167
0.046448 0.162994 0.000702
0.080597 0.165344 0.002960
0.121216 0.162964 0.000977
0.190430 0.165588 0.000977
0.227570 0.164246 0.002075
0.255890 0.156738 0.004150
0.299957 0.149719 0.006897
0.340149 0.140594 0.006683
0.380249 0.130676 0.006317
0.434113 0.120789 0.014984
0.475220 0.108368 0.015564
0.527802 0.093292 0.019318
0.579498 0.067322 0.024139
0.642273 0.050659 0.033142
0.698395 0.026642 0.055328
0.753937 0.038544 0.097260
0.818726 0.056549 0.135468
0.884735 0.073578 0.174713
0.925171 0.083923 0.205658
0.930450 0.088654 0.231201
0.929169 0.088623 0.230652
0.930878 0.089600 0.230560
0.927063 0.091339 0.230072
0.928558 0.091339 0.230072
0.930450 0.091217 0.231201
0.933807 0.095520 0.233734
0.000000 0.179688 0.018738
0.000000 0.181000 0.018616
0.000000 0.186920 0.020691
0.000000 0.186340 0.017944
0.000000 0.189392 0.012238
0.000000 0.191254 0.002563
0.004456 0.191650 0.001099
0.028473 0.189392 0.000702
0.064758 0.190643 0.002380
0.100922 0.196350 0.002960
0.150085 0.191650 0.003174
0.230072 0.199341 0.007294
0.265839 0.192749 0.003174
0.300751 0.188416 0.007294
0.339874 0.180084 0.011688
0.384888 0.166077 0.010468
0.431152 0.157196 0.013916
0.480225 0.144318 0.020111
0.525543 0.129028 0.023468
0.580780 0.110687 0.026215
0.643188 0.094147 0.037262
0.704742 0.065948 0.045746
0.762360 0.031921 0.059998
0.823181 0.047638 0.108063
0.888245 0.066833 0.155396
0.926666 0.079590 0.194580
0.930878 0.103577 0.227020
0.930450 0.103119 0.225372
0.929382 0.103027 0.227264
0.928986 0.105042 0.228607
0.932251 0.105530 0.227692
0.932556 0.107147 0.225372
0.933807 0.108490 0.230194
0.000000 0.223480 0.030457
0.000000 0.224487 0.031250
0.000000 0.228699 0.030457
0.000000 0.227081 0.032440
0.000000 0.229431 0.023254
0.000000 0.227173 0.008698
0.000000 0.227234 0.003174
0.013855 0.235779 0.005127
0.042908 0.230957 0.003174
0.092560 0.235626 0.007111
0.129486 0.229919 0.003174
0.188049 0.236877 0.009766
0.270691 0.236816 0.009460
0.316711 0.233032 0.013885
0.345825 0.223022 0.016571
0.384399 0.208832 0.015076
0.444946 0.201324 0.023254
0.485077 0.186584 0.025818
0.533936 0.173737 0.028534
0.581757 0.156647 0.032318
0.647949 0.143463 0.043182
0.707458 0.119415 0.051697
0.769592 0.085510 0.053986
0.833984 0.045227 0.069580
0.891998 0.059357 0.124329
0.929077 0.075470 0.174988
0.931305 0.117828 0.220215
0.928345 0.124146 0.219360
0.930450 0.125641 0.222992
0.928986 0.119843 0.221100
0.929810 0.121796 0.221008
0.929901 0.125732 0.222229
0.936371 0.129517 0.226685
0.000000 0.251160 0.045410
0.000000 0.263977 0.047485
0.000000 0.267029 0.052032
0.000000 0.266663 0.048615
0.000000 0.270111 0.041748
0.000000 0.264038 0.023163
0.000000 0.266235 0.010101
0.002502 0.270020 0.008759
0.027435 0.262085 0.007385
0.074036 0.268188 0.012390
0.110168 0.265076 0.008484
0.159851 0.268127 0.015045
0.219666 0.270721 0.015778
0.314667 0.275635 0.022186
0.363678 0.269531 0.023468
0.393646 0.254028 0.026031
0.433350 0.247955 0.030548
0.481293 0.231354 0.032501
0.537628 0.216736 0.038147
0.587921 0.199677 0.041718
0.645721 0.181763 0.045929
0.706726 0.164948 0.053802
0.768707 0.138885 0.057526
0.837067 0.102295 0.066162
0.900146 0.055389 0.075470
0.932465 0.068085 0.138794
0.931183 0.119995 0.200043
0.927063 0.119171 0.199371
0.927490 0.119965 0.197968
0.927368 0.116028 0.199585
0.927063 0.117279 0.197968
0.927277 0.117157 0.199341
0.930450 0.125580 0.203583
0.000000 0.280640 0.058441
0.000000 0.295349 0.064819
0.000000 0.301788 0.072998
0.000000 0.302673 0.068665
0.000000 0.298615 0.058533
0.000000 0.297607 0.048065
0.000000 0.299805 0.035095
0.000000 0.306061 0.020813
0.005188 0.298157 0.018341
0.049133 0.304321 0.021881
0.092407 0.299347 0.018341
0.141022 0.304321 0.024353
0.189423 0.303589 0.022278
0.253693 0.309448 0.027679
0.357758 0.310486 0.031799
0.408234 0.308044 0.039978
0.439545 0.296875 0.042023
0.483856 0.277008 0.041901
0.536743 0.267487 0.048828
0.591187 0.251160 0.052582
0.647949 0.233856 0.054504
0.706482 0.210571 0.060364
0.770752 0.193268 0.066284
0.837280 0.166473 0.069977
0.901306 0.124023 0.070740
0.931946 0.062592 0.080414
0.929596 0.130463 0.172028
0.927063 0.135376 0.173950
0.927490 0.137238 0.172241
0.925903 0.133759 0.175385
0.927063 0.130005 0.175385
0.927277 0.133759 0.175140
0.930450 0.139465 0.176544
0.000000 0.315521 0.079987
0.000000 0.331329 0.082001
0.000000 0.337646 0.085815
0.000000 0.341400 0.087372
0.000000 0.336914 0.078400
0.000000 0.331329 0.068024
0.000000 0.338409 0.063629
0.000000 0.338531 0.047028
0.000000 0.336426 0.033234
0.032684 0.343262 0.034790
0.078430 0.337402 0.031464
0.117981 0.343994 0.035522
0.167114 0.346436 0.039703
0.212830 0.346191 0.041260
0.294373 0.351379 0.045288
0.400726 0.353424 0.051117
0.454712 0.348816 0.056183
0.485382 0.329498 0.055908
0.535187 0.319763 0.058167
0.592804 0.304657 0.063354
0.647858 0.286804 0.064545
0.709625 0.265839 0.068939
0.772675 0.251587 0.073059
0.835968 0.222534 0.075348
0.899506 0.196228 0.075470
0.932251 0.150360 0.075562
0.931396 0.154449 0.138977
0.928131 0.168365 0.144531
0.927063 0.164398 0.142456
0.927063 0.159546 0.141998
0.927490 0.164368 0.145966
0.927063 0.162659 0.142120
0.930450 0.168152 0.145752
0.000000 0.358398 0.097870
0.000000 0.368347 0.105225
0.000000 0.370026 0.103394
0.000000 0.375854 0.107147
0.000000 0.377716 0.102936
0.000000 0.370270 0.091736
0.000000 0.370270 0.085724
0.000000 0.379303 0.076874
0.000000 0.375214 0.058777
0.007355 0.377075 0.048615
0.044525 0.377655 0.048248
0.097137 0.383423 0.051758
0.144501 0.386108 0.054199
0.190491 0.383789 0.052338
0.246307 0.382660 0.052582
0.329315 0.392151 0.059814
0.440857 0.393982 0.065094
0.499176 0.384003 0.068726
0.528351 0.367096 0.067230
0.590820 0.361145 0.074707
0.646454 0.345062 0.075684
0.711182 0.328766 0.080353
0.774597 0.306030 0.081451
0.840240 0.283905 0.081451
0.900879 0.258636 0.082367
0.930450 0.228485 0.083588
0.930450 0.235535 0.154816
0.928772 0.244476 0.164001
0.928772 0.237823 0.158752
0.928772 0.239258 0.160675
0.930237 0.242767 0.164459
0.928864 0.243896 0.163574
0.935547 0.249664 0.170685
0.000000 0.391541 0.115936
0.000000 0.403046 0.119354
0.000000 0.401550 0.119476
0.002228 0.408936 0.124146
0.002228 0.406006 0.119568
0.000000 0.402496 0.109833
0.000000 0.407104 0.109009
0.000000 0.406738 0.095367
0.000000 0.413269 0.089355
0.000000 0.410919 0.069611
0.022095 0.416229 0.064270
0.073090 0.417816 0.063843
0.121216 0.422272 0.066345
0.168152 0.420135 0.064178
0.219421 0.423248 0.067108
0.280853 0.424957 0.068848
0.374115 0.432739 0.072449
0.487030 0.432617 0.077637
0.545593 0.423645 0.081329
0.586060 0.416229 0.085266
0.644623 0.402802 0.085052
0.701935 0.379944 0.082855
0.770142 0.365814 0.085876
0.837708 0.343872 0.087952
0.901733 0.325592 0.090454
0.930664 0.300232 0.090149
0.926117 0.318237 0.182007
0.926544 0.317169 0.180725
0.923706 0.313690 0.180054
0.925812 0.314575 0.183624
0.925079 0.311218 0.181061
0.925598 0.313843 0.183289
0.928864 0.319611 0.188812
0.002655 0.436707 0.138031
0.002502 0.443970 0.137268
0.006409 0.449524 0.142365
0.006439 0.447571 0.142395
0.005859 0.446350 0.135742
0.000732 0.441498 0.131470
0.000000 0.449036 0.128754
0.000000 0.448425 0.120392
0.000000 0.448059 0.111816
0.000000 0.454193 0.096832
0.000000 0.458160 0.082245
0.029449 0.461578 0.075653
0.091339 0.463318 0.076324
0.143097 0.462708 0.078186
0.195160 0.465546 0.079315
0.254944 0.469513 0.081573
0.308289 0.471466 0.082794
0.401520 0.477905 0.088715
0.535431 0.483093 0.092133
0.600800 0.472107 0.095978
0.636383 0.458160 0.093719
0.697388 0.442505 0.095276
0.769379 0.432251 0.095276
0.840637 0.416016 0.097931
0.903839 0.394501 0.096527
0.926331 0.370697 0.097473
0.925598 0.389313 0.200470
0.923187 0.387085 0.200836
0.922638 0.380432 0.194550
0.923706 0.391022 0.202545
0.923706 0.381897 0.199341
0.923706 0.386658 0.201996
0.925598 0.393524 0.206146
0.006317 0.487732 0.156250
0.010468 0.488617 0.158569
0.007660 0.487518 0.154236
0.014526 0.495239 0.161346
0.011475 0.496368 0.157440
0.006317 0.494049 0.154907
0.008270 0.492432 0.149597
0.002808 0.496368 0.146759
0.003510 0.496948 0.138916
0.000000 0.501953 0.127625
0.000000 0.501801 0.113434
0.001190 0.504272 0.091705
0.053772 0.512146 0.091248
0.120941 0.509064 0.090668
0.170746 0.517700 0.093506
0.229126 0.517944 0.095276
0.288574 0.515381 0.093506
0.352051 0.517456 0.096710
0.455231 0.527039 0.098969
0.591187 0.537384 0.106812
0.652985 0.523346 0.104523
0.704498 0.515594 0.106567
0.769928 0.499573 0.107574
0.835632 0.484802 0.103485
0.901428 0.465912 0.102631
0.922302 0.449066 0.111267
0.923706 0.456299 0.216064
0.923706 0.454102 0.223297
0.920288 0.458130 0.221832
0.923706 0.461731 0.221100
0.921387 0.463562 0.225861
0.923706 0.458862 0.220551
0.923706 0.463318 0.225403
0.001770 0.549805 0.179688
0.011627 0.546753 0.181946
0.008240 0.546875 0.183350
0.012970 0.551270 0.186676
0.011627 0.549805 0.183807
0.004730 0.547607 0.176331
0.006744 0.549072 0.176300
0.008118 0.552155 0.173950
0.002960 0.551270 0.162445
0.001343 0.552399 0.156433
0.000000 0.556244 0.146759
0.000000 0.560120 0.126587
0.001190 0.562622 0.106171
0.059479 0.560272 0.100708
0.132141 0.568756 0.099915
0.195923 0.571686 0.104706
0.259735 0.575867 0.106689
0.328339 0.577332 0.107635
0.401154 0.577576 0.106903
0.514832 0.588013 0.114746
0.648956 0.590576 0.115265
0.724762 0.588989 0.117310
0.776276 0.571442 0.118774
0.834229 0.558441 0.111633
0.902161 0.544891 0.112579
0.922638 0.522247 0.125061
0.922852 0.534546 0.241974
0.926331 0.539093 0.250580
0.922852 0.536987 0.248535
0.924011 0.538727 0.247833
0.926849 0.539703 0.250824
0.924957 0.539581 0.250946
0.930450 0.544922 0.254456
0.000000 0.616974 0.207214
0.005676 0.620880 0.207306
0.005676 0.616974 0.208649
0.004883 0.619171 0.207214
0.000000 0.615356 0.204590
0.000000 0.615021 0.203522
0.000000 0.614258 0.199890
0.000000 0.615631 0.196686
0.001190 0.614258 0.189880
0.000000 0.616730 0.184692
0.000000 0.616852 0.174164
0.000000 0.615601 0.161163
0.000000 0.623688 0.141541
0.001190 0.623474 0.110199
0.075714 0.624329 0.110199
0.161957 0.628143 0.114838
0.227966 0.627991 0.114319
0.286469 0.636566 0.114380
0.367401 0.635223 0.115723
0.446014 0.641663 0.119507
0.567535 0.650177 0.123474
0.708557 0.653442 0.123352
0.789337 0.648468 0.124573
0.834656 0.635468 0.119965
0.898956 0.624939 0.115509
0.924133 0.610992 0.133179
0.924225 0.620148 0.272003
0.924225 0.614258 0.270721
0.926636 0.617828 0.273834
0.920929 0.615112 0.268127
0.925690 0.619293 0.272339
0.922638 0.611938 0.269043
0.928223 0.619659 0.275085
0.000000 0.686340 0.228760
0.000000 0.687531 0.232361
0.000000 0.687531 0.233734
0.000000 0.687531 0.232025
0.000000 0.684113 0.226227
0.000000 0.683624 0.223145
0.000000 0.683624 0.223877
0.000000 0.686676 0.220886
0.000000 0.682404 0.213959
0.000000 0.683624 0.212616
0.000000 0.684845 0.203003
0.000000 0.688873 0.193512
0.000000 0.691895 0.179535
0.000000 0.689117 0.152191
0.002167 0.691437 0.118835
0.105682 0.697968 0.119751
0.181061 0.697968 0.120880
0.261566 0.700378 0.120880
0.334473 0.703094 0.120880
0.412109 0.709656 0.125427
0.504150 0.711151 0.126862
0.627808 0.717712 0.125763
0.773193 0.716034 0.124451
0.851471 0.713593 0.121307
0.899811 0.706512 0.114502
0.923706 0.696014 0.134064
0.924561 0.696747 0.286591
0.924744 0.695068 0.293823
0.927063 0.704315 0.296936
0.924347 0.696014 0.292816
0.926025 0.699188 0.295563
0.925812 0.696289 0.294403
0.925812 0.700378 0.294403
0.000000 0.767334 0.250244
0.000000 0.774597 0.253998
0.000000 0.774109 0.256470
0.000000 0.773529 0.256134
0.000000 0.761902 0.251373
0.000000 0.764587 0.248230
0.000000 0.761047 0.245361
0.000000 0.764313 0.244812
0.000000 0.760559 0.238647
0.000000 0.763489 0.235687
0.000000 0.775055 0.229034
0.000000 0.770233 0.222260
0.000000 0.770874 0.209290
0.000000 0.771698 0.189301
0.000000 0.770142 0.157288
0.000000 0.774963 0.121429
0.105927 0.777863 0.120514
0.221863 0.779327 0.120056
0.301422 0.782837 0.117737
0.381927 0.786011 0.118713
0.471771 0.788391 0.121307
0.562622 0.788635 0.118713
0.699524 0.799011 0.119324
0.844086 0.794464 0.113037
0.917480 0.803375 0.109558
0.927795 0.789825 0.135864
0.932892 0.784180 0.319031
0.928009 0.787903 0.328583
0.928558 0.790192 0.332306
0.928009 0.778961 0.322662
0.928528 0.785400 0.325073
0.928009 0.787292 0.327972
0.932892 0.791199 0.330566
0.000000 0.865173 0.275452
0.000000 0.856628 0.277252
0.000000 0.856537 0.277466
0.000000 0.854950 0.274872
0.000000 0.856506 0.274078
0.000000 0.854462 0.273590
0.000000 0.863739 0.272705
0.000000 0.858795 0.269928
0.000000 0.857452 0.265411
0.000000 0.859406 0.262756
0.000000 0.854340 0.254669
0.000000 0.858459 0.249695
0.000000 0.855560 0.237152
0.000000 0.861572 0.224884
0.000000 0.861328 0.198639
0.000000 0.862305 0.160950
0.000000 0.873840 0.108948
0.117096 0.869751 0.108063
0.256927 0.870941 0.105316
0.353729 0.871887 0.106232
0.439270 0.871887 0.105316
0.538452 0.875275 0.100800
0.640503 0.884186 0.099670
0.782135 0.882721 0.095062
0.917786 0.883453 0.098816
0.935364 0.870697 0.151031
0.940643 0.870941 0.393982
0.934723 0.869629 0.398193
0.937653 0.873352 0.399017
0.934723 0.868439 0.399536
0.936584 0.865906 0.395996
0.936493 0.871185 0.400482
0.941498 0.878632 0.412476
0.000000 0.943268 0.306763
0.000000 0.942413 0.314362
0.000000 0.939667 0.309509
0.000000 0.944702 0.307892
0.000000 0.939423 0.305573
0.000000 0.938812 0.303375
0.000000 0.941833 0.305267
0.000000 0.942902 0.300659
0.000000 0.941589 0.297028
0.000000 0.945435 0.298065
0.000000 0.937988 0.288239
0.000000 0.938599 0.280792
0.000000 0.943024 0.277008
0.000000 0.940277 0.260742
0.000000 0.939911 0.240570
0.000000 0.942200 0.212219
0.000000 0.950378 0.167419
0.000000 0.942535 0.088593
0.162109 0.943268 0.088501
0.303070 0.949280 0.091278
0.412506 0.952637 0.092834
0.514557 0.951447 0.094269
0.623962 0.950378 0.094604
0.729248 0.950378 0.095276
0.871521 0.954956 0.102417
0.955780 0.950134 0.167847
0.957184 0.943512 0.549957
0.955780 0.940277 0.555878
0.956848 0.941956 0.556366
0.955780 0.940277 0.556641
0.956299 0.941742 0.558044
0.958588 0.941833 0.561249
0.956512 0.944977 0.560303
0.000000 0.960602 0.328186
0.000000 0.959869 0.330536
0.000000 0.956726 0.330536
0.000000 0.956726 0.327820
0.000000 0.956726 0.324799
0.000000 0.954224 0.323761
0.000000 0.954346 0.321564
0.000000 0.953613 0.317291
0.000000 0.953613 0.316711
0.000000 0.955658 0.315125
0.000000 0.953613 0.310364
0.000000 0.954346 0.302124
0.000000 0.954346 0.298706
0.000000 0.954346 0.283600
0.000000 0.952881 0.271057
0.000000 0.953613 0.248871
0.000000 0.956268 0.229614
0.015045 0.950867 0.201385
0.195435 0.953613 0.188416
0.311188 0.955902 0.195770
0.427185 0.958435 0.207062
0.535309 0.958679 0.248291
