Color-Correction/LUTs/GH5/Basic/IWLTBAP/U-PANASONIC-V-LOG-V8-LTR.cube
# Copyright: (C) Copyright 2010-2018 by IWLTBAP SAS
# Cannot be resold, shared or otherwise redistributed
# Website: https://luts.iwltbap.com
TITLE "Panasonic V-Log Version 8 (Utility LOG to Rec.709)"
LUT_3D_SIZE 9
0.038574 0.038574 0.038574
0.116699 0.043549 0.046356
0.232971 0.043884 0.055939
0.422607 0.026825 0.070770
0.636047 0.000000 0.091705
0.847382 0.000000 0.116119
1.000000 0.000000 0.141571
1.000000 0.000000 0.158203
1.000000 0.000000 0.168610
0.020142 0.109344 0.037933
0.101593 0.108032 0.038605
0.224762 0.115906 0.046997
0.418365 0.115326 0.061188
0.633331 0.098053 0.082642
0.845215 0.052612 0.107422
1.000000 0.000000 0.133453
1.000000 0.016235 0.149384
1.000000 0.017548 0.158875
0.000000 0.217804 0.019836
0.051880 0.217072 0.020630
0.201569 0.215179 0.022736
0.406128 0.229309 0.032440
0.625336 0.239471 0.051544
0.839172 0.244019 0.078094
1.000000 0.248260 0.104706
1.000000 0.267120 0.119476
1.000000 0.298096 0.124939
0.000000 0.396545 0.000000
0.000000 0.396149 0.000000
0.099823 0.395111 0.000000
0.368317 0.391937 0.000000
0.602631 0.413849 0.000000
0.822784 0.432739 0.002197
1.000000 0.451080 0.008606
1.000000 0.474518 0.015717
1.000000 0.504089 0.013367
0.000000 0.598450 0.000000
0.000000 0.598206 0.000000
0.000000 0.597473 0.000000
0.298553 0.595520 0.000000
0.557617 0.591827 0.000000
0.792969 0.614594 0.000000
0.984619 0.636322 0.000000
1.000000 0.661591 0.000000
1.000000 0.689728 0.000000
0.000000 0.798523 0.000000
0.000000 0.798370 0.000000
0.000000 0.797791 0.000000
0.100067 0.796295 0.000000
0.503021 0.793762 0.000000
0.745422 0.789917 0.000000
0.953400 0.812805 0.000000
1.000000 0.837830 0.000000
1.000000 0.864288 0.000000
0.000000 0.972839 0.000000
0.000000 0.972687 0.000000
0.000000 0.972321 0.000000
0.000000 0.971405 0.000000
0.406067 0.969696 0.000000
0.708679 0.966736 0.000000
0.909912 0.963226 0.000000
1.000000 0.978760 0.000000
1.000000 0.991821 0.000000
0.000000 1.000000 0.000000
0.000000 1.000000 0.000000
0.000000 1.000000 0.000000
0.000000 1.000000 0.000000
0.361420 1.000000 0.000000
0.700623 1.000000 0.000000
0.899170 1.000000 0.000000
0.994019 1.000000 0.000000
1.000000 1.000000 0.000000
0.000000 1.000000 0.000000
0.000000 1.000000 0.000000
0.000000 1.000000 0.000000
0.000000 1.000000 0.000000
0.390778 1.000000 0.000000
0.724945 1.000000 0.000000
0.909668 1.000000 0.000000
0.994019 1.000000 0.000000
1.000000 1.000000 0.000000
0.040344 0.029816 0.102692
0.113678 0.027710 0.103119
0.231293 0.025391 0.115692
0.421753 0.008301 0.131744
0.635529 0.000000 0.151672
0.846924 0.000000 0.175873
1.000000 0.000000 0.200043
1.000000 0.000000 0.220886
1.000000 0.000000 0.237335
0.014893 0.099548 0.097687
0.109253 0.109253 0.109253
0.244141 0.116608 0.122498
0.447113 0.113708 0.138947
0.662537 0.094360 0.160217
0.873627 0.043030 0.183929
1.000000 0.015320 0.209381
1.000000 0.000000 0.229218
1.000000 0.025299 0.246490
0.000000 0.212280 0.092957
0.050018 0.231842 0.103790
0.218842 0.229675 0.105438
0.433563 0.245636 0.120544
0.653595 0.256165 0.141449
0.866547 0.263947 0.164276
1.000000 0.271088 0.189514
1.000000 0.291992 0.208069
1.000000 0.323608 0.223846
0.000000 0.393677 0.034821
0.000000 0.421600 0.039978
0.117065 0.420319 0.042603
0.394043 0.417084 0.049866
0.629364 0.438782 0.074860
0.849243 0.457947 0.103180
1.000000 0.476532 0.133636
1.000000 0.501129 0.153961
1.000000 0.529938 0.170013
0.000000 0.596619 0.000000
0.000000 0.624695 0.000000
0.000000 0.623901 0.000000
0.326294 0.621765 0.000000
0.583771 0.618042 0.000000
0.818604 0.640686 0.000000
0.992340 0.662689 0.010071
1.000000 0.688049 0.011719
1.000000 0.716248 0.022644
0.000000 0.797089 0.000000
0.000000 0.824310 0.000000
0.000000 0.823669 0.000000
0.108154 0.822144 0.000000
0.530853 0.819519 0.000000
0.770844 0.815674 0.000000
0.967346 0.838593 0.000000
1.000000 0.862762 0.000000
1.000000 0.888672 0.000000
0.000000 0.971832 0.000000
0.000000 0.988342 0.000000
0.000000 0.988190 0.000000
0.000000 0.987610 0.000000
0.451782 0.985687 0.000000
0.739471 0.982635 0.000000
0.926117 0.979340 0.000000
1.000000 0.990967 0.000000
1.000000 0.995605 0.000000
0.000000 1.000000 0.000000
0.000000 1.000000 0.000000
0.000000 1.000000 0.000000
0.000000 1.000000 0.000000
0.420593 1.000000 0.000000
0.736237 1.000000 0.000000
0.917938 1.000000 0.000000
1.000000 1.000000 0.000000
1.000000 1.000000 0.000000
0.000000 1.000000 0.000000
0.000000 1.000000 0.000000
0.000000 1.000000 0.000000
0.000000 1.000000 0.000000
0.467560 1.000000 0.000000
0.763702 1.000000 0.000000
0.927185 1.000000 0.000000
0.996765 1.000000 0.000000
1.000000 1.000000 0.000000
0.030273 0.000000 0.203857
0.116455 0.000000 0.204071
0.226837 0.000000 0.204742
0.419281 0.000000 0.226654
0.633820 0.000000 0.252502
0.845642 0.000000 0.280304
1.000000 0.000000 0.311005
1.000000 0.000000 0.338135
1.000000 0.000000 0.363892
0.004974 0.075745 0.200958
0.109558 0.081909 0.220734
0.239136 0.075195 0.221436
0.444366 0.058777 0.245544
0.660645 0.028595 0.271667
0.872162 0.000000 0.301727
1.000000 0.000000 0.331360
1.000000 0.000000 0.359253
1.000000 0.000000 0.384735
0.000000 0.197174 0.193207
0.034241 0.215454 0.212372
0.234314 0.234314 0.234314
0.458801 0.248474 0.258240
0.679962 0.259430 0.286224
0.892609 0.265106 0.315430
1.000000 0.272827 0.345306
1.000000 0.294861 0.372101
1.000000 0.325806 0.397003
0.000000 0.385468 0.184235
0.000000 0.412476 0.205109
0.129547 0.438538 0.227325
0.417236 0.435028 0.230072
0.654572 0.455627 0.258575
0.874146 0.473480 0.288818
1.000000 0.491791 0.319397
1.000000 0.515594 0.346710
1.000000 0.543732 0.371857
0.000000 0.591187 0.132172
0.000000 0.618652 0.161774
0.000000 0.645294 0.190643
0.350891 0.643097 0.194580
0.608215 0.639282 0.200867
0.842804 0.660858 0.236603
1.000000 0.682343 0.271423
1.000000 0.707245 0.301178
1.000000 0.734253 0.328705
0.000000 0.792999 0.010651
0.000000 0.819519 0.048920
0.000000 0.845551 0.090179
0.150085 0.843872 0.097351
0.555725 0.841156 0.107849
0.794769 0.837280 0.121918
0.978546 0.858826 0.178101
1.000000 0.882324 0.220215
1.000000 0.904907 0.257660
0.000000 0.968597 0.000000
0.000000 0.985413 0.000000
0.000000 0.996918 0.034088
0.000000 0.995636 0.036591
0.487946 0.993774 0.041656
0.766998 0.991180 0.047668
0.939789 0.988495 0.051514
1.000000 0.993927 0.110657
1.000000 1.000000 0.167328
0.000000 1.000000 0.000000
0.000000 1.000000 0.000000
0.000000 1.000000 0.000000
0.000000 1.000000 0.000000
0.480804 1.000000 0.000000
0.770264 1.000000 0.004517
0.932068 1.000000 0.016052
0.999603 1.000000 0.026825
1.000000 1.000000 0.074768
0.000000 1.000000 0.000000
0.000000 1.000000 0.000000
0.000000 1.000000 0.043945
0.000000 1.000000 0.044708
0.517700 1.000000 0.046356
0.795410 1.000000 0.048248
0.942017 1.000000 0.049347
1.000000 1.000000 0.049896
1.000000 1.000000 0.050079
0.000000 0.000000 0.372437
0.093994 0.000000 0.372528
0.233002 0.000000 0.372925
0.412079 0.000000 0.373993
0.629303 0.000000 0.403168
0.842346 0.000000 0.433258
1.000000 0.000000 0.463928
1.000000 0.000000 0.492554
1.000000 0.000000 0.519745
0.000000 0.000000 0.370911
0.076477 0.000000 0.397949
0.246307 0.000000 0.398407
0.436798 0.000000 0.399536
0.655792 0.000000 0.428558
0.868622 0.000000 0.458649
1.000000 0.000000 0.488678
1.000000 0.000000 0.516937
1.000000 0.000000 0.543640
0.000000 0.154083 0.366547
0.002777 0.173279 0.393188
0.236786 0.191315 0.420258
0.450592 0.180084 0.421417
0.674835 0.184631 0.450073
0.888824 0.184814 0.479553
1.000000 0.182343 0.508575
1.000000 0.208252 0.535828
1.000000 0.248047 0.561951
0.000000 0.360779 0.353851
0.000000 0.386688 0.379974
0.071320 0.411591 0.406525
0.434052 0.434052 0.434052
0.675720 0.453339 0.462341
0.895660 0.470215 0.491486
1.000000 0.488495 0.520111
1.000000 0.512726 0.546967
1.000000 0.540619 0.572723
0.000000 0.575989 0.352753
0.000000 0.602509 0.379364
0.000000 0.628387 0.406799
0.365143 0.652466 0.434662
0.628265 0.648438 0.437012
0.863129 0.669067 0.466858
1.000000 0.690338 0.495850
1.000000 0.714508 0.523163
1.000000 0.741364 0.549164
0.000000 0.781952 0.333801
0.000000 0.807922 0.363739
0.000000 0.833099 0.392456
0.141663 0.856445 0.423065
0.575806 0.853546 0.425659
0.814850 0.849609 0.429199
0.984131 0.870331 0.460022
1.000000 0.890961 0.489532
1.000000 0.911011 0.517822
0.000000 0.959686 0.304077
0.000000 0.975739 0.339874
0.000000 0.987732 0.377960
0.000000 0.993896 0.414612
0.522675 0.992889 0.417450
0.792114 0.991760 0.421295
0.948425 0.990570 0.424652
1.000000 0.998840 0.459564
1.000000 0.999146 0.492920
0.000000 1.000000 0.299530
0.000000 1.000000 0.347931
0.000000 1.000000 0.390076
0.000000 1.000000 0.432190
0.519409 1.000000 0.435059
0.796478 1.000000 0.438782
0.942841 1.000000 0.441711
1.000000 1.000000 0.443268
1.000000 1.000000 0.480347
0.000000 1.000000 0.336273
0.000000 1.000000 0.381073
0.000000 1.000000 0.425049
0.050690 1.000000 0.466675
0.564209 1.000000 0.469421
0.820465 1.000000 0.472717
0.950500 1.000000 0.475159
0.999756 1.000000 0.476257
1.000000 1.000000 0.476654
0.000000 0.000000 0.563507
0.013519 0.000000 0.563568
0.224426 0.000000 0.563873
0.426727 0.000000 0.564545
0.620880 0.000000 0.565796
0.836487 0.000000 0.595093
1.000000 0.000000 0.624390
1.000000 0.000000 0.652679
1.000000 0.000000 0.679688
0.000000 0.000000 0.562531
0.004730 0.000000 0.589661
0.237885 0.000000 0.589966
0.451050 0.000000 0.590698
0.647186 0.000000 0.591949
0.862610 0.000000 0.621124
1.000000 0.000000 0.650085
1.000000 0.000000 0.677917
1.000000 0.000000 0.704590
0.000000 0.000000 0.559631
0.000000 0.006042 0.586456
0.223969 0.045685 0.613495
0.462646 0.034241 0.614288
0.665924 0.004059 0.615601
0.882629 0.000000 0.644135
1.000000 0.017670 0.672424
1.000000 0.001343 0.699432
1.000000 0.040497 0.725342
0.000000 0.330139 0.551666
0.000000 0.357086 0.577972
0.067169 0.383118 0.604645
0.442902 0.405304 0.631683
0.666199 0.396912 0.632996
0.889038 0.413452 0.661133
1.000000 0.430817 0.688812
1.000000 0.456299 0.714966
1.000000 0.485352 0.740631
0.000000 0.546631 0.536591
0.000000 0.572754 0.562775
0.000000 0.598328 0.589325
0.339722 0.621979 0.616272
0.643768 0.643768 0.643768
0.879913 0.663696 0.671692
1.000000 0.684814 0.698853
1.000000 0.709656 0.724884
1.000000 0.735748 0.749939
0.000000 0.762085 0.538513
0.000000 0.787476 0.565155
0.000000 0.812256 0.591980
0.112671 0.835022 0.619354
0.591278 0.855927 0.647461
0.831238 0.851776 0.649445
0.986664 0.869812 0.677460
1.000000 0.888092 0.704712
1.000000 0.905640 0.730804
0.000000 0.944183 0.535156
0.000000 0.959534 0.564850
0.000000 0.972900 0.594482
0.000000 0.982574 0.625275
0.546265 0.989502 0.655670
0.810303 0.986481 0.657684
0.953491 0.984039 0.659332
1.000000 0.990326 0.689331
1.000000 0.996735 0.717407
0.000000 1.000000 0.546967
0.000000 1.000000 0.579224
0.000000 1.000000 0.612457
0.000000 1.000000 0.644440
0.557953 1.000000 0.677826
0.816772 1.000000 0.679718
0.947571 1.000000 0.681152
0.998627 1.000000 0.681824
1.000000 1.000000 0.711517
0.000000 1.000000 0.573547
0.000000 1.000000 0.607910
0.000000 1.000000 0.640594
0.032928 1.000000 0.674011
0.597076 1.000000 0.706268
0.839081 1.000000 0.708099
0.955505 1.000000 0.709290
0.999054 1.000000 0.709808
1.000000 1.000000 0.709991
0.000000 0.000000 0.753113
0.000000 0.000000 0.753174
0.194061 0.000000 0.753326
0.433533 0.000000 0.753845
0.637299 0.000000 0.754730
0.827637 0.000000 0.756104
1.000000 0.000000 0.784027
1.000000 0.000000 0.811127
1.000000 0.000000 0.836639
0.000000 0.000000 0.752350
0.000000 0.000000 0.778595
0.210968 0.000000 0.778778
0.458527 0.000000 0.779358
0.663452 0.000000 0.780243
0.853729 0.000000 0.781586
1.000000 0.000000 0.809235
1.000000 0.000000 0.835114
1.000000 0.000000 0.859985
0.000000 0.000000 0.750122
0.000000 0.000000 0.776031
0.187592 0.000000 0.802032
0.467438 0.000000 0.802643
0.680481 0.000000 0.803619
0.873627 0.000000 0.804901
1.000000 0.000000 0.831177
1.000000 0.000000 0.856171
1.000000 0.000000 0.878235
0.000000 0.233276 0.744263
0.000000 0.278473 0.769867
0.002930 0.306976 0.795471
0.444397 0.337341 0.820831
0.678864 0.325653 0.821747
0.879730 0.308289 0.823090
1.000000 0.327606 0.848450
1.000000 0.361633 0.870758
1.000000 0.401245 0.890564
0.000000 0.523224 0.733887
0.000000 0.550354 0.759186
0.000000 0.576263 0.784668
0.334320 0.600403 0.809692
0.654602 0.622803 0.834656
0.870148 0.616058 0.836029
1.000000 0.638458 0.858673
1.000000 0.665833 0.878754
1.000000 0.694550 0.896484
0.000000 0.731171 0.718109
0.000000 0.756500 0.743378
0.000000 0.781158 0.768829
0.049591 0.803894 0.793915
0.572693 0.824768 0.819000
0.842285 0.842285 0.842285
0.983978 0.859375 0.863434
1.000000 0.876984 0.882141
1.000000 0.893524 0.898315
0.000000 0.920898 0.724060
0.000000 0.935669 0.750916
0.000000 0.948578 0.777008
0.000000 0.957581 0.803589
0.524445 0.965057 0.828064
0.824463 0.968811 0.851196
0.953552 0.966248 0.852173
0.999908 0.972778 0.872162
1.000000 0.977753 0.889679
0.000000 1.000000 0.739349
0.000000 1.000000 0.766968
0.000000 1.000000 0.794891
0.000000 1.000000 0.820404
0.537140 1.000000 0.844391
0.832336 1.000000 0.866608
0.949982 1.000000 0.867462
0.994354 1.000000 0.867859
1.000000 1.000000 0.886169
0.000000 1.000000 0.763550
0.000000 1.000000 0.791779
0.000000 1.000000 0.817566
0.000000 1.000000 0.841675
0.578094 1.000000 0.864105
0.852570 1.000000 0.884003
0.955566 1.000000 0.884766
0.992462 1.000000 0.885040
1.000000 1.000000 0.885162
0.000000 0.000000 0.919067
0.000000 0.000000 0.919128
0.123749 0.000000 0.919312
0.437592 0.000000 0.919739
0.651245 0.000000 0.920441
0.845673 0.000000 0.921478
1.000000 0.000000 0.922668
1.000000 0.000000 0.940277
1.000000 0.000000 0.956207
0.000000 0.000000 0.918427
0.000000 0.000000 0.935272
0.169769 0.000000 0.935486
0.463776 0.000000 0.935913
0.678375 0.000000 0.936676
0.872101 0.000000 0.937714
0.999603 0.000000 0.938843
1.000000 0.000000 0.955139
1.000000 0.000000 0.968231
0.000000 0.000000 0.916412
0.000000 0.000000 0.933014
0.126862 0.000000 0.948425
0.472839 0.000000 0.948944
0.694916 0.000000 0.949738
0.890503 0.000000 0.950806
1.000000 0.000000 0.951874
1.000000 0.000000 0.965118
1.000000 0.000000 0.977142
0.000000 0.017273 0.911713
0.000000 0.115204 0.927856
0.012878 0.199615 0.942963
0.448792 0.245697 0.955841
0.693085 0.222443 0.956635
0.895752 0.180664 0.957733
1.000000 0.156952 0.958710
1.000000 0.240753 0.970795
1.000000 0.317322 0.979797
0.000000 0.483765 0.903503
0.000000 0.518494 0.919312
0.000000 0.550476 0.934052
0.329102 0.582153 0.946564
0.668549 0.609680 0.958679
0.883087 0.602509 0.959808
1.000000 0.596588 0.960724
1.000000 0.630768 0.969635
1.000000 0.664337 0.977814
0.000000 0.717621 0.891388
0.000000 0.746155 0.906921
0.000000 0.772949 0.921448
0.073883 0.798737 0.933685
0.587402 0.820251 0.945831
0.854767 0.839172 0.955688
0.977753 0.835999 0.956543
1.000000 0.856323 0.965302
1.000000 0.875641 0.971405
0.000000 0.892731 0.877045
0.000000 0.908966 0.893341
0.000000 0.923523 0.908783
0.000000 0.934631 0.922058
0.505585 0.943848 0.935181
0.816162 0.949646 0.946136
0.956451 0.956451 0.956451
0.999512 0.962585 0.963715
1.000000 0.969482 0.970673
0.000000 0.991364 0.884583
0.000000 0.996277 0.901031
0.000000 0.997589 0.915070
0.000000 0.999664 0.928894
0.521088 0.998444 0.940399
0.824890 0.996735 0.951904
0.953278 0.994965 0.960358
0.990204 0.994171 0.960602
1.000000 0.994690 0.968231
0.000000 1.000000 0.898102
0.000000 1.000000 0.912506
0.000000 1.000000 0.926575
0.000000 1.000000 0.938141
0.564697 1.000000 0.949707
0.846161 1.000000 0.958801
0.959625 1.000000 0.967133
0.989166 1.000000 0.967316
0.998352 1.000000 0.967407
0.000000 0.000000 0.998474
0.000000 0.000000 0.998505
0.144043 0.000000 0.998596
0.454620 0.000000 0.998718
0.673401 0.000000 0.999054
0.868774 0.000000 0.999481
0.998291 0.000000 0.999908
1.000000 0.000000 1.000000
1.000000 0.000000 1.000000
0.000000 0.000000 0.998230
0.000000 0.000000 1.000000
0.169342 0.000000 1.000000
0.484070 0.000000 1.000000
0.701111 0.000000 1.000000
0.894684 0.000000 1.000000
1.000000 0.000000 1.000000
1.000000 0.000000 1.000000
1.000000 0.000000 1.000000
0.000000 0.000000 0.997253
0.000000 0.000000 1.000000
0.147797 0.000000 1.000000
0.492371 0.000000 1.000000
0.717712 0.000000 1.000000
0.912598 0.000000 1.000000
1.000000 0.000000 1.000000
1.000000 0.000000 1.000000
1.000000 0.000000 1.000000
0.000000 0.009308 0.995636
0.000000 0.010071 1.000000
0.000000 0.116669 1.000000
0.469604 0.240082 1.000000
0.715179 0.226990 1.000000
0.914673 0.208588 1.000000
1.000000 0.192108 1.000000
1.000000 0.183044 1.000000
1.000000 0.261658 1.000000
0.000000 0.476410 0.989990
0.000000 0.517426 0.995636
0.000000 0.558624 0.997284
0.353455 0.592987 1.000000
0.691895 0.627502 1.000000
0.899475 0.620636 1.000000
0.999542 0.615540 1.000000
1.000000 0.613098 1.000000
1.000000 0.650635 1.000000
0.000000 0.722656 0.978973
0.000000 0.753723 0.984406
0.000000 0.784271 0.987854
0.084442 0.809998 0.991669
0.615662 0.832184 0.994110
0.871124 0.851227 0.996979
0.981689 0.848389 0.997650
1.000000 0.847137 0.998016
1.000000 0.868256 0.998444
0.000000 0.891815 0.966949
0.000000 0.909241 0.972961
0.000000 0.923370 0.977264
0.000000 0.935669 0.981842
0.549255 0.943939 0.985168
0.837006 0.951111 0.988800
0.961334 0.957123 0.990875
0.997772 0.956299 0.991119
1.000000 0.964478 0.992432
0.000000 0.976288 0.959259
0.000000 0.983093 0.966248
0.000000 0.987122 0.971405
0.000000 0.990143 0.976776
0.513214 0.990265 0.980896
0.821655 0.989532 0.985291
0.951050 0.988983 0.987976
0.990082 0.990082 0.990082
0.999603 0.990936 0.991241
0.000000 1.000000 0.963745
0.000000 1.000000 0.969147
0.000000 1.000000 0.974731
0.000000 1.000000 0.978821
0.558777 1.000000 0.983185
0.843536 0.999603 0.986420
0.957947 0.998688 0.989105
0.988403 0.998993 0.990356
0.998383 0.998901 0.990387
0.000000 0.000000 1.000000
0.000000 0.000000 1.000000
0.183197 0.000000 1.000000
0.487366 0.000000 1.000000
0.702850 0.000000 1.000000
0.896210 0.000000 1.000000
1.000000 0.000000 1.000000
1.000000 0.000000 1.000000
1.000000 0.000000 1.000000
0.000000 0.000000 1.000000
0.000000 0.000000 1.000000
0.220123 0.000000 1.000000
0.515411 0.000000 1.000000
0.731018 0.000000 1.000000
0.921722 0.000000 1.000000
1.000000 0.000000 1.000000
1.000000 0.000000 1.000000
1.000000 0.000000 1.000000
0.000000 0.000000 1.000000
0.000000 0.000000 1.000000
0.203613 0.000000 1.000000
0.523102 0.000000 1.000000
0.745880 0.000000 1.000000
0.935791 0.000000 1.000000
1.000000 0.000000 1.000000
1.000000 0.000000 1.000000
1.000000 0.000000 1.000000
0.000000 0.000000 1.000000
0.000000 0.112183 1.000000
0.037262 0.233887 1.000000
0.500702 0.310822 1.000000
0.743317 0.294159 1.000000
0.934906 0.272156 1.000000
1.000000 0.253876 1.000000
1.000000 0.244324 1.000000
1.000000 0.241394 1.000000
0.000000 0.504517 1.000000
0.000000 0.551056 1.000000
0.000000 0.590179 1.000000
0.390411 0.627869 1.000000
0.719208 0.660034 1.000000
0.916840 0.653687 1.000000
1.000000 0.649292 1.000000
1.000000 0.647400 1.000000
1.000000 0.646912 1.000000
0.000000 0.746887 1.000000
0.000000 0.779694 1.000000
0.000000 0.808044 1.000000
0.125427 0.832489 1.000000
0.648041 0.853027 1.000000
0.888153 0.869934 1.000000
0.985474 0.867401 1.000000
1.000000 0.866394 1.000000
1.000000 0.866150 1.000000
0.000000 0.903961 0.994659
0.000000 0.919800 0.994629
0.000000 0.934143 0.994904
0.014984 0.944153 0.995392
0.591766 0.952667 0.996307
0.858734 0.957428 0.997894
0.968109 0.963776 0.999054
0.997253 0.963074 0.999237
1.000000 0.962891 0.999359
0.000000 0.978394 0.988159
0.000000 0.983978 0.988922
0.000000 0.988739 0.989899
0.000000 0.990448 0.991150
0.564758 0.990936 0.992737
0.846375 0.989288 0.994995
0.960052 0.989166 0.996704
0.990601 0.989441 0.998444
0.999359 0.989197 0.998505
0.000000 1.000000 0.985779
0.000000 1.000000 0.987000
0.000000 1.000000 0.988434
0.000000 1.000000 0.989929
0.557220 1.000000 0.991852
0.842804 0.998169 0.994202
0.957458 0.997070 0.996002
0.987732 0.998260 0.998047
1.000000 1.000000 1.000000
