Color-Correction/LUTs/GH5/Basic/IWLTBAP/U-PANASONIC-V-LOG-V2-LTR.cube
# Copyright: (C) Copyright 2010-2018 by IWLTBAP SAS
# Cannot be resold, shared or otherwise redistributed
# Website: https://luts.iwltbap.com
TITLE "Panasonic V-Log Version 2 (Utility LOG to Rec.709)"
LUT_3D_SIZE 5
DOMAIN_MIN 0.000000 0.000000 0.000000
DOMAIN_MAX 0.903226 0.903226 0.903226
0.000000 0.000000 0.000000
0.145782 0.000000 0.000000
0.569031 0.000000 0.000000
0.989288 0.000000 0.000000
0.996063 0.000000 0.000000
0.000000 0.159760 0.024048
0.119354 0.115417 0.000000
0.542664 0.000000 0.000000
0.981110 0.000000 0.000000
0.996063 0.000000 0.000000
0.000000 0.622498 0.103516
0.044769 0.578186 0.075562
0.468079 0.453064 0.000000
0.939087 0.312164 0.000000
0.996063 0.261627 0.000000
0.000000 0.996063 0.192902
0.000000 0.996063 0.164948
0.384033 0.956146 0.085907
0.856964 0.829071 0.000000
0.996063 0.778687 0.000000
0.000000 0.996063 0.224884
0.000000 0.996063 0.196930
0.353943 0.996063 0.117950
0.826843 0.996063 0.029022
0.995789 0.968384 0.000000
0.000000 0.000000 0.118073
0.144684 0.000000 0.090027
0.567841 0.000000 0.011169
0.989105 0.000000 0.000000
0.996063 0.000000 0.000000
0.000000 0.162598 0.146271
0.118256 0.118256 0.118256
0.541443 0.000000 0.039215
0.985107 0.000000 0.000000
0.996063 0.000000 0.000000
0.000000 0.625427 0.225616
0.043610 0.581055 0.197632
0.466766 0.455841 0.118744
0.942230 0.314941 0.029785
0.996063 0.264404 0.000000
0.000000 0.996063 0.315063
0.000000 0.996063 0.287079
0.382904 0.974915 0.208130
0.858002 0.835632 0.119232
0.996063 0.785217 0.087311
0.000000 0.996063 0.347107
0.000000 0.996063 0.319153
0.352844 0.996063 0.240112
0.827942 0.996063 0.151276
0.996063 0.972168 0.119293
0.000000 0.006500 0.463043
0.141479 0.000000 0.435089
0.564606 0.000000 0.356079
0.988617 0.000000 0.267181
0.996063 0.000000 0.235291
0.000000 0.170441 0.491119
0.115051 0.126099 0.463165
0.538208 0.000916 0.384125
0.984619 0.000000 0.295227
0.996063 0.000000 0.263428
0.000000 0.633240 0.570648
0.040344 0.588898 0.542664
0.463654 0.463654 0.463654
0.938965 0.322754 0.374756
0.996063 0.272247 0.342896
0.000000 0.996063 0.660034
0.000000 0.996063 0.631989
0.379730 0.980988 0.552917
0.854889 0.843475 0.464142
0.996063 0.792938 0.432220
0.000000 0.996063 0.692017
0.000000 0.996063 0.664001
0.349609 0.996063 0.585022
0.824768 0.996063 0.496124
0.995911 0.979980 0.464294
0.000000 0.015320 0.851013
0.137756 0.000000 0.823029
0.560944 0.000000 0.744171
0.988068 0.000000 0.655212
0.996063 0.000000 0.623413
0.000000 0.179230 0.879242
0.111328 0.134888 0.851257
0.534546 0.009644 0.772247
0.984070 0.000000 0.683350
0.996063 0.000000 0.651581
0.000000 0.641907 0.958771
0.036743 0.597595 0.930878
0.459991 0.472321 0.851746
0.935394 0.331482 0.762787
0.996063 0.281006 0.730988
0.000000 0.996063 0.996063
0.000000 0.996063 0.993347
0.376007 0.985992 0.941315
0.851227 0.852234 0.852234
0.996063 0.801666 0.820282
0.000000 0.996063 0.996063
0.000000 0.996063 0.996063
0.345917 0.996063 0.973389
0.821106 0.996063 0.884277
0.993225 0.988770 0.852478
0.000000 0.018341 0.990570
0.136536 0.000000 0.962585
0.559601 0.000000 0.883362
0.987762 0.000000 0.794464
0.996063 0.000000 0.762695
0.000000 0.182343 0.996063
0.109955 0.138000 0.990814
0.533264 0.012726 0.911499
0.983765 0.000000 0.822662
0.996063 0.000000 0.790741
0.000000 0.645081 0.996063
0.035370 0.600739 0.996063
0.458649 0.475494 0.991180
0.933990 0.334717 0.902069
0.996063 0.284088 0.870178
0.000000 0.996063 0.996063
0.000000 0.996063 0.996063
0.374725 0.987183 0.996063
0.849884 0.855316 0.991577
0.996063 0.804901 0.959808
0.000000 0.996063 0.996063
0.000000 0.996063 0.996063
0.344635 0.996063 0.996063
0.819824 0.996063 0.996063
0.991821 0.991821 0.991821
