Color-Correction/LUTs/GH5/Basic/IWLTBAP/U-PANASONIC-V-LOG-V9-LTR.cube
# Copyright: (C) Copyright 2010-2018 by IWLTBAP SAS
# Cannot be resold, shared or otherwise redistributed
# Website: https://luts.iwltbap.com
TITLE "Panasonic V-Log Version 9 (Utility LOG to Rec.709)"
LUT_3D_SIZE 33
0.000000 0.000000 0.000000
0.002472 0.000549 0.000458
0.009155 0.001160 0.001923
0.021759 0.002563 0.004669
0.042145 0.005798 0.009094
0.069244 0.010254 0.015625
0.097076 0.015289 0.023529
0.124298 0.020905 0.032379
0.149689 0.026825 0.041229
0.173492 0.032715 0.049469
0.196716 0.038574 0.058075
0.220123 0.044189 0.066711
0.244019 0.049896 0.075226
0.268890 0.055939 0.084015
0.294586 0.062225 0.093079
0.320831 0.068634 0.102142
0.347076 0.075012 0.111267
0.372955 0.081390 0.120026
0.399750 0.088013 0.128998
0.428833 0.095154 0.138794
0.460968 0.102844 0.149750
0.496246 0.111267 0.161835
0.533325 0.120209 0.174530
0.568390 0.128906 0.186554
0.594757 0.135406 0.195831
0.606140 0.138245 0.199799
0.607086 0.138306 0.200134
0.603455 0.137482 0.198853
0.598206 0.136108 0.197021
0.592621 0.134674 0.195038
0.586914 0.133362 0.193085
0.581238 0.132019 0.191071
0.575592 0.130676 0.189056
0.000641 0.002167 0.000458
0.003113 0.002167 0.000916
0.009766 0.003143 0.002075
0.022369 0.004517 0.004669
0.042755 0.007385 0.009094
0.070038 0.011871 0.015625
0.097961 0.016937 0.023071
0.125183 0.022491 0.031616
0.150696 0.028198 0.040527
0.174652 0.033783 0.049072
0.197968 0.039612 0.057709
0.221466 0.044678 0.066101
0.245453 0.050354 0.074951
0.270325 0.056366 0.083771
0.296112 0.062622 0.092834
0.322388 0.069000 0.101929
0.348633 0.075378 0.111023
0.374512 0.081696 0.119812
0.401367 0.088318 0.128845
0.430481 0.095428 0.138794
0.462555 0.103088 0.149750
0.497894 0.111633 0.161835
0.534912 0.120575 0.174530
0.569885 0.129089 0.186554
0.596191 0.135620 0.195831
0.607452 0.138428 0.199707
0.608429 0.138702 0.200134
0.604797 0.137665 0.198730
0.599548 0.136475 0.196899
0.593994 0.134949 0.194946
0.588379 0.133545 0.192932
0.582703 0.132233 0.190979
0.576996 0.130859 0.189026
0.002197 0.007599 0.001617
0.004669 0.007599 0.002075
0.011322 0.008331 0.002899
0.023926 0.009949 0.005005
0.044220 0.012543 0.009033
0.071716 0.016327 0.014984
0.100037 0.020996 0.022156
0.127716 0.025848 0.030090
0.153442 0.031525 0.038757
0.177734 0.036560 0.047516
0.201385 0.041840 0.056030
0.225067 0.046661 0.064758
0.249268 0.052032 0.073486
0.274261 0.057617 0.082581
0.300171 0.063660 0.091736
0.326569 0.069885 0.100891
0.352905 0.076263 0.110107
0.378815 0.082703 0.119080
0.405792 0.089081 0.128265
0.434967 0.096313 0.138245
0.467072 0.103912 0.149445
0.502319 0.112366 0.161621
0.539276 0.121460 0.174347
0.574158 0.129883 0.186401
0.600372 0.136383 0.195648
0.611572 0.139191 0.199585
0.612488 0.139496 0.199921
0.608887 0.138519 0.198578
0.603760 0.137238 0.196716
0.598206 0.135956 0.194733
0.592621 0.134369 0.192749
0.587006 0.133026 0.190765
0.581329 0.131683 0.188843
0.005005 0.017944 0.004028
0.007477 0.017944 0.004303
0.014160 0.018677 0.005005
0.026733 0.020111 0.006042
0.046906 0.022614 0.009277
0.074677 0.025665 0.014160
0.103638 0.029663 0.020294
0.132294 0.033722 0.027557
0.158936 0.037689 0.035736
0.183868 0.042450 0.044342
0.208038 0.046631 0.052765
0.232117 0.050964 0.061768
0.256622 0.055664 0.070679
0.281952 0.060730 0.079803
0.308075 0.066315 0.089233
0.334778 0.071991 0.098694
0.361328 0.078217 0.108032
0.387451 0.084686 0.117340
0.414551 0.091034 0.126892
0.443848 0.097992 0.137085
0.476074 0.105774 0.148407
0.511322 0.114105 0.160858
0.548187 0.123138 0.173828
0.582855 0.131653 0.185944
0.608948 0.138092 0.195221
0.620117 0.140900 0.199188
0.621063 0.141144 0.199493
0.617432 0.140259 0.198151
0.612335 0.138916 0.196259
0.606903 0.137634 0.194244
0.601440 0.136322 0.192261
0.595856 0.134827 0.190247
0.590332 0.133453 0.188324
0.009521 0.035278 0.008392
0.011993 0.035309 0.008392
0.018646 0.036011 0.008667
0.031219 0.037415 0.009247
0.051056 0.039276 0.010254
0.079376 0.041779 0.013519
0.109436 0.045074 0.018036
0.139465 0.048157 0.023865
0.167664 0.050873 0.031067
0.194244 0.053528 0.039215
0.219360 0.056152 0.047455
0.244141 0.059509 0.056396
0.269226 0.062897 0.065491
0.294952 0.066742 0.074829
0.321503 0.071411 0.084473
0.348602 0.076752 0.094330
0.375671 0.082245 0.104370
0.402344 0.088165 0.113983
0.429810 0.094696 0.124054
0.459320 0.101471 0.134705
0.491730 0.109100 0.146332
0.527100 0.117584 0.159119
0.563904 0.126373 0.172394
0.598358 0.134888 0.184845
0.624207 0.141174 0.194336
0.635315 0.144104 0.198242
0.636230 0.144226 0.198517
0.632751 0.143402 0.197235
0.627747 0.142120 0.195404
0.622345 0.140717 0.193329
0.616943 0.139465 0.191193
0.611542 0.138184 0.189178
0.606201 0.136871 0.187134
0.017609 0.060364 0.014954
0.020111 0.060730 0.014954
0.026337 0.061584 0.014313
0.038422 0.062958 0.013580
0.057892 0.064789 0.012970
0.086334 0.067291 0.012970
0.118134 0.069824 0.015381
0.150299 0.071808 0.019104
0.180908 0.073242 0.024567
0.209778 0.074371 0.031830
0.237030 0.075104 0.039520
0.263000 0.075623 0.048279
0.288635 0.077271 0.056946
0.315002 0.079376 0.066437
0.342194 0.082275 0.076355
0.369934 0.086182 0.086517
0.397705 0.090881 0.097046
0.425201 0.095978 0.107574
0.453430 0.101715 0.118530
0.483582 0.108276 0.129761
0.516449 0.115387 0.142029
0.552124 0.123596 0.155457
0.589050 0.132294 0.169434
0.623535 0.140503 0.182373
0.649231 0.146729 0.192108
0.660156 0.149536 0.196198
0.661102 0.149658 0.196472
0.657684 0.148712 0.195068
0.652802 0.147552 0.193085
0.647552 0.146301 0.191010
0.642212 0.145020 0.188904
0.636932 0.143646 0.186737
0.631653 0.142395 0.184662
0.026978 0.089111 0.022858
0.028900 0.089630 0.022430
0.034698 0.090698 0.021484
0.045715 0.092468 0.019653
0.064758 0.094757 0.017365
0.093475 0.098022 0.014862
0.127075 0.101013 0.013519
0.161774 0.102844 0.015411
0.195404 0.103577 0.019043
0.227112 0.103516 0.024750
0.256775 0.102600 0.031586
0.284515 0.100891 0.039459
0.311310 0.099091 0.047546
0.338165 0.098694 0.056274
0.365906 0.099365 0.066223
0.394348 0.101166 0.076691
0.422852 0.104187 0.087555
0.451141 0.108276 0.098602
0.480377 0.112915 0.110138
0.511597 0.118317 0.122498
0.545380 0.125183 0.135681
0.581665 0.132568 0.149841
0.619049 0.140747 0.164520
0.653717 0.148499 0.178131
0.679413 0.154449 0.188324
0.690277 0.156982 0.192474
0.691162 0.157257 0.192810
0.687805 0.156525 0.191345
0.682892 0.155396 0.189301
0.677734 0.154144 0.187073
0.672485 0.152924 0.184906
0.667236 0.151672 0.182648
0.661957 0.150482 0.180420
0.036713 0.117706 0.031342
0.038483 0.118256 0.030884
0.043091 0.119690 0.029388
0.053345 0.121948 0.026855
0.071472 0.125183 0.023224
0.099548 0.129913 0.018768
0.133942 0.134338 0.015198
0.171539 0.137573 0.013855
0.208649 0.138672 0.015533
0.243896 0.138336 0.019409
0.276672 0.136566 0.024963
0.306793 0.133179 0.031555
0.335114 0.129272 0.038635
0.362854 0.125549 0.046417
0.390991 0.123230 0.055298
0.419861 0.122681 0.065643
0.448883 0.123505 0.076538
0.477844 0.125763 0.087738
0.507935 0.129028 0.099792
0.540131 0.133331 0.112946
0.575073 0.138641 0.127075
0.612488 0.145386 0.142181
0.650665 0.152557 0.157715
0.685699 0.159607 0.172180
0.711487 0.165070 0.182892
0.722443 0.167358 0.187286
0.723297 0.167633 0.187500
0.719818 0.166992 0.185944
0.714935 0.166046 0.183777
0.709717 0.165070 0.181488
0.704498 0.163879 0.179199
0.699188 0.162781 0.176849
0.693878 0.161743 0.174469
0.045868 0.145142 0.040131
0.047516 0.145844 0.039520
0.051849 0.147522 0.037933
0.060791 0.150574 0.034851
0.077667 0.154846 0.030212
0.104584 0.161346 0.024261
0.139008 0.167786 0.019257
0.177765 0.173065 0.015930
0.218872 0.176392 0.014801
0.258270 0.176910 0.016479
0.294922 0.175415 0.020477
0.328369 0.171478 0.025482
0.358978 0.166229 0.031433
0.388123 0.160400 0.038086
0.416931 0.154999 0.045929
0.445953 0.151306 0.054840
0.475189 0.149628 0.065277
0.504364 0.149536 0.076233
0.534943 0.150940 0.088348
0.567902 0.153656 0.101929
0.603729 0.157593 0.116882
0.642303 0.162659 0.132843
0.681641 0.168671 0.149292
0.717255 0.174805 0.164673
0.743347 0.179474 0.175995
0.754364 0.181549 0.180634
0.755219 0.181793 0.180847
0.751709 0.181244 0.179138
0.746674 0.180420 0.176819
0.741333 0.179535 0.174377
0.735962 0.178802 0.171967
0.730560 0.177856 0.169495
0.725159 0.177094 0.166992
0.054810 0.171539 0.048889
0.056366 0.172363 0.048096
0.060303 0.174316 0.046326
0.068481 0.177887 0.043152
0.083313 0.183472 0.037933
0.108734 0.191437 0.031036
0.142395 0.199829 0.024963
0.181671 0.207428 0.020508
0.224518 0.213318 0.017731
0.268799 0.216705 0.016663
0.310120 0.216705 0.018372
0.347870 0.213745 0.021912
0.381989 0.208466 0.026550
0.413544 0.201691 0.032104
0.443634 0.194427 0.038818
0.472992 0.187805 0.046875
0.502014 0.183014 0.055420
0.531036 0.180420 0.065613
0.561615 0.179565 0.077209
0.594727 0.180328 0.090698
0.631226 0.182526 0.106018
0.670502 0.185974 0.122650
0.710571 0.190430 0.139893
0.747101 0.195038 0.156158
0.773560 0.198853 0.168091
0.784607 0.200592 0.173004
0.785431 0.200806 0.173218
0.781860 0.200409 0.171417
0.776764 0.199829 0.168976
0.771332 0.199158 0.166351
0.765839 0.198517 0.163696
0.760284 0.198029 0.161041
0.754791 0.197357 0.158417
0.063965 0.197601 0.057526
0.065308 0.198517 0.056824
0.068939 0.200562 0.054962
0.076263 0.204376 0.051666
0.089508 0.210907 0.046295
0.112579 0.220215 0.038757
0.144409 0.230377 0.031830
0.183136 0.240143 0.026276
0.226959 0.248596 0.022461
0.273712 0.254913 0.020081
0.320740 0.258362 0.019501
0.364044 0.257904 0.021210
0.403046 0.254089 0.024323
0.438385 0.247711 0.028595
0.470917 0.239777 0.034393
0.501404 0.231567 0.041565
0.530640 0.224213 0.049011
0.559174 0.218658 0.057404
0.589203 0.215363 0.067841
0.622131 0.213898 0.080597
0.658600 0.214142 0.095795
0.698059 0.215851 0.112915
0.738312 0.218689 0.130737
0.775116 0.222015 0.147614
0.801819 0.224762 0.160126
0.812836 0.226105 0.165466
0.813629 0.226410 0.165710
0.809967 0.226227 0.163818
0.804810 0.225800 0.161163
0.799316 0.225433 0.158325
0.793732 0.225037 0.155518
0.788147 0.224640 0.152771
0.782532 0.224304 0.149963
0.072998 0.224213 0.066589
0.074219 0.225250 0.065979
0.077148 0.227539 0.064117
0.083527 0.231689 0.060608
0.095612 0.238708 0.054932
0.116638 0.249084 0.047119
0.146240 0.260468 0.040009
0.183350 0.271912 0.033813
0.226868 0.282501 0.028900
0.274902 0.291626 0.025421
0.325287 0.298492 0.023438
0.375275 0.302246 0.022888
0.420532 0.301453 0.024597
0.461395 0.297119 0.027771
0.498199 0.290222 0.032440
0.531433 0.281891 0.038513
0.561920 0.273468 0.045349
0.590576 0.266022 0.052429
0.620087 0.260101 0.061829
0.652405 0.256317 0.073578
0.688202 0.254364 0.088043
0.727051 0.254120 0.105042
0.766754 0.255219 0.123352
0.802948 0.257050 0.140747
0.829224 0.258789 0.153809
0.840088 0.259705 0.159180
0.840790 0.259918 0.159454
0.837219 0.259979 0.157288
0.832092 0.259888 0.154633
0.826660 0.259827 0.151733
0.821198 0.259766 0.148712
0.815674 0.259674 0.145752
0.810120 0.259613 0.142792
0.082611 0.252686 0.076324
0.083344 0.253662 0.075745
0.086243 0.256104 0.073914
0.091980 0.260498 0.070312
0.102875 0.267853 0.064362
0.122162 0.278839 0.056122
0.148834 0.291321 0.048645
0.183777 0.304047 0.042328
0.225769 0.316345 0.036865
0.273590 0.327698 0.032501
0.325531 0.337494 0.029419
0.379425 0.345032 0.027344
0.432404 0.349152 0.026764
0.480286 0.348389 0.028595
0.523254 0.343933 0.031891
0.561096 0.336945 0.036743
0.594330 0.328705 0.042877
0.624329 0.320374 0.049652
0.653992 0.312836 0.058044
0.685638 0.306427 0.068542
0.720337 0.302063 0.082428
0.757935 0.299469 0.099121
0.796234 0.298401 0.117859
0.831177 0.298370 0.135925
0.856445 0.298798 0.149567
0.866730 0.299194 0.155365
0.867432 0.299438 0.155609
0.864014 0.299774 0.153290
0.859161 0.299957 0.150238
0.853912 0.300201 0.147217
0.848633 0.300446 0.144043
0.843384 0.300690 0.140808
0.838074 0.300964 0.137695
0.092773 0.282990 0.086670
0.093445 0.283966 0.085999
0.095825 0.286438 0.084198
0.101196 0.291077 0.080536
0.111084 0.298737 0.074371
0.128754 0.310303 0.066132
0.153412 0.323456 0.058014
0.185150 0.337097 0.051117
0.224823 0.350555 0.045685
0.271088 0.363556 0.040985
0.322876 0.375702 0.037231
0.378815 0.386414 0.033966
0.436371 0.394653 0.031921
0.493011 0.399384 0.031342
0.543671 0.398956 0.032898
0.587982 0.394714 0.036316
0.625977 0.388031 0.041626
0.658722 0.379974 0.047821
0.689392 0.371582 0.055542
0.720673 0.363556 0.065552
0.754211 0.356384 0.078552
0.789795 0.351044 0.095459
0.826050 0.347382 0.114777
0.859009 0.345062 0.133850
0.882874 0.343842 0.148560
0.892578 0.343506 0.154816
0.893250 0.343781 0.154999
0.890015 0.344299 0.152557
0.885406 0.344910 0.149200
0.880493 0.345490 0.145813
0.875519 0.346069 0.142456
0.870544 0.346680 0.138977
0.865540 0.347351 0.135529
0.103363 0.314880 0.097534
0.104004 0.315887 0.096832
0.106232 0.318420 0.094971
0.111115 0.323151 0.091278
0.120087 0.331024 0.084930
0.136383 0.342987 0.076477
0.159058 0.356689 0.068115
0.188507 0.371002 0.060730
0.224945 0.385284 0.054718
0.268768 0.399353 0.050171
0.319000 0.413147 0.046173
0.375031 0.426331 0.042206
0.435089 0.438019 0.039032
0.496948 0.447235 0.036652
0.557129 0.452759 0.035858
0.609558 0.452789 0.037170
0.654114 0.449005 0.041229
0.691193 0.442444 0.046448
0.724030 0.434082 0.053680
0.755768 0.424866 0.063477
0.788086 0.415649 0.076813
0.821503 0.407166 0.094238
0.855164 0.400391 0.114563
0.885773 0.395508 0.134888
0.907959 0.392426 0.150879
0.916901 0.391357 0.157562
0.917572 0.391541 0.157837
0.914642 0.392303 0.155304
0.910461 0.393188 0.151825
0.905945 0.394165 0.148132
0.901367 0.395172 0.144470
0.896698 0.396179 0.140808
0.892059 0.397247 0.137054
0.114349 0.347382 0.108490
0.114899 0.348358 0.107880
0.116974 0.350952 0.106049
0.121460 0.355774 0.102417
0.129700 0.363800 0.096008
0.144684 0.376099 0.087158
0.165710 0.390259 0.078339
0.193085 0.405090 0.070618
0.226990 0.420013 0.064362
0.267731 0.434845 0.059509
0.315521 0.449585 0.055450
0.370087 0.464325 0.051392
0.430450 0.478577 0.047546
0.495209 0.491455 0.043976
0.561188 0.501770 0.041077
0.623413 0.507996 0.039856
0.675964 0.508484 0.041595
0.718933 0.504700 0.045563
0.755463 0.497437 0.052307
0.788483 0.487854 0.062378
0.820374 0.477020 0.076508
0.851959 0.466003 0.095123
0.882629 0.455811 0.117065
0.910370 0.447845 0.138611
0.930664 0.442780 0.155548
0.938812 0.440948 0.162476
0.939575 0.441101 0.162903
0.937134 0.442139 0.160400
0.933502 0.443451 0.156952
0.929535 0.444885 0.153259
0.925476 0.446381 0.149536
0.921295 0.447906 0.145660
0.916992 0.449371 0.141846
0.125275 0.379944 0.119385
0.125793 0.380890 0.118774
0.127716 0.383423 0.117035
0.131897 0.388275 0.113495
0.139404 0.396423 0.107239
0.153259 0.408936 0.098083
0.172974 0.423553 0.088715
0.198669 0.438904 0.080414
0.230408 0.454285 0.073792
0.268677 0.469604 0.068756
0.313477 0.484894 0.064789
0.365692 0.500580 0.061035
0.424683 0.516418 0.056732
0.490021 0.531921 0.052368
0.559174 0.545990 0.048370
0.627380 0.557129 0.045288
0.689423 0.563721 0.043854
0.739594 0.563965 0.046448
0.781219 0.559174 0.052338
0.817139 0.550415 0.062866
0.849640 0.538788 0.078308
0.879913 0.525665 0.098297
0.907990 0.512421 0.121307
0.932281 0.500916 0.143768
0.949707 0.493195 0.160767
0.956940 0.490356 0.167480
0.957886 0.490631 0.167725
0.956207 0.492157 0.165222
0.953461 0.494141 0.161987
0.950317 0.496216 0.158478
0.946991 0.498322 0.154877
0.943573 0.500397 0.151367
0.940033 0.502625 0.147705
0.136139 0.412292 0.130280
0.136841 0.413300 0.129761
0.138550 0.415833 0.128052
0.142273 0.420715 0.124512
0.149200 0.428925 0.118286
0.162109 0.441711 0.108978
0.180603 0.456635 0.099152
0.204865 0.472412 0.090271
0.234894 0.488312 0.083221
0.271088 0.504120 0.078125
0.313354 0.519836 0.073883
0.362854 0.535919 0.070526
0.419464 0.552551 0.066376
0.483490 0.569641 0.061584
0.553253 0.586365 0.056610
0.624634 0.601257 0.052338
0.692322 0.612610 0.049866
0.751251 0.618835 0.049866
0.799408 0.617981 0.055145
0.840027 0.611542 0.065918
0.874512 0.600342 0.082336
0.904236 0.585602 0.103149
0.929443 0.569122 0.126099
0.949371 0.553528 0.148010
0.962524 0.542175 0.164185
0.967529 0.537720 0.170441
0.968781 0.538116 0.170380
0.968201 0.540344 0.167725
0.966858 0.543213 0.164368
0.965179 0.546265 0.160858
0.963196 0.549377 0.157318
0.961029 0.552490 0.153900
0.958649 0.555573 0.150665
0.147644 0.446533 0.141846
0.148254 0.447540 0.141205
0.149994 0.450073 0.139496
0.153473 0.454926 0.136047
0.159943 0.463196 0.129974
0.171753 0.476166 0.120605
0.189240 0.491547 0.110352
0.212097 0.507812 0.100891
0.240601 0.524200 0.093170
0.274933 0.540375 0.087524
0.315186 0.556396 0.083374
0.361786 0.572784 0.080048
0.415588 0.589844 0.076324
0.477051 0.607727 0.072021
0.545258 0.626038 0.067139
0.616943 0.643494 0.062408
0.687469 0.658539 0.059082
0.751740 0.669434 0.058319
0.808258 0.674805 0.062622
0.854828 0.672394 0.072479
0.892761 0.662903 0.087769
0.922516 0.647095 0.107574
0.944611 0.627228 0.129669
0.959595 0.607208 0.151398
0.967773 0.592041 0.167877
0.970398 0.585754 0.174255
0.971466 0.585938 0.173706
0.971741 0.588745 0.170197
0.971588 0.592407 0.166016
0.971222 0.596313 0.161865
0.970642 0.600372 0.157806
0.969879 0.604523 0.153900
0.968903 0.608734 0.150146
0.160156 0.483978 0.154388
0.160706 0.484985 0.153961
0.162292 0.487518 0.152283
0.165649 0.492462 0.148804
0.171814 0.500763 0.142731
0.183136 0.513855 0.133392
0.199066 0.529572 0.122772
0.220673 0.546326 0.112579
0.247681 0.563202 0.104187
0.280334 0.579895 0.097961
0.318634 0.596344 0.093597
0.362976 0.612946 0.090302
0.413544 0.630280 0.087158
0.471771 0.648468 0.083344
0.536987 0.667419 0.079315
0.606598 0.686279 0.075165
0.676941 0.703613 0.071991
0.743347 0.717896 0.071472
0.804413 0.727753 0.074554
0.857880 0.730988 0.081543
0.900177 0.724487 0.094147
0.931519 0.709106 0.112274
0.952454 0.687469 0.134277
0.964172 0.664429 0.157684
0.968994 0.646606 0.176758
0.970093 0.639282 0.184601
0.970551 0.639069 0.183563
0.970856 0.641876 0.178772
0.971130 0.645844 0.173157
0.971344 0.650208 0.167480
0.971497 0.654785 0.162079
0.971558 0.659576 0.156952
0.971497 0.664520 0.152008
0.173920 0.525635 0.168457
0.174622 0.526672 0.167938
0.176147 0.529236 0.166473
0.179321 0.534058 0.163177
0.185150 0.542389 0.157227
0.195648 0.555481 0.147797
0.210724 0.571442 0.136810
0.230743 0.588745 0.125824
0.256195 0.606293 0.116516
0.287170 0.623596 0.109650
0.323669 0.640472 0.104919
0.365967 0.657318 0.101685
0.413971 0.674622 0.099121
0.468323 0.692780 0.096405
0.529449 0.711578 0.093475
0.595184 0.730530 0.090790
0.662476 0.748505 0.088623
0.727386 0.764069 0.088623
0.788940 0.776062 0.090851
0.845215 0.782684 0.095337
0.892761 0.781128 0.104492
0.928253 0.768921 0.121216
0.951538 0.748627 0.144318
0.964050 0.725708 0.171265
0.969116 0.707672 0.194427
0.970398 0.700470 0.204376
0.970428 0.700104 0.203339
0.970123 0.702728 0.197540
0.969818 0.706512 0.190186
0.969696 0.710815 0.183044
0.969635 0.715363 0.175964
0.969543 0.720184 0.169220
0.969452 0.725189 0.162750
0.189209 0.571289 0.183807
0.189789 0.572327 0.183380
0.191284 0.574829 0.181915
0.194305 0.579651 0.178864
0.199860 0.587891 0.173248
0.209656 0.601044 0.163910
0.223663 0.617157 0.152649
0.242249 0.634949 0.140839
0.266235 0.653168 0.130371
0.295532 0.671082 0.122528
0.330383 0.688477 0.117401
0.370697 0.705444 0.114410
0.416199 0.722504 0.112610
0.467224 0.739868 0.111389
0.523224 0.757446 0.110260
0.583588 0.775085 0.109406
0.645294 0.791779 0.109039
0.705292 0.806091 0.109894
0.763458 0.817627 0.111908
0.819244 0.825562 0.115509
0.869812 0.827789 0.123444
0.911987 0.822357 0.139282
0.941620 0.807465 0.164215
0.959900 0.788788 0.194855
0.969330 0.773743 0.222168
0.972687 0.767975 0.233948
0.972778 0.767853 0.233154
0.971710 0.770233 0.226776
0.970367 0.773560 0.218628
0.968903 0.777252 0.210114
0.967590 0.781189 0.201965
0.966339 0.785339 0.193970
0.965027 0.789673 0.186340
0.205139 0.618744 0.199677
0.205597 0.619781 0.199280
0.206970 0.622253 0.197998
0.209778 0.626953 0.195038
0.214996 0.635132 0.189667
0.224304 0.648224 0.180542
0.237488 0.664398 0.169220
0.254883 0.682465 0.156952
0.277130 0.701233 0.145294
0.304932 0.719849 0.136261
0.338226 0.737671 0.130493
0.376801 0.754639 0.127808
0.420105 0.770996 0.127075
0.467834 0.786957 0.127563
0.519104 0.802246 0.128845
0.572723 0.816742 0.130310
0.627350 0.830231 0.132080
0.680054 0.841095 0.134277
0.732300 0.849976 0.137207
0.785248 0.857391 0.141876
0.837006 0.862274 0.151031
0.884491 0.863098 0.168243
0.924408 0.858612 0.194763
0.952179 0.848267 0.228027
0.969299 0.839325 0.257233
0.976074 0.836212 0.269562
0.976746 0.836609 0.268921
0.974915 0.838654 0.262543
0.972198 0.841217 0.254242
0.969147 0.843872 0.245758
0.965912 0.846588 0.237366
0.962677 0.849304 0.229156
0.959351 0.852203 0.221191
0.219666 0.662537 0.214386
0.220123 0.663513 0.213959
0.221466 0.665894 0.212677
0.224182 0.670502 0.209900
0.229187 0.678467 0.204712
0.237823 0.691498 0.195740
0.250244 0.707611 0.184357
0.266754 0.725800 0.171783
0.287811 0.744934 0.159546
0.314056 0.764130 0.149384
0.345886 0.782257 0.142853
0.383118 0.798950 0.140564
0.424591 0.814362 0.141144
0.469635 0.828430 0.143524
0.516785 0.840820 0.147034
0.564270 0.851166 0.151245
0.611053 0.859711 0.155334
0.656281 0.866089 0.159576
0.702362 0.871460 0.164642
0.751648 0.877380 0.172028
0.803467 0.884003 0.184052
0.855438 0.890411 0.203613
0.903381 0.895020 0.231689
0.942627 0.896545 0.264557
0.968201 0.895416 0.292694
0.978638 0.895477 0.304108
0.980011 0.896454 0.303375
0.977509 0.897949 0.297272
0.973419 0.899445 0.289459
0.968781 0.900818 0.281525
0.963745 0.901947 0.273804
0.958282 0.902832 0.266418
0.952545 0.903564 0.259125
0.230316 0.694519 0.225128
0.230835 0.695374 0.224701
0.232178 0.697632 0.223450
0.234802 0.702148 0.220673
0.239532 0.709961 0.215515
0.247772 0.722717 0.206726
0.259552 0.738770 0.195374
0.275330 0.756989 0.182495
0.295624 0.776306 0.169708
0.320953 0.795776 0.158905
0.351746 0.814087 0.151947
0.388062 0.830353 0.150208
0.428284 0.844696 0.151947
0.471313 0.856873 0.155914
0.515442 0.866455 0.161255
0.558685 0.873230 0.167236
0.599792 0.877411 0.173279
0.639374 0.879883 0.179565
0.681183 0.882477 0.186920
0.727783 0.887054 0.196991
0.779633 0.894775 0.212006
0.834595 0.905273 0.233795
0.888123 0.916779 0.262329
0.934326 0.926514 0.293640
0.966553 0.932556 0.319122
0.979645 0.935181 0.329041
0.981445 0.936493 0.327942
0.978302 0.937347 0.322174
0.973206 0.937744 0.314972
0.967316 0.937805 0.307770
0.960876 0.937531 0.300842
0.953857 0.936829 0.294189
0.946381 0.935791 0.287903
0.234894 0.708313 0.229828
0.235413 0.709106 0.229340
0.236725 0.711273 0.228088
0.239288 0.715668 0.225342
0.243927 0.723450 0.220215
0.252136 0.736084 0.211395
0.263611 0.752075 0.199982
0.278961 0.770203 0.186951
0.298828 0.789551 0.173981
0.323853 0.809052 0.162933
0.354340 0.827393 0.155823
0.390289 0.843384 0.154358
0.429962 0.857178 0.156586
0.472107 0.868378 0.161255
0.514832 0.876556 0.167358
0.556213 0.881592 0.174133
0.595154 0.883881 0.180908
0.632416 0.884491 0.188202
0.672577 0.885925 0.196838
0.718170 0.889984 0.208374
0.770111 0.898254 0.224701
0.826385 0.910583 0.247192
0.882294 0.925018 0.275482
0.931244 0.938080 0.305664
0.965790 0.946838 0.329651
0.980164 0.950745 0.338684
0.981964 0.952057 0.337402
0.978485 0.952515 0.331787
0.972900 0.952423 0.324829
0.966492 0.951813 0.317871
0.959412 0.950775 0.311310
0.951721 0.949310 0.305084
0.943604 0.947449 0.299225
0.236023 0.711365 0.230927
0.236359 0.712067 0.230438
0.237671 0.714233 0.229065
0.240265 0.718597 0.226288
0.244965 0.726318 0.221161
0.253021 0.738953 0.212280
0.264557 0.754913 0.200745
0.279846 0.773041 0.187744
0.299622 0.792419 0.174713
0.324585 0.811890 0.163544
0.354980 0.830261 0.156433
0.390869 0.846375 0.154907
0.430481 0.860168 0.157043
0.472473 0.871277 0.161774
0.514954 0.879242 0.167969
0.555908 0.883881 0.174866
0.594299 0.885742 0.181854
0.631348 0.886047 0.189301
0.670990 0.887024 0.198334
0.716309 0.890778 0.210175
0.768188 0.898895 0.226746
0.824768 0.911499 0.249420
