Color-Correction/LUTs/GH5/Basic/IWLTBAP/U-PANASONIC-V-LOG-V3-LTR.cube
# Copyright: (C) Copyright 2010-2018 by IWLTBAP SAS
# Cannot be resold, shared or otherwise redistributed
# Website: https://luts.iwltbap.com
TITLE "Panasonic V-Log Version 3 (Utility LOG to Rec.709)"
LUT_3D_SIZE 8
DOMAIN_MIN 0.000000 0.000000 0.000000
DOMAIN_MAX 0.903226 0.903226 0.903226
0.014709 0.014099 0.012848
0.022644 0.014343 0.012939
0.172577 0.027679 0.014343
0.495789 0.000671 0.000000
0.658508 0.000000 0.000000
0.741364 0.000000 0.000000
0.752716 0.000000 0.000000
0.759277 0.000000 0.000000
0.014923 0.021362 0.012970
0.022308 0.021484 0.013031
0.171509 0.034332 0.014343
0.495758 0.007233 0.000000
0.658478 0.006592 0.000000
0.741364 0.006592 0.000000
0.752716 0.006592 0.000000
0.759277 0.006592 0.000000
0.020172 0.090454 0.019867
0.026764 0.090424 0.019867
0.119568 0.109863 0.020081
0.363739 0.134613 0.006683
0.616882 0.077393 0.000000
0.741272 0.013153 0.000000
0.752716 0.013153 0.000000
0.759277 0.013153 0.000000
0.071228 0.309967 0.017334
0.077789 0.309967 0.017334
0.179413 0.329651 0.009277
0.414612 0.375183 0.000000
0.677765 0.401855 0.000000
0.866577 0.391815 0.000000
0.885284 0.385651 0.000000
0.891876 0.385651 0.000000
0.257721 0.581543 0.037109
0.264282 0.581543 0.037109
0.270538 0.581177 0.036926
0.485199 0.624268 0.002380
0.723267 0.664703 0.000000
0.917664 0.686371 0.000031
0.940002 0.686707 0.000031
0.946594 0.686707 0.000031
0.470734 0.815186 0.212311
0.477325 0.815155 0.212311
0.483765 0.815002 0.212158
0.579315 0.831940 0.206146
0.761688 0.863770 0.194458
0.935852 0.890259 0.189545
0.962982 0.893097 0.190674
0.969543 0.893097 0.190674
0.497681 0.844391 0.236755
0.504242 0.844391 0.236755
0.510834 0.844391 0.236755
0.593140 0.859039 0.233124
0.767639 0.890350 0.226776
0.937744 0.918793 0.229004
0.965790 0.922424 0.231445
0.972351 0.922424 0.231445
0.497681 0.850983 0.236755
0.504242 0.850983 0.236755
0.510834 0.850983 0.236755
0.593140 0.865601 0.233124
0.767639 0.896912 0.226776
0.937744 0.925385 0.229004
0.965790 0.929016 0.231445
0.972351 0.929016 0.231445
0.014618 0.014191 0.020264
0.023132 0.014496 0.020264
0.172943 0.027710 0.021057
0.495789 0.000671 0.006592
0.658508 0.000000 0.006592
0.741364 0.000000 0.006592
0.752716 0.000000 0.006592
0.759277 0.000000 0.006592
0.014832 0.021393 0.020264
0.022461 0.021545 0.020264
0.172211 0.034302 0.020935
0.495850 0.007233 0.006592
0.658508 0.006592 0.006592
0.741364 0.006592 0.006592
0.752716 0.006592 0.006592
0.759277 0.006592 0.006592
0.020172 0.090454 0.026459
0.026764 0.090515 0.026459
0.119690 0.109985 0.026642
0.363739 0.134277 0.013306
0.616760 0.076447 0.006592
0.741272 0.013153 0.006592
0.752716 0.013153 0.006592
0.759277 0.013153 0.006592
0.071228 0.309967 0.023926
0.077850 0.310059 0.023926
0.179138 0.329681 0.015869
0.414673 0.375305 0.006592
0.677765 0.401764 0.006592
0.866547 0.391632 0.006592
0.885254 0.385468 0.006592
0.891846 0.385468 0.006592
0.257721 0.581543 0.043671
0.264313 0.581573 0.043701
0.270569 0.581207 0.043518
0.485138 0.624268 0.008942
0.723267 0.664703 0.006592
0.917664 0.686340 0.006622
0.940002 0.686676 0.006622
0.946594 0.686676 0.006622
0.470734 0.815186 0.218903
0.477325 0.815155 0.218903
0.483765 0.815002 0.218750
0.579224 0.831909 0.212769
0.761658 0.863770 0.201019
0.935852 0.890259 0.196136
0.962982 0.893097 0.197266
0.969543 0.893097 0.197266
0.497681 0.844391 0.243347
0.504242 0.844391 0.243347
0.510834 0.844391 0.243347
0.592987 0.859039 0.239716
0.767609 0.890350 0.233337
0.937744 0.918793 0.235565
0.965790 0.922424 0.238037
0.972351 0.922424 0.238037
0.497681 0.850983 0.243347
0.504242 0.850983 0.243347
0.510834 0.850983 0.243347
0.592987 0.865601 0.239716
0.767609 0.896912 0.233337
0.937744 0.925385 0.235565
0.965790 0.929016 0.238037
0.972351 0.929016 0.238037
0.007812 0.017578 0.115021
0.016418 0.017883 0.113647
0.174194 0.030670 0.110992
0.477081 0.003387 0.093140
0.661560 0.000000 0.040741
0.741516 0.000000 0.013153
0.752716 0.000000 0.013153
0.759277 0.000000 0.013153
0.008026 0.025085 0.112976
0.015686 0.025116 0.113007
0.173859 0.037292 0.110931
0.477173 0.009979 0.092621
0.661560 0.006592 0.040222
0.741455 0.006592 0.013153
0.752716 0.006592 0.013153
0.759277 0.006592 0.013153
0.008270 0.097168 0.103760
0.014832 0.097229 0.103851
0.125702 0.116241 0.107117
0.379120 0.122864 0.081909
0.622772 0.030212 0.019775
0.741333 0.013153 0.013153
0.752716 0.013153 0.013153
0.759277 0.013153 0.013153
0.045563 0.320465 0.122650
0.052368 0.320465 0.122192
0.155273 0.335114 0.096008
0.422546 0.382019 0.046143
0.678101 0.397400 0.013153
0.864655 0.383362 0.013153
0.883148 0.376617 0.013153
0.889740 0.376617 0.013153
0.257721 0.581543 0.050262
0.264313 0.581573 0.050293
0.271606 0.582336 0.050659
0.481842 0.624481 0.015778
0.724274 0.665771 0.013153
0.917542 0.684845 0.013184
0.939758 0.684906 0.013184
0.946350 0.684906 0.013184
0.470734 0.815186 0.225464
0.477325 0.815155 0.225464
0.483856 0.815125 0.225433
0.574280 0.831055 0.219757
0.760559 0.863617 0.207794
0.935944 0.890350 0.202820
0.962982 0.893036 0.203644
0.969543 0.893036 0.203644
0.497681 0.844391 0.249908
0.504242 0.844391 0.249908
0.510834 0.844391 0.249908
0.588287 0.858093 0.246521
0.766327 0.890106 0.239960
0.937653 0.918762 0.242157
0.965790 0.922424 0.244629
0.972351 0.922424 0.244629
0.497681 0.850983 0.249908
0.504242 0.850983 0.249908
0.510834 0.850983 0.249908
0.588287 0.864685 0.246521
0.766327 0.896698 0.239960
0.937653 0.925354 0.242157
0.965790 0.929016 0.244629
0.972351 0.929016 0.244629
0.002869 0.001801 0.316833
0.011322 0.002014 0.316650
0.140656 0.005768 0.342712
0.436737 0.000000 0.368317
0.654053 0.000000 0.362000
0.772858 0.000000 0.342987
0.784973 0.000000 0.336182
0.791565 0.000000 0.336182
0.002563 0.010986 0.316406
0.010406 0.010498 0.316956
0.140167 0.012329 0.342651
0.436768 0.006592 0.368378
0.654053 0.006592 0.361877
0.772827 0.006592 0.342743
0.784943 0.006592 0.335968
0.791534 0.006592 0.335968
0.000000 0.121124 0.332764
0.006592 0.120819 0.332733
0.101257 0.119232 0.351807
0.397400 0.130432 0.377747
0.651154 0.032196 0.359802
0.771912 0.013153 0.331482
0.784088 0.013153 0.324310
0.790649 0.013153 0.324310
0.000000 0.357849 0.393616
0.006592 0.357910 0.393677
0.084869 0.374847 0.404358
0.418793 0.412842 0.413788
0.694550 0.415924 0.388824
0.878937 0.374695 0.328979
0.896576 0.363251 0.316376
0.903168 0.363251 0.316376
0.183899 0.629639 0.436584
0.190552 0.629639 0.436462
0.199951 0.629517 0.429810
0.441132 0.662231 0.396881
0.723633 0.700989 0.377258
0.919617 0.704254 0.337769
0.941956 0.701294 0.323730
0.948517 0.701294 0.323730
0.446259 0.844208 0.453064
0.452850 0.844208 0.452881
0.460510 0.842896 0.443176
0.538696 0.846893 0.386627
0.749695 0.878662 0.359680
0.934601 0.898560 0.295013
0.961853 0.898834 0.279297
0.968414 0.898834 0.279297
0.477631 0.869904 0.451447
0.484253 0.869873 0.451233
0.491882 0.868500 0.440948
0.554260 0.869019 0.377716
0.756256 0.899963 0.345886
0.936432 0.921997 0.283569
0.965729 0.922729 0.254395
0.972290 0.922729 0.254395
0.477631 0.876465 0.451447
0.484253 0.876434 0.451233
0.491882 0.875092 0.440948
0.554260 0.875610 0.377716
0.756256 0.906525 0.345886
0.936432 0.928558 0.283569
0.965729 0.929321 0.254395
0.972290 0.929321 0.254395
0.000671 0.000000 0.488922
0.010895 0.000000 0.490997
0.148804 0.000000 0.546967
0.417816 0.000000 0.599396
0.664215 0.000000 0.617523
0.808868 0.000000 0.618652
0.821564 0.000000 0.617126
0.828125 0.000000 0.617126
0.000641 0.010254 0.491119
0.008759 0.009308 0.491913
0.148285 0.006592 0.546783
0.417664 0.006592 0.599396
0.664215 0.006592 0.617523
0.808868 0.006592 0.618622
0.821533 0.006592 0.617096
0.828094 0.006592 0.617096
0.000000 0.149078 0.549652
0.006592 0.148651 0.549500
0.110718 0.139343 0.578247
0.407715 0.145691 0.627319
0.673126 0.032104 0.633118
0.808380 0.013153 0.616425
0.821075 0.013153 0.614716
0.827667 0.013153 0.614716
0.000000 0.392303 0.638977
0.006592 0.392151 0.638977
0.054016 0.398499 0.650116
0.388519 0.406372 0.679657
0.703705 0.423309 0.696777
0.892273 0.397552 0.678162
0.911133 0.387421 0.673676
0.917725 0.387421 0.673676
0.126678 0.662689 0.706116
0.133301 0.662689 0.706146
0.141205 0.663574 0.707062
0.422028 0.697693 0.724396
0.712982 0.729187 0.729797
0.917389 0.734192 0.716522
0.940308 0.730530 0.711578
0.946869 0.730530 0.711578
0.418640 0.878815 0.741821
0.425201 0.878815 0.741791
0.431885 0.878571 0.739929
0.513245 0.888489 0.734222
0.722229 0.916351 0.722137
0.922607 0.940338 0.715332
0.950470 0.940277 0.710175
0.957031 0.940277 0.710175
0.452789 0.904694 0.743591
0.459351 0.904663 0.743591
0.466034 0.904480 0.741486
0.528687 0.911713 0.733978
0.726837 0.938629 0.719971
0.921936 0.964691 0.714020
0.952911 0.967743 0.712158
0.959503 0.967743 0.712158
0.452789 0.911285 0.743591
0.459351 0.911255 0.743591
0.466034 0.911041 0.741486
0.528687 0.918274 0.733978
0.726837 0.945190 0.719971
0.921936 0.971252 0.714020
0.952911 0.974335 0.712158
0.959503 0.974335 0.712158
0.000000 0.065674 0.637909
0.011658 0.065887 0.640106
0.174377 0.071259 0.692963
0.433777 0.077789 0.750519
0.691040 0.054565 0.782593
0.860107 0.030273 0.797058
0.873291 0.030670 0.797302
0.879883 0.030670 0.797302
0.000000 0.077545 0.640076
0.009094 0.076447 0.640900
0.173859 0.077789 0.692780
0.433594 0.084381 0.750488
0.690979 0.061157 0.782562
0.860107 0.036835 0.797058
0.873291 0.037262 0.797272
0.879883 0.037262 0.797272
0.000000 0.212555 0.696747
0.006592 0.212189 0.696564
0.139069 0.206299 0.724121
0.428131 0.218353 0.777740
0.694550 0.161102 0.797150
0.859985 0.043091 0.796967
0.873230 0.043091 0.797028
0.879791 0.043091 0.797028
0.000000 0.435883 0.788452
0.006592 0.435699 0.788391
0.077637 0.438416 0.798309
0.397003 0.435089 0.827148
0.702637 0.451508 0.856720
0.904602 0.431732 0.862122
0.924011 0.424561 0.860077
0.930603 0.424561 0.860077
0.161407 0.689117 0.866394
0.167938 0.689087 0.866394
0.171448 0.687286 0.865906
0.420898 0.707031 0.883270
0.696136 0.725769 0.901733
0.919922 0.739044 0.909821
0.942535 0.738861 0.907715
0.949097 0.738861 0.907715
0.426666 0.898743 0.911133
0.433228 0.898743 0.911133
0.439758 0.898743 0.911102
0.522217 0.909149 0.915710
0.722107 0.935730 0.925751
0.919159 0.958008 0.930328
0.948090 0.960083 0.930298
0.954651 0.960083 0.930298
0.460846 0.924469 0.914490
0.467407 0.924469 0.914490
0.473969 0.924438 0.914307
0.537262 0.932343 0.916901
0.726105 0.958038 0.924805
0.919495 0.983246 0.930939
0.950012 0.986267 0.931152
0.956604 0.986267 0.931152
0.460846 0.931061 0.914490
0.467407 0.931061 0.914490
0.473969 0.931030 0.914307
0.537262 0.938904 0.916901
0.726105 0.964630 0.924805
0.919495 0.989838 0.930939
0.950012 0.992828 0.931152
0.956604 0.992828 0.931152
0.000000 0.072937 0.650757
0.011688 0.073120 0.652985
0.175903 0.079712 0.705414
0.435089 0.088501 0.762970
0.692596 0.072906 0.796143
0.863525 0.058533 0.813324
0.877594 0.060303 0.814240
0.884186 0.060303 0.814240
0.000000 0.084747 0.652954
0.009094 0.083679 0.653778
0.175354 0.086243 0.705231
0.434906 0.095093 0.762939
0.692566 0.079468 0.796143
0.863525 0.065125 0.813324
0.877594 0.066864 0.814240
0.884186 0.066864 0.814240
0.000000 0.216858 0.709137
0.006592 0.216431 0.708954
0.140869 0.210754 0.736084
0.429291 0.223358 0.789581
0.695679 0.171692 0.810333
0.863342 0.071655 0.813324
0.877594 0.073456 0.814240
0.884186 0.073456 0.814240
0.000000 0.439117 0.800995
0.006592 0.438995 0.800934
0.078217 0.441345 0.810638
0.397797 0.437164 0.838928
0.702362 0.454071 0.870117
0.904602 0.435760 0.879059
0.925110 0.428406 0.878387
0.931702 0.428406 0.878387
0.167694 0.691437 0.881805
0.174194 0.691376 0.881805
0.177460 0.689392 0.881195
0.421570 0.707916 0.898773
0.694275 0.724854 0.918579
0.917969 0.738708 0.930359
0.942932 0.738007 0.930878
0.949524 0.738007 0.930878
0.429474 0.900940 0.932983
0.436035 0.900940 0.932983
0.442261 0.900726 0.932922
0.523102 0.910278 0.937866
0.720001 0.935516 0.949799
0.918549 0.959442 0.958710
0.948181 0.961761 0.959534
0.954742 0.961761 0.959534
0.463745 0.926758 0.937836
0.470337 0.926758 0.937836
0.476929 0.926758 0.937836
0.540161 0.934723 0.941589
0.726990 0.960297 0.952850
0.919586 0.985413 0.961548
0.950134 0.988495 0.962463
0.956726 0.988495 0.962463
0.463745 0.933350 0.937836
0.470337 0.933350 0.937836
0.476929 0.933350 0.937836
0.540161 0.941315 0.941589
0.726990 0.966888 0.952850
0.919586 0.992004 0.961548
0.950134 0.995056 0.962463
0.956726 0.995056 0.962463
0.000000 0.072937 0.657349
0.011688 0.073120 0.659576
0.175903 0.079712 0.712006
0.435089 0.088501 0.769531
0.692596 0.072906 0.802734
0.863525 0.058533 0.819916
0.877594 0.060303 0.820831
0.884186 0.060303 0.820831
0.000000 0.084747 0.659515
0.009094 0.083679 0.660370
0.175354 0.086243 0.711823
0.434906 0.095093 0.769501
0.692566 0.079468 0.802734
0.863525 0.065125 0.819916
0.877594 0.066864 0.820831
0.884186 0.066864 0.820831
0.000000 0.216858 0.715698
0.006592 0.216431 0.715515
0.140869 0.210754 0.742676
0.429291 0.223358 0.796173
0.695679 0.171692 0.816925
0.863342 0.071655 0.819916
0.877594 0.073456 0.820831
0.884186 0.073456 0.820831
0.000000 0.439117 0.807556
0.006592 0.438995 0.807526
0.078217 0.441345 0.817200
0.397797 0.437164 0.845520
0.702362 0.454071 0.876709
0.904602 0.435760 0.885651
0.925110 0.428406 0.884949
0.931702 0.428406 0.884949
0.167694 0.691437 0.888367
0.174194 0.691376 0.888367
0.177460 0.689392 0.887756
0.421570 0.707916 0.905334
0.694275 0.724854 0.925140
0.917969 0.738708 0.936951
0.942932 0.738007 0.937469
0.949524 0.738007 0.937469
0.429474 0.900940 0.939575
0.436035 0.900940 0.939575
0.442261 0.900726 0.939514
0.523102 0.910278 0.944427
0.720001 0.935516 0.956360
0.918549 0.959442 0.965302
0.948181 0.961761 0.966095
0.954742 0.961761 0.966095
0.463745 0.926758 0.944397
0.470337 0.926758 0.944397
0.476929 0.926758 0.944397
0.540161 0.934723 0.948181
0.726990 0.960297 0.959442
0.919586 0.985413 0.968140
0.950134 0.988495 0.969055
0.956726 0.988495 0.969055
0.463745 0.933350 0.944397
0.470337 0.933350 0.944397
0.476929 0.933350 0.944397
0.540161 0.941315 0.948181
0.726990 0.966888 0.959442
0.919586 0.992004 0.968140
0.950134 0.995056 0.969055
0.956726 0.995056 0.969055
