Color-Correction/LUTs/GH5/Basic/IWLTBAP/U-PANASONIC-V-LOG-V9-LTR.cube
# Copyright: (C) Copyright 2010-2018 by IWLTBAP SAS
# Cannot be resold, shared or otherwise redistributed
# Website: https://luts.iwltbap.com
TITLE "Panasonic V-Log Version 9 (Utility LOG to Rec.709)"
LUT_3D_SIZE 9
0.000000 0.000000 0.000000
0.042145 0.005798 0.009094
0.149689 0.026825 0.041229
0.244019 0.049896 0.075226
0.347076 0.075012 0.111267
0.460968 0.102844 0.149750
0.594757 0.135406 0.195831
0.598206 0.136108 0.197021
0.575592 0.130676 0.189056
0.009521 0.035278 0.008392
0.051056 0.039276 0.010254
0.167664 0.050873 0.031067
0.269226 0.062897 0.065491
0.375671 0.082245 0.104370
0.491730 0.109100 0.146332
0.624207 0.141174 0.194336
0.627747 0.142120 0.195404
0.606201 0.136871 0.187134
0.045868 0.145142 0.040131
0.077667 0.154846 0.030212
0.218872 0.176392 0.014801
0.358978 0.166229 0.031433
0.475189 0.149628 0.065277
0.603729 0.157593 0.116882
0.743347 0.179474 0.175995
0.746674 0.180420 0.176819
0.725159 0.177094 0.166992
0.082611 0.252686 0.076324
0.102875 0.267853 0.064362
0.225769 0.316345 0.036865
0.432404 0.349152 0.026764
0.594330 0.328705 0.042877
0.720337 0.302063 0.082428
0.856445 0.298798 0.149567
0.859161 0.299957 0.150238
0.838074 0.300964 0.137695
0.125275 0.379944 0.119385
0.139404 0.396423 0.107239
0.230408 0.454285 0.073792
0.424683 0.516418 0.056732
0.689423 0.563721 0.043854
0.849640 0.538788 0.078308
0.949707 0.493195 0.160767
0.953461 0.494141 0.161987
0.940033 0.502625 0.147705
0.173920 0.525635 0.168457
0.185150 0.542389 0.157227
0.256195 0.606293 0.116516
0.413971 0.674622 0.099121
0.662476 0.748505 0.088623
0.892761 0.781128 0.104492
0.969116 0.707672 0.194427
0.969818 0.706512 0.190186
0.969452 0.725189 0.162750
0.230316 0.694519 0.225128
0.239532 0.709961 0.215515
0.295624 0.776306 0.169708
0.428284 0.844696 0.151947
0.599792 0.877411 0.173279
0.779633 0.894775 0.212006
0.966553 0.932556 0.319122
0.973206 0.937744 0.314972
0.946381 0.935791 0.287903
0.234589 0.707428 0.229584
0.243683 0.722473 0.219696
0.299011 0.788727 0.173126
0.430298 0.857666 0.154541
0.595978 0.885925 0.177582
0.770599 0.898468 0.221497
0.967743 0.946106 0.325928
0.975464 0.952148 0.319733
0.946075 0.947540 0.293457
0.230835 0.695831 0.225616
0.240204 0.711334 0.215424
0.296906 0.777863 0.168610
0.429749 0.848633 0.149017
0.601044 0.884430 0.167145
0.778442 0.897583 0.207733
0.971008 0.934753 0.313660
0.978943 0.941162 0.306244
0.952057 0.939972 0.277344
0.003784 0.004974 0.025818
0.043884 0.009857 0.033813
0.152405 0.030090 0.061890
0.248657 0.052612 0.092468
0.352325 0.077637 0.126312
0.466858 0.105408 0.163971
0.600372 0.137848 0.209015
0.603394 0.138672 0.210297
0.580841 0.133179 0.202850
0.009338 0.038452 0.034637
0.047180 0.039825 0.036560
0.166412 0.048035 0.053375
0.274109 0.062469 0.084595
0.381592 0.084595 0.121613
0.497559 0.111664 0.161957
0.629730 0.144012 0.208527
0.632751 0.144684 0.209656
0.611237 0.139282 0.201965
0.039764 0.148346 0.065155
0.065796 0.155487 0.053894
0.204132 0.169403 0.032837
0.362427 0.155060 0.046539
0.487549 0.142548 0.084076
0.614960 0.154236 0.135925
0.750366 0.178589 0.193298
0.753326 0.179443 0.194397
0.732574 0.175385 0.185120
0.078827 0.257721 0.097687
0.095215 0.272308 0.085449
0.208405 0.320435 0.048645
0.429474 0.349396 0.032837
0.605896 0.321320 0.049408
0.735718 0.292603 0.094635
0.869568 0.289185 0.164429
0.872131 0.290039 0.165192
0.851715 0.290619 0.152802
0.122498 0.385590 0.138458
0.134674 0.401794 0.127075
0.215820 0.460907 0.087555
0.413788 0.525818 0.061127
0.695404 0.570496 0.046997
0.860138 0.537659 0.085144
0.955536 0.486267 0.171661
0.959198 0.486664 0.172180
0.947754 0.495575 0.157288
0.171967 0.531982 0.186432
0.182190 0.548401 0.176514
0.245056 0.612366 0.133392
0.399414 0.684845 0.105408
0.657196 0.758575 0.093781
0.893707 0.785950 0.110077
0.970093 0.707764 0.209167
0.970398 0.706543 0.205139
0.969086 0.724487 0.175598
0.228455 0.700439 0.242096
0.237274 0.715851 0.233490
0.287842 0.780487 0.188995
0.415314 0.849213 0.162964
0.589844 0.878235 0.183380
0.776855 0.897247 0.224335
0.967865 0.937195 0.332977
0.974487 0.942688 0.328613
0.947418 0.940857 0.301880
0.232483 0.712860 0.246613
0.241241 0.727905 0.237610
0.291077 0.792389 0.192505
0.416992 0.861481 0.165619
0.585938 0.885559 0.188660
0.768158 0.900299 0.233948
0.969025 0.950714 0.339447
0.976624 0.956848 0.332977
0.947113 0.952454 0.307037
0.228577 0.701385 0.243073
0.237610 0.716797 0.233795
0.288269 0.781738 0.188232
0.415466 0.853851 0.159302
0.590424 0.885132 0.178375
0.775330 0.899170 0.220337
0.972351 0.939484 0.327484
0.980347 0.946075 0.319855
0.953278 0.945038 0.291290
0.021759 0.027618 0.098053
0.052979 0.028992 0.105560
0.158905 0.041077 0.130249
0.263824 0.062439 0.153687
0.370178 0.087616 0.182007
0.486664 0.115326 0.216858
0.620453 0.147766 0.259949
0.622986 0.148438 0.261108
0.600433 0.143036 0.254059
0.019653 0.053192 0.111145
0.046661 0.050293 0.117188
0.161530 0.049927 0.136688
0.284973 0.067596 0.157440
0.397186 0.093109 0.184845
0.514984 0.121185 0.219757
0.647644 0.153809 0.262634
0.650085 0.154327 0.263672
0.628571 0.149017 0.256714
0.026611 0.157288 0.152557
0.038757 0.156677 0.152802
0.148346 0.144043 0.143158
0.344971 0.125336 0.148560
0.507843 0.125977 0.172577
0.637085 0.148773 0.213684
0.765289 0.180328 0.261932
0.767548 0.180969 0.262939
0.747864 0.175751 0.255219
0.063873 0.273407 0.179688
0.070374 0.284485 0.175659
0.137451 0.318420 0.140747
0.362915 0.323120 0.114410
0.608337 0.280243 0.119293
0.777649 0.250092 0.160980
0.903961 0.254181 0.231537
0.907013 0.254120 0.231995
0.889832 0.252106 0.219971
0.111328 0.404388 0.212128
0.118652 0.418732 0.206512
0.163910 0.475494 0.165619
0.342896 0.544067 0.104279
0.675201 0.571777 0.088379
0.883728 0.516083 0.126495
0.973206 0.454315 0.224060
0.976624 0.452637 0.222931
0.971313 0.459625 0.203033
0.162598 0.552582 0.255737
0.170349 0.567657 0.249939
0.209595 0.627960 0.212036
0.332703 0.712677 0.145996
0.616943 0.787994 0.118042
0.886810 0.795074 0.138275
0.976105 0.704193 0.269897
0.976318 0.702972 0.268127
0.971313 0.718903 0.231934
0.219940 0.721436 0.308533
0.227600 0.736145 0.302521
0.265564 0.794769 0.267365
0.368622 0.857361 0.220093
0.546814 0.877014 0.223053
0.763947 0.907074 0.272278
0.971008 0.952698 0.385071
0.978973 0.958893 0.381195
0.951477 0.958313 0.355072
0.223907 0.733276 0.312775
0.231476 0.747650 0.306488
0.268799 0.806091 0.271088
0.371124 0.867462 0.224640
0.543365 0.880005 0.230896
0.756256 0.909058 0.282562
0.971527 0.967285 0.390656
0.980255 0.973999 0.384460
0.950623 0.970581 0.359192
0.219849 0.721802 0.309692
0.227661 0.736450 0.303375
0.264313 0.795715 0.267639
0.365845 0.862976 0.217010
0.545319 0.881927 0.221191
0.761230 0.906555 0.268677
0.975281 0.956726 0.379608
0.984497 0.963959 0.371765
0.957336 0.963623 0.343689
0.039978 0.048126 0.155548
0.063965 0.049530 0.164581
0.158783 0.057343 0.196228
0.277222 0.074738 0.226807
0.391693 0.099884 0.252350
0.510498 0.127686 0.284180
0.644623 0.160095 0.324951
0.646545 0.160553 0.325989
0.623993 0.155121 0.319336
0.038147 0.068909 0.171173
0.058380 0.066803 0.181702
0.155548 0.064941 0.214264
0.291168 0.079742 0.241638
0.414246 0.105316 0.262756
0.535492 0.133453 0.292084
0.669281 0.165863 0.331177
0.671112 0.166443 0.332184
0.649353 0.161072 0.325928
0.034363 0.164429 0.230652
0.042084 0.160187 0.242584
0.121216 0.134949 0.271576
0.323059 0.119873 0.286652
0.505096 0.130768 0.294281
0.642975 0.157806 0.314148
0.775299 0.191406 0.349121
0.776947 0.191925 0.349915
0.756592 0.186523 0.344269
0.048431 0.288208 0.283417
0.050964 0.295044 0.291962
0.088440 0.307037 0.306244
0.285156 0.282349 0.283325
0.555328 0.241333 0.289825
0.771637 0.219910 0.301544
0.906342 0.240692 0.342590
0.909851 0.239960 0.342651
0.895630 0.233246 0.334045
0.093903 0.425659 0.313141
0.098236 0.437866 0.315765
0.121033 0.483887 0.312042
0.238129 0.525543 0.261200
0.544495 0.511200 0.244720
0.829956 0.454803 0.261810
0.976074 0.409546 0.327820
0.981750 0.406952 0.325439
0.978088 0.406738 0.304230
0.148712 0.576569 0.349182
0.154541 0.590454 0.348358
0.181763 0.644714 0.332611
0.253204 0.723633 0.270081
0.507599 0.784332 0.206085
0.828583 0.769592 0.233368
0.983826 0.691650 0.363617
0.988678 0.691711 0.362762
0.981781 0.707428 0.325562
0.207947 0.746948 0.396088
0.214966 0.761108 0.391937
0.251221 0.814850 0.364990
0.335449 0.859863 0.317688
0.493286 0.872742 0.287903
0.744476 0.921783 0.340271
0.970947 0.964264 0.447052
0.980865 0.971985 0.445679
0.953766 0.975342 0.423248
0.211517 0.758179 0.400299
0.218414 0.772034 0.395935
0.254364 0.826233 0.367737
0.341064 0.868744 0.320862
0.493134 0.871887 0.294128
0.739410 0.925140 0.349609
0.971222 0.980042 0.450745
0.981659 0.988251 0.447418
0.952057 0.988678 0.425903
0.207184 0.746399 0.398163
0.214081 0.760498 0.394318
0.247894 0.816010 0.367340
0.331726 0.866119 0.317169
0.488861 0.872375 0.285126
0.741638 0.921082 0.335449
0.975586 0.972321 0.441498
0.986267 0.980988 0.435944
0.959137 0.983551 0.410980
0.057526 0.068573 0.216583
0.078369 0.070312 0.226288
0.161713 0.078522 0.261261
0.279053 0.091400 0.302765
0.413666 0.114075 0.336121
0.537292 0.142151 0.365570
0.671753 0.174622 0.403625
0.673096 0.175018 0.404358
0.650543 0.169464 0.398254
0.056000 0.087158 0.233521
0.074005 0.086121 0.244934
0.157318 0.086945 0.282745
0.286194 0.097473 0.322723
0.431335 0.119415 0.352692
0.558868 0.147766 0.378235
0.693665 0.180420 0.413452
0.694946 0.180786 0.414307
0.672943 0.175293 0.408752
0.053589 0.173767 0.298706
0.061371 0.169006 0.313995
0.121094 0.143890 0.365540
0.291260 0.129272 0.404358
0.498077 0.142975 0.420990
0.649689 0.171936 0.427429
0.787201 0.205658 0.450500
0.788330 0.205872 0.451233
0.767090 0.200409 0.447449
0.053497 0.296906 0.375610
0.056976 0.299591 0.389435
0.081970 0.293732 0.440308
0.236115 0.256439 0.462708
0.530457 0.226166 0.472809
0.755463 0.220306 0.470520
0.894897 0.253571 0.479675
0.898041 0.252411 0.479858
0.882812 0.243225 0.477295
0.074371 0.446228 0.438416
0.076233 0.455688 0.449127
0.086365 0.488098 0.487671
0.169617 0.504242 0.495422
0.463562 0.460602 0.445618
0.767151 0.404114 0.461609
0.951782 0.382385 0.493134
0.960144 0.378021 0.491058
0.952698 0.370544 0.479828
0.128845 0.602539 0.469757
0.132935 0.614960 0.474823
0.150360 0.662415 0.486786
0.194824 0.724762 0.474335
0.393616 0.745544 0.403809
0.740143 0.716827 0.412903
0.977203 0.668091 0.495087
0.989319 0.666351 0.493011
0.974030 0.674622 0.470490
0.193939 0.776367 0.497192
0.200745 0.789093 0.493317
0.237244 0.833160 0.471313
0.316101 0.861420 0.437073
0.458069 0.881805 0.409790
0.711975 0.938263 0.438690
0.959229 0.960419 0.515167
0.971619 0.971527 0.516510
0.946503 0.982239 0.506012
0.197571 0.787292 0.501007
0.204224 0.799957 0.496155
0.240936 0.844727 0.470306
0.323456 0.868683 0.434143
0.463837 0.882538 0.411041
0.711304 0.946472 0.442902
0.960052 0.974640 0.514191
0.972809 0.987091 0.514648
0.945190 0.996735 0.505554
0.192200 0.775146 0.502930
0.198517 0.788239 0.498993
0.232086 0.836212 0.474548
0.310974 0.867645 0.434967
0.450958 0.878723 0.402832
0.709137 0.941528 0.429779
0.966827 0.969482 0.507050
0.980225 0.982880 0.505310
0.953522 0.994049 0.492310
0.077209 0.092590 0.288361
0.095673 0.094757 0.298279
0.172577 0.103821 0.335236
0.280945 0.115723 0.381805
0.421814 0.132477 0.431854
0.566345 0.159668 0.467316
0.703094 0.192261 0.503265
0.703888 0.192535 0.504150
0.681580 0.187042 0.498505
0.076019 0.109131 0.306030
0.092285 0.109161 0.317871
0.167938 0.112274 0.357971
0.284088 0.122650 0.403503
0.433594 0.138336 0.451996
0.584167 0.165314 0.484772
0.722229 0.198029 0.517090
0.722870 0.198273 0.518066
0.700958 0.192841 0.513367
0.075195 0.189270 0.374939
0.083313 0.184967 0.391266
0.136780 0.164368 0.448608
0.274994 0.155457 0.498779
0.471802 0.164581 0.540314
0.656464 0.189362 0.560089
0.802307 0.223572 0.575256
0.803070 0.223480 0.576599
0.781555 0.217804 0.574768
0.076050 0.305969 0.458527
0.080719 0.306030 0.474335
0.105713 0.291779 0.538818
0.209137 0.247345 0.614471
0.472778 0.222168 0.653168
0.733582 0.230560 0.659698
0.882660 0.278473 0.638458
0.885651 0.276642 0.639801
0.870544 0.264771 0.644958
0.077057 0.458466 0.556732
0.079926 0.464355 0.571198
0.093170 0.479767 0.629028
0.144226 0.472015 0.700500
0.396057 0.421936 0.686646
0.739166 0.381805 0.703705
0.923370 0.406982 0.692963
0.927795 0.403381 0.694000
0.919067 0.386993 0.700409
0.105835 0.629181 0.624298
0.108551 0.639435 0.634674
0.120361 0.676361 0.670288
0.150452 0.717773 0.704407
0.319305 0.719421 0.675690
0.665894 0.670929 0.669220
0.944305 0.647125 0.687714
0.954926 0.646912 0.693726
0.924805 0.642639 0.698486
0.177094 0.805542 0.609741
0.183838 0.815033 0.608246
0.221924 0.845520 0.600037
0.304108 0.872345 0.596558
0.447174 0.912262 0.609711
0.665466 0.951508 0.628754
0.924255 0.933289 0.648743
0.925171 0.942474 0.648224
0.884644 0.956848 0.649139
0.181061 0.816223 0.608582
0.187469 0.825684 0.606323
0.225433 0.856171 0.595001
0.312500 0.878448 0.589417
0.458282 0.918030 0.606262
0.667511 0.967224 0.626953
0.926819 0.949310 0.646973
0.928192 0.959595 0.648071
0.885406 0.975708 0.647705
0.174713 0.804962 0.615631
0.180298 0.815186 0.613678
0.212921 0.849762 0.602783
0.293243 0.875183 0.593964
0.437225 0.911896 0.605835
0.657166 0.959534 0.624969
0.933167 0.934357 0.647034
0.938171 0.945587 0.651398
0.895233 0.964386 0.651184
0.096100 0.115417 0.358398
0.113190 0.117554 0.368073
0.185913 0.127289 0.405823
0.288513 0.139587 0.454071
0.422089 0.154175 0.511932
0.581512 0.176056 0.565002
0.731110 0.208649 0.600952
0.731232 0.208771 0.601044
0.708771 0.203094 0.595062
0.094635 0.130585 0.376221
0.110016 0.130798 0.387848
0.181213 0.135712 0.428650
0.289581 0.146851 0.476318
0.430084 0.160736 0.532959
0.595490 0.181732 0.585052
0.747711 0.214203 0.617737
0.747711 0.214233 0.617950
0.725677 0.208801 0.613068
0.094482 0.206635 0.447540
0.102264 0.202393 0.463867
0.153168 0.185120 0.523010
0.275757 0.180847 0.577026
0.451965 0.189941 0.628876
0.649292 0.206818 0.676788
0.816345 0.241241 0.693024
0.817230 0.240387 0.694000
0.795776 0.233917 0.693115
0.096893 0.318115 0.534760
0.101837 0.316895 0.551300
0.128815 0.300049 0.620819
0.214508 0.259552 0.712189
0.431854 0.239716 0.772614
0.695374 0.250214 0.804199
0.873444 0.307770 0.775452
0.877441 0.304962 0.777039
0.863281 0.289001 0.788940
0.097076 0.465515 0.642883
0.100861 0.468964 0.658386
0.118408 0.474304 0.723541
0.160400 0.452423 0.821594
0.343170 0.393036 0.884521
0.685822 0.379944 0.881714
0.906525 0.456940 0.844788
0.911957 0.454071 0.848663
0.898132 0.432526 0.865753
0.102905 0.644379 0.747681
0.106384 0.651947 0.757721
0.122589 0.677277 0.794464
0.159332 0.698090 0.837158
0.300720 0.685425 0.858673
0.617828 0.653015 0.877319
0.908386 0.648621 0.873962
0.915863 0.646881 0.884857
0.885590 0.643646 0.901062
0.161865 0.826019 0.717346
0.169861 0.832611 0.718719
0.215149 0.857819 0.729401
0.307739 0.893890 0.758820
0.448792 0.939911 0.806732
0.613892 0.944611 0.845459
0.932343 0.922791 0.921326
0.868286 0.899567 0.889465
0.795654 0.906555 0.869568
0.164551 0.836487 0.712799
0.171906 0.842957 0.714142
0.217102 0.867493 0.723053
0.315674 0.902557 0.752777
0.457001 0.951843 0.804718
0.611359 0.959442 0.846252
0.889771 0.909393 0.903412
0.872528 0.912659 0.902161
0.793457 0.920074 0.877869
0.156799 0.826050 0.721100
0.162262 0.833557 0.722870
0.198730 0.860779 0.732178
0.289093 0.895660 0.760498
0.430878 0.943909 0.813477
0.597137 0.948761 0.858337
0.889740 0.885498 0.901886
0.879761 0.888580 0.907623
0.803833 0.898590 0.889984
0.099152 0.119415 0.370483
0.116486 0.121521 0.380280
0.188995 0.131348 0.418182
0.290924 0.143829 0.466644
0.423431 0.158356 0.525055
0.583527 0.179169 0.581482
0.735992 0.211700 0.618164
0.735535 0.211456 0.617798
0.713104 0.205841 0.611664
0.097717 0.134521 0.388672
0.113159 0.134857 0.400330
0.184174 0.139893 0.441345
0.291656 0.151062 0.489380
0.431061 0.164917 0.546600
0.597107 0.184967 0.602142
0.752502 0.217163 0.635620
0.751953 0.217010 0.635590
0.729858 0.211517 0.630463
0.097565 0.210297 0.460510
0.105591 0.205994 0.477142
0.156281 0.189026 0.536621
0.277283 0.185364 0.591156
0.451141 0.194672 0.643921
0.648346 0.210541 0.695923
0.819153 0.244751 0.713623
0.819824 0.243652 0.714478
0.798370 0.236938 0.713867
0.100189 0.321228 0.548431
0.105438 0.319824 0.565247
0.132629 0.302734 0.635834
0.217163 0.263031 0.728149
0.429443 0.244720 0.789520
0.689636 0.256439 0.822906
0.872223 0.315002 0.796814
0.876343 0.311493 0.798920
0.861816 0.294830 0.811768
0.100983 0.467896 0.657562
0.104675 0.471069 0.673462
0.122833 0.475250 0.739716
0.165588 0.452393 0.837769
0.344421 0.394867 0.900391
0.677948 0.389679 0.891602
0.904266 0.469299 0.863770
0.909882 0.465637 0.869354
0.893158 0.444550 0.884277
0.105591 0.647064 0.763611
0.109436 0.654388 0.773193
0.126862 0.677979 0.808472
0.168823 0.695587 0.848816
0.316956 0.680664 0.869110
0.616119 0.655396 0.898254
0.899414 0.651886 0.895172
0.904236 0.649994 0.904907
0.870880 0.647369 0.917664
0.159851 0.829193 0.735809
0.168610 0.835632 0.737885
0.216797 0.861389 0.752350
0.312622 0.898712 0.786194
0.453430 0.941833 0.836151
0.603973 0.932312 0.871796
0.870667 0.889862 0.925537
0.851929 0.891998 0.921783
0.781952 0.898651 0.906281
0.161713 0.839233 0.731689
0.169586 0.845581 0.733795
0.217560 0.870697 0.747253
0.318512 0.907959 0.782501
0.458313 0.954254 0.836823
0.600403 0.944580 0.872955
0.872223 0.898682 0.929535
0.852905 0.901642 0.927521
0.778748 0.909576 0.912415
0.153351 0.829010 0.740204
0.159332 0.836273 0.742706
0.197968 0.863556 0.756165
0.291687 0.900208 0.790131
0.434021 0.945343 0.845245
0.589355 0.933228 0.883423
0.874786 0.874542 0.928650
0.859375 0.877655 0.929352
0.785767 0.887451 0.917755
0.101288 0.122101 0.378876
0.118927 0.124451 0.388855
0.191254 0.134125 0.426941
0.292816 0.146667 0.475739
0.424835 0.161255 0.534485
0.584869 0.181549 0.593079
0.739532 0.213837 0.630737
0.738647 0.213409 0.630219
0.716217 0.207855 0.624054
0.099823 0.137512 0.397369
0.115509 0.137726 0.409393
0.186432 0.142914 0.450653
0.293579 0.154144 0.498901
0.432373 0.168091 0.556519
0.598328 0.187531 0.614380
0.756073 0.219421 0.648895
0.755096 0.218994 0.648651
0.732971 0.213623 0.643707
0.099731 0.213043 0.469788
0.108063 0.208740 0.486786
0.158722 0.192047 0.546753
0.278809 0.188660 0.601685
0.451263 0.198151 0.655090
0.647919 0.213501 0.709595
0.821320 0.247589 0.728943
0.821747 0.246124 0.729919
0.800415 0.239197 0.729767
0.102722 0.323761 0.558258
0.108124 0.322266 0.575592
0.135345 0.304962 0.646851
0.219299 0.265900 0.739960
0.428864 0.248871 0.801300
0.686249 0.261871 0.835022
0.871429 0.321045 0.811829
0.875641 0.316895 0.814758
0.860291 0.299744 0.828278
0.103516 0.469879 0.668274
0.107605 0.473022 0.684601
0.126068 0.476501 0.751587
0.170258 0.453247 0.848450
0.350311 0.399261 0.903931
0.674377 0.399658 0.893188
0.902588 0.479492 0.876068
0.907898 0.475189 0.883057
0.887970 0.455048 0.894714
0.108063 0.649231 0.773682
0.112274 0.656342 0.783051
0.130890 0.678925 0.817200
0.177826 0.694183 0.855072
0.334229 0.678833 0.871307
0.619110 0.659149 0.906494
0.891724 0.655823 0.905853
0.893616 0.654022 0.914337
0.857910 0.652161 0.923706
0.158661 0.831390 0.748993
0.167969 0.838043 0.751801
0.218811 0.864471 0.769379
0.317780 0.902283 0.805817
0.458038 0.940857 0.855225
0.600586 0.919067 0.885132
0.857483 0.882233 0.939240
0.839294 0.885773 0.939758
0.774841 0.891632 0.925781
0.159363 0.841064 0.745850
0.168060 0.847534 0.748779
0.218628 0.873566 0.765839
0.321808 0.911896 0.804504
0.460358 0.953186 0.858124
0.596710 0.929077 0.886200
0.858978 0.889618 0.943756
0.838928 0.893097 0.943848
0.771240 0.900024 0.929413
0.150696 0.831055 0.754517
0.157257 0.838348 0.757812
0.198059 0.865997 0.774719
0.295532 0.903290 0.811920
0.439423 0.943390 0.865417
0.589508 0.917450 0.894501
0.862976 0.866425 0.943298
0.844543 0.869293 0.943909
0.774933 0.878021 0.932281
