Color-Correction/LUTs/GH5/Basic/IWLTBAP/U-PANASONIC-V-LOG-V6-LTR.cube
# Copyright: (C) Copyright 2010-2018 by IWLTBAP SAS
# Cannot be resold, shared or otherwise redistributed
# Website: https://luts.iwltbap.com
TITLE "Panasonic V-Log Version 6 (Utility LOG to Rec.709)"
LUT_3D_SIZE 9
0.000000 0.000000 0.000000
0.042847 0.001862 0.007050
0.127167 0.018646 0.040588
0.195923 0.036224 0.069946
0.264862 0.054565 0.098145
0.358063 0.080627 0.135590
0.457458 0.108124 0.175262
0.587067 0.143555 0.226593
0.646820 0.159851 0.250214
0.002777 0.014648 0.003204
0.036652 0.010345 0.005493
0.129089 0.023621 0.036407
0.202881 0.039856 0.065582
0.276276 0.057648 0.094940
0.366272 0.082581 0.136505
0.461456 0.109222 0.176849
0.597992 0.146515 0.230896
0.646820 0.159851 0.250214
0.029114 0.117920 0.033722
0.052673 0.119324 0.021149
0.157745 0.118073 0.003510
0.254974 0.105499 0.023285
0.347107 0.102600 0.065491
0.454102 0.112579 0.111176
0.563019 0.132721 0.156647
0.699554 0.169067 0.219360
0.743591 0.182068 0.237396
0.057617 0.204468 0.066376
0.058929 0.206146 0.065643
0.148071 0.239960 0.022034
0.314209 0.251770 0.006256
0.412903 0.230072 0.022034
0.535248 0.216553 0.074982
0.669403 0.221497 0.129272
0.820374 0.238037 0.182312
0.866150 0.250153 0.195953
0.088318 0.301392 0.101654
0.089020 0.303589 0.102448
0.147430 0.351013 0.058258
0.304291 0.391235 0.031464
0.519958 0.416443 0.021515
0.653564 0.394562 0.056152
0.808746 0.386810 0.117523
0.971558 0.419800 0.204041
0.991425 0.439270 0.219330
0.132416 0.441528 0.152161
0.133270 0.444275 0.153168
0.175903 0.501862 0.107330
0.305206 0.558411 0.079071
0.521088 0.617249 0.060577
0.848999 0.678772 0.073853
0.987091 0.659332 0.154175
0.963928 0.631561 0.269409
0.970856 0.657440 0.293274
0.194519 0.639984 0.223206
0.195831 0.644196 0.224731
0.231934 0.707825 0.186218
0.342438 0.792084 0.139679
0.536591 0.868439 0.151062
0.735352 0.888092 0.191132
0.962372 0.902466 0.354675
0.962646 0.889618 0.442719
0.950500 0.897430 0.448792
0.240936 0.788574 0.276459
0.240936 0.788574 0.276459
0.276489 0.848450 0.234985
0.404572 0.887848 0.224487
0.562653 0.863251 0.258575
0.760162 0.900146 0.360229
0.926208 0.920319 0.453461
0.921631 0.894531 0.451233
0.921631 0.894531 0.451233
0.240936 0.788574 0.276459
0.240936 0.788574 0.276459
0.280090 0.853516 0.230621
0.418091 0.888336 0.229095
0.598267 0.864655 0.272125
0.841492 0.921417 0.410522
0.921631 0.894531 0.451233
0.921631 0.894531 0.451233
0.921631 0.894531 0.451233
0.001801 0.002045 0.024475
0.038971 0.002869 0.019958
0.148438 0.024323 0.057587
0.215240 0.041046 0.077881
0.283112 0.059723 0.105530
0.370544 0.084137 0.140625
0.467773 0.110962 0.179352
0.599182 0.146851 0.231384
0.646820 0.159851 0.250214
0.002869 0.015289 0.013519
0.031067 0.010254 0.012421
0.147980 0.024170 0.049652
0.232605 0.045593 0.084991
0.315216 0.068604 0.118378
0.394531 0.090729 0.150177
0.496155 0.118713 0.190582
0.614014 0.150879 0.237244
0.646820 0.159851 0.250214
0.030151 0.121399 0.035400
0.031555 0.124695 0.036255
0.155243 0.121704 0.003265
0.270905 0.092377 0.037720
0.362396 0.084717 0.092590
0.445312 0.101532 0.147583
0.533447 0.128845 0.204803
0.634430 0.156464 0.245300
0.646820 0.159851 0.250214
0.058075 0.205933 0.066925
0.059845 0.211456 0.068970
0.110107 0.238861 0.034119
0.311646 0.255859 0.006470
0.421844 0.220123 0.027435
0.550476 0.200806 0.091431
0.690125 0.201813 0.149353
0.814758 0.213196 0.196808
0.827789 0.211761 0.205414
0.088684 0.302582 0.102081
0.090302 0.307648 0.103912
0.113129 0.337341 0.079224
0.273590 0.391205 0.037506
0.517365 0.420288 0.021484
0.660156 0.390015 0.059692
0.821503 0.376221 0.126740
0.971527 0.404755 0.207855
0.984802 0.414093 0.216400
0.132904 0.443146 0.152740
0.134369 0.447784 0.154419
0.150787 0.477356 0.137115
0.270447 0.554962 0.085846
0.493225 0.616913 0.063507
0.846283 0.683075 0.073425
0.986023 0.654510 0.156921
0.964233 0.625916 0.271454
0.969177 0.647766 0.286346
0.195831 0.644196 0.224731
0.197235 0.648712 0.226349
0.211182 0.677612 0.217987
0.306580 0.785614 0.145844
0.505219 0.866852 0.153259
0.715973 0.887360 0.195465
0.960327 0.905487 0.354553
0.962494 0.889862 0.442871
0.951599 0.897186 0.448486
0.240936 0.788574 0.276459
0.240936 0.788574 0.276459
0.253326 0.810303 0.263062
0.357025 0.885437 0.210632
0.531128 0.870880 0.253723
0.739594 0.895355 0.348389
0.925781 0.922760 0.453522
0.921631 0.894531 0.451233
0.921631 0.894531 0.451233
0.240936 0.788574 0.276459
0.240936 0.788574 0.276459
0.257812 0.818024 0.258026
0.372986 0.886444 0.214691
0.573883 0.862671 0.262024
0.815369 0.913849 0.393585
0.921631 0.894531 0.451233
0.921631 0.894531 0.451233
0.921631 0.894531 0.451233
0.015625 0.018951 0.083221
0.065308 0.022705 0.110504
0.163483 0.033905 0.142853
0.232300 0.049225 0.148499
0.298340 0.066925 0.164093
0.387146 0.091217 0.193512
0.483337 0.117493 0.229065
0.615051 0.153381 0.279724
0.667389 0.167694 0.301392
0.021088 0.035339 0.110657
0.035858 0.031494 0.116516
0.165985 0.034485 0.144348
0.251617 0.054352 0.154083
0.327057 0.074585 0.169220
0.407135 0.096375 0.194763
0.510468 0.124512 0.232819
0.630707 0.157318 0.279602
0.664429 0.166565 0.294037
0.011230 0.124725 0.126831
0.011749 0.128265 0.129395
0.109802 0.091522 0.098602
0.288635 0.068878 0.110535
0.378052 0.084412 0.146332
0.455780 0.107574 0.187714
0.552521 0.135223 0.234039
0.651154 0.161896 0.268646
0.655060 0.162994 0.270844
0.042450 0.216064 0.138367
0.048370 0.219818 0.122681
0.082886 0.246704 0.073456
0.309235 0.250427 0.027802
0.450775 0.196747 0.049988
0.583435 0.179108 0.118927
0.719971 0.186218 0.181824
0.814972 0.199646 0.230286
0.801636 0.195496 0.235962
0.077271 0.316284 0.165039
0.082581 0.318298 0.148529
0.098907 0.336639 0.115051
0.247192 0.402435 0.045654
0.526337 0.426575 0.022522
0.680328 0.381287 0.069031
0.848602 0.363953 0.144958
0.974304 0.382843 0.216187
0.976013 0.383270 0.217407
0.122528 0.459991 0.216888
0.127625 0.460907 0.199402
0.137726 0.461914 0.163452
0.238403 0.554138 0.093994
0.466064 0.619751 0.067596
0.849457 0.690430 0.075012
0.981049 0.643341 0.164642
0.963257 0.618378 0.270782
0.967468 0.633270 0.282349
0.186188 0.664001 0.290894
0.191956 0.666382 0.272980
0.204010 0.670410 0.234100
0.272125 0.774323 0.163605
0.471191 0.866730 0.156494
0.692749 0.886017 0.202759
0.957703 0.909729 0.359070
0.960907 0.890015 0.444946
0.946472 0.891815 0.451263
0.229858 0.810181 0.350037
0.232452 0.805756 0.333893
0.240936 0.788574 0.276459
0.317383 0.879486 0.209930
0.504669 0.878265 0.254669
0.721619 0.892609 0.347626
0.915741 0.917145 0.457703
0.889771 0.860321 0.439819
0.875366 0.844360 0.435242
0.229126 0.811340 0.354401
0.230408 0.809326 0.346771
0.235718 0.799438 0.312317
0.365692 0.886353 0.256683
0.564056 0.862122 0.296265
0.817993 0.928680 0.446350
0.863068 0.829865 0.438934
0.865204 0.831055 0.451111
0.875793 0.840851 0.473328
0.037018 0.044037 0.150848
0.065765 0.047668 0.174805
0.163544 0.047821 0.202240
0.251007 0.057922 0.218933
0.319305 0.075836 0.230560
0.408020 0.099792 0.256317
0.505371 0.126251 0.290344
0.638641 0.162506 0.340515
0.692383 0.177216 0.363647
0.039307 0.049530 0.162018
0.043243 0.051270 0.171906
0.163361 0.052094 0.214783
0.274872 0.065033 0.240082
0.349792 0.084442 0.246063
0.430664 0.106018 0.265015
0.533051 0.133698 0.299164
0.655609 0.166992 0.344727
0.691223 0.176758 0.360748
0.019257 0.128571 0.194702
0.023651 0.131805 0.209320
0.087189 0.080109 0.239319
0.298584 0.072052 0.257629
0.394318 0.094910 0.256561
0.477905 0.118195 0.275421
0.587402 0.148132 0.312958
0.682709 0.173859 0.345917
0.686737 0.175049 0.349548
0.023895 0.225861 0.230408
0.024811 0.231262 0.234833
0.031433 0.243011 0.244659
0.224792 0.203278 0.211334
0.457703 0.154144 0.217712
0.633453 0.153961 0.249084
0.758392 0.187683 0.305328
0.836609 0.204224 0.340729
0.821411 0.201813 0.345398
0.059967 0.331604 0.252197
0.063263 0.335693 0.246399
0.073639 0.355530 0.235321
0.155334 0.419464 0.151947
0.458588 0.398895 0.154266
0.722778 0.325745 0.143463
0.947723 0.304291 0.224518
0.993805 0.337555 0.314148
0.993805 0.337189 0.318268
0.108521 0.479156 0.298187
0.111908 0.482330 0.290405
0.119629 0.489563 0.272736
0.179382 0.592712 0.203125
0.402344 0.682037 0.100586
0.877686 0.722290 0.143341
0.959808 0.607483 0.254761
0.980896 0.602844 0.403503
0.980743 0.615936 0.419464
0.173798 0.687927 0.373627
0.177185 0.691895 0.366943
0.188232 0.703094 0.342865
0.244354 0.808014 0.292572
0.404480 0.886719 0.229614
0.659149 0.876678 0.281555
0.948975 0.913361 0.438477
0.904816 0.839264 0.467377
0.891052 0.835449 0.473541
0.212921 0.828552 0.436218
0.216431 0.825256 0.419189
0.221680 0.820343 0.393982
0.313782 0.880768 0.354309
0.467346 0.851593 0.321533
0.722717 0.924591 0.461517
0.869080 0.869659 0.492340
0.916779 0.880341 0.542603
0.929596 0.892731 0.563660
0.210358 0.831268 0.449463
0.211487 0.830017 0.443542
0.214783 0.826782 0.427124
0.358765 0.871094 0.369690
0.546478 0.878082 0.395508
0.795776 0.931793 0.516876
0.948151 0.911285 0.596130
0.959473 0.922058 0.616364
0.968140 0.931122 0.636475
0.054962 0.065002 0.212555
0.059967 0.066071 0.217957
0.157227 0.065887 0.251221
0.259430 0.071289 0.283691
0.342499 0.085541 0.302368
0.432739 0.109680 0.325073
0.532318 0.136627 0.358429
0.665619 0.172821 0.408234
0.719757 0.187164 0.432983
0.057434 0.067871 0.221161
0.063049 0.074463 0.240967
0.149231 0.076599 0.278412
0.279236 0.083588 0.322388
0.374115 0.095062 0.330200
0.456329 0.116486 0.341309
0.562103 0.144867 0.372681
0.683807 0.177795 0.416351
0.719879 0.187195 0.433350
0.037476 0.136108 0.250366
0.045837 0.140747 0.277374
0.090302 0.108704 0.313232
0.278656 0.093140 0.354523
0.412567 0.105652 0.362640
0.500000 0.128632 0.364319
0.624084 0.161865 0.398956
0.714233 0.185669 0.427856
0.719055 0.186920 0.431122
0.027710 0.231750 0.302490
0.030792 0.236328 0.315704
0.040436 0.237213 0.350433
0.187378 0.173889 0.380798
0.477600 0.141663 0.416656
0.639282 0.164093 0.410217
0.773499 0.195740 0.429932
0.854187 0.212952 0.451599
0.839081 0.209381 0.452423
0.039551 0.346222 0.353455
0.040344 0.351257 0.357941
0.042511 0.366730 0.372742
0.080811 0.402557 0.403107
0.377899 0.345337 0.357391
0.669739 0.289337 0.366608
0.966003 0.269989 0.404083
0.983948 0.329285 0.458923
0.983002 0.330475 0.466034
0.089996 0.499481 0.398163
0.092773 0.504211 0.395111
0.098663 0.513977 0.388123
0.135925 0.603516 0.381500
0.290161 0.665619 0.282562
0.687805 0.635223 0.316956
0.982788 0.567810 0.413025
0.986603 0.578461 0.523773
0.988434 0.595886 0.533417
0.156799 0.714111 0.477112
0.160919 0.720123 0.470917
0.170441 0.733795 0.456207
0.216095 0.828735 0.431122
0.360840 0.872162 0.354340
0.629578 0.889984 0.385040
0.901794 0.871674 0.475128
0.917175 0.844391 0.556885
0.946564 0.886169 0.609802
0.202515 0.851593 0.518463
0.203094 0.849274 0.511230
0.204651 0.843079 0.492279
0.321167 0.868561 0.451508
0.473969 0.875824 0.465210
0.692474 0.931335 0.544434
0.942566 0.936279 0.651306
0.974884 0.942413 0.686401
0.975708 0.943878 0.694702
0.201050 0.857758 0.538666
0.201447 0.856049 0.532898
0.205872 0.857300 0.525635
0.358154 0.856537 0.493835
0.550476 0.924652 0.563049
0.739563 0.872864 0.557983
0.976074 0.947327 0.710907
0.978271 0.949890 0.724945
0.980011 0.953247 0.741821
0.068329 0.080658 0.259613
0.070312 0.082977 0.266663
0.155365 0.085449 0.303619
0.253204 0.091370 0.338776
0.361633 0.100677 0.382172
0.464111 0.122162 0.411713
0.567902 0.150116 0.444641
0.701080 0.185394 0.491577
0.749756 0.195312 0.512848
0.075958 0.089569 0.286652
0.083710 0.098663 0.314301
0.133301 0.099548 0.336884
0.262970 0.108643 0.387848
0.387512 0.110901 0.416382
0.487213 0.129059 0.432129
0.595856 0.158020 0.461151
0.717834 0.189178 0.501984
0.751495 0.195740 0.517517
0.056458 0.148224 0.313232
0.065186 0.152740 0.341492
0.090424 0.136566 0.371948
0.250061 0.122284 0.425873
0.413177 0.124817 0.461700
0.529510 0.141724 0.469757
0.666412 0.178070 0.505951
0.750977 0.195923 0.525909
0.755219 0.196716 0.527557
0.048828 0.240631 0.369934
0.052521 0.244049 0.383331
0.063538 0.245544 0.417511
0.156250 0.181396 0.520844
0.437805 0.159393 0.566986
0.652435 0.176422 0.574677
0.796234 0.206238 0.570618
0.889374 0.234802 0.590942
0.874329 0.230011 0.588074
0.041290 0.357025 0.446045
0.042908 0.361450 0.454559
0.047607 0.369537 0.474915
0.077240 0.378174 0.571838
0.326813 0.309479 0.558868
0.713684 0.250946 0.627441
0.949341 0.281097 0.621002
0.941650 0.351257 0.614624
0.938263 0.353485 0.623596
0.065155 0.521912 0.525299
0.065979 0.527374 0.530579
0.068207 0.540924 0.543060
0.077850 0.610260 0.613220
0.190552 0.643066 0.622314
0.595337 0.559723 0.569763
0.955078 0.509949 0.623871
0.976532 0.568115 0.652863
0.974335 0.582611 0.662750
0.133362 0.743347 0.607788
0.136078 0.749268 0.606384
0.144257 0.765228 0.599579
0.193451 0.846252 0.576691
0.334747 0.863861 0.535980
0.575684 0.928619 0.565887
0.926208 0.889038 0.610352
0.980957 0.907013 0.722504
0.984009 0.928070 0.749481
0.207031 0.869934 0.608459
0.205963 0.869690 0.604248
0.203369 0.868866 0.592865
0.329742 0.863800 0.589996
0.499146 0.919922 0.660736
0.667389 0.925720 0.666840
0.953400 0.961090 0.768524
0.985077 0.963928 0.798004
0.988068 0.967377 0.815155
0.217255 0.870026 0.650146
0.215820 0.870728 0.643402
0.227814 0.868073 0.634583
0.383820 0.884033 0.673035
0.538147 0.925476 0.724030
0.788177 0.950531 0.775848
0.988861 0.975342 0.846222
0.993439 0.981812 0.873413
0.995880 0.988190 0.902130
0.085358 0.100586 0.320190
0.088623 0.104431 0.331879
0.159271 0.108673 0.367767
0.253601 0.116058 0.406311
0.359436 0.124939 0.450897
0.494141 0.137848 0.505859
0.607727 0.165436 0.545776
0.742218 0.196564 0.593323
0.789154 0.205872 0.618500
0.097626 0.115204 0.364655
0.104340 0.123199 0.389008
0.106934 0.126312 0.398438
0.252991 0.136169 0.461456
0.374756 0.137939 0.489532
0.517548 0.147980 0.541443
0.638733 0.174713 0.574310
0.760345 0.200317 0.612183
0.793121 0.207123 0.628754
0.080200 0.167236 0.396271
0.088318 0.171295 0.422516
0.095276 0.169342 0.438934
0.234314 0.154236 0.509186
0.389160 0.158691 0.549896
0.559723 0.166351 0.602234
0.715698 0.193573 0.644836
0.800323 0.211060 0.656525
0.804688 0.212067 0.656250
0.072510 0.255798 0.450012
0.078369 0.260254 0.470581
0.088959 0.266205 0.505920
0.158661 0.218048 0.615509
0.380951 0.201294 0.671478
0.631775 0.200043 0.724152
0.839142 0.231689 0.752197
0.907867 0.256897 0.745148
0.903015 0.252869 0.747345
0.066956 0.369965 0.530518
0.070435 0.374176 0.544098
0.080231 0.383759 0.580292
0.116211 0.377472 0.682312
0.246216 0.273102 0.806549
0.671509 0.258575 0.872894
0.887756 0.316193 0.814240
0.888641 0.393219 0.791412
0.887268 0.398834 0.801971
0.061218 0.542084 0.658691
0.063080 0.547211 0.668549
0.069275 0.560822 0.697906
0.089508 0.598663 0.789001
0.147919 0.596893 0.882507
0.538879 0.511963 0.832001
0.909302 0.537964 0.875763
0.883179 0.566254 0.800995
0.863983 0.560699 0.793182
0.111816 0.775269 0.746948
0.114838 0.782776 0.749054
0.122620 0.801147 0.752289
0.174194 0.858704 0.765564
0.320190 0.893250 0.813507
0.500366 0.919159 0.858612
0.933533 0.926849 0.926422
0.994598 0.915405 0.920502
0.997162 0.945007 0.935303
0.230591 0.865265 0.725616
0.230499 0.865234 0.725281
0.230316 0.865112 0.724457
0.363342 0.894043 0.775177
0.496887 0.919617 0.811615
0.696411 0.938538 0.873199
0.946350 0.990692 0.941895
0.994720 0.994019 0.961060
0.997711 0.995239 0.979645
0.237915 0.869934 0.754791
0.237457 0.869659 0.753082
0.259003 0.874115 0.760590
0.415253 0.913239 0.823547
0.551758 0.919891 0.847839
0.790588 0.961243 0.933685
0.993011 0.998230 0.992645
0.996582 0.998871 0.993744
0.999512 0.999512 0.994812
0.105774 0.124908 0.394196
0.107117 0.126495 0.399017
0.167938 0.132996 0.436371
0.259125 0.144379 0.485260
0.363403 0.155182 0.534851
0.498291 0.168427 0.596771
0.654846 0.185181 0.668243
0.793976 0.214966 0.713928
0.845428 0.235077 0.740448
0.111084 0.131226 0.413422
0.112244 0.132629 0.417725
0.112518 0.132965 0.418732
0.237793 0.148468 0.492462
0.369843 0.161865 0.554443
0.514313 0.174866 0.617554
0.683105 0.190308 0.689026
0.811188 0.222351 0.728790
0.848267 0.236084 0.747284
0.099396 0.184479 0.465485
0.101959 0.182465 0.470337
0.103546 0.169128 0.458740
0.207092 0.158020 0.513977
0.368530 0.166077 0.565979
0.546173 0.182434 0.644562
0.738495 0.200165 0.720184
0.846954 0.235809 0.758453
0.853363 0.237579 0.760315
0.097321 0.276123 0.538330
0.098938 0.276672 0.543427
0.101288 0.273926 0.547852
0.147400 0.239502 0.636780
0.351807 0.216064 0.711090
0.596313 0.217987 0.772522
0.847168 0.241302 0.838074
0.894073 0.274872 0.808014
0.893921 0.267120 0.805542
0.093109 0.388611 0.621429
0.094635 0.391052 0.627869
0.097534 0.395294 0.639832
0.127472 0.389618 0.723358
0.238342 0.302032 0.867310
0.605530 0.292938 0.916199
0.858795 0.345215 0.887756
0.883301 0.424652 0.850769
0.883789 0.426819 0.851257
0.086548 0.558746 0.745911
0.087677 0.562775 0.752563
0.088776 0.572418 0.763916
0.107971 0.595856 0.837219
0.194916 0.586273 0.907928
0.522461 0.514679 0.890259
0.872406 0.556488 0.915771
0.841919 0.551147 0.817200
0.837677 0.554993 0.812988
0.108276 0.799530 0.817108
0.110992 0.805237 0.814941
0.118805 0.819824 0.808380
0.179108 0.865906 0.828979
0.344910 0.898590 0.879761
0.534607 0.899841 0.908356
0.901215 0.904877 0.984955
0.987518 0.921326 0.981628
0.993164 0.952789 0.988068
0.239685 0.871063 0.761658
0.239685 0.871063 0.761658
0.239685 0.871063 0.761658
0.370819 0.900665 0.811859
0.499969 0.918091 0.838013
0.704803 0.941833 0.906677
0.946167 0.990448 0.984436
0.995026 0.995178 0.994690
0.998108 0.995819 0.995667
0.239685 0.871063 0.761658
0.239685 0.871063 0.761658
0.266296 0.876709 0.771545
0.420410 0.915253 0.831757
0.561310 0.920166 0.855316
0.805389 0.964691 0.940338
0.993225 0.998444 0.995544
0.996826 0.999115 0.996643
0.999756 0.999725 0.997681
0.112518 0.132965 0.418732
0.112518 0.132965 0.418732
0.160339 0.138336 0.449493
0.260834 0.151337 0.504700
0.364746 0.163422 0.557770
0.503143 0.178131 0.624512
0.665253 0.191071 0.696838
0.811951 0.224274 0.745789
0.853455 0.237610 0.760559
0.112518 0.132965 0.418732
0.112518 0.132965 0.418732
0.112518 0.132965 0.418732
0.222717 0.146576 0.484344
0.360077 0.162903 0.555450
0.512848 0.179138 0.629059
0.687531 0.192688 0.705292
0.824615 0.228882 0.750671
0.853455 0.237610 0.760559
0.102417 0.181824 0.470886
0.102936 0.174744 0.464233
0.105133 0.158997 0.448425
0.166138 0.147552 0.475128
0.342377 0.160889 0.546600
0.528046 0.180664 0.636139
0.727844 0.198120 0.717468
0.845978 0.235535 0.758118
0.853455 0.237610 0.760559
0.101166 0.279572 0.552338
0.101227 0.277679 0.550842
0.101349 0.270294 0.544983
0.124817 0.250671 0.597107
0.323029 0.214142 0.698059
0.576569 0.215576 0.762268
0.840485 0.239044 0.835419
0.894104 0.272522 0.807465
0.893738 0.265594 0.804932
0.097504 0.395874 0.640259
0.097504 0.396362 0.640625
0.097504 0.396332 0.640594
0.115967 0.395020 0.694092
0.213318 0.314178 0.857056
0.589722 0.293091 0.916260
0.857391 0.344574 0.889282
0.883636 0.426514 0.851685
0.884247 0.429352 0.852356
0.088989 0.568939 0.761536
0.088837 0.571869 0.763519
0.088470 0.577637 0.767456
0.101929 0.598541 0.823730
0.180756 0.597473 0.905304
0.510345 0.523926 0.890625
0.868011 0.558289 0.911682
0.838959 0.552185 0.815521
0.837799 0.559265 0.814148
0.115784 0.814636 0.810883
0.118744 0.819702 0.808441
0.126007 0.830109 0.802673
0.185333 0.867218 0.819061
0.354706 0.903290 0.875183
0.546570 0.905975 0.907562
0.903992 0.917999 0.987488
0.988770 0.934753 0.986328
0.994659 0.968842 0.992828
0.239685 0.871063 0.761658
0.239685 0.871063 0.761658
0.239685 0.871063 0.761658
0.367249 0.899658 0.810333
0.501740 0.918091 0.838593
0.711121 0.943268 0.909851
0.954102 0.991272 0.988342
0.995178 0.995392 0.997162
0.998322 0.996063 0.998138
0.239685 0.871063 0.761658
0.239685 0.871063 0.761658
0.270020 0.877563 0.772980
0.424225 0.916046 0.832764
0.571777 0.920746 0.859314
0.822266 0.968689 0.947601
0.993439 0.998688 0.997925
0.997040 0.999329 0.999023
0.999969 0.999969 0.999969
