Color-Correction/LUTs/GH5/Basic/IWLTBAP/U-PANASONIC-V-LOG-V9-LTR.cube
# Copyright: (C) Copyright 2010-2018 by IWLTBAP SAS
# Cannot be resold, shared or otherwise redistributed
# Website: https://luts.iwltbap.com
TITLE "Panasonic V-Log Version 9 (Utility LOG to Rec.709)"
LUT_3D_SIZE 5
0.000000 0.000000 0.000000
0.149689 0.026825 0.041229
0.347076 0.075012 0.111267
0.594757 0.135406 0.195831
0.575592 0.130676 0.189056
0.045868 0.145142 0.040131
0.218872 0.176392 0.014801
0.475189 0.149628 0.065277
0.743347 0.179474 0.175995
0.725159 0.177094 0.166992
0.125275 0.379944 0.119385
0.230408 0.454285 0.073792
0.689423 0.563721 0.043854
0.949707 0.493195 0.160767
0.940033 0.502625 0.147705
0.230316 0.694519 0.225128
0.295624 0.776306 0.169708
0.599792 0.877411 0.173279
0.966553 0.932556 0.319122
0.946381 0.935791 0.287903
0.230835 0.695831 0.225616
0.296906 0.777863 0.168610
0.601044 0.884430 0.167145
0.971008 0.934753 0.313660
0.952057 0.939972 0.277344
0.021759 0.027618 0.098053
0.158905 0.041077 0.130249
0.370178 0.087616 0.182007
0.620453 0.147766 0.259949
0.600433 0.143036 0.254059
0.026611 0.157288 0.152557
0.148346 0.144043 0.143158
0.507843 0.125977 0.172577
0.765289 0.180328 0.261932
0.747864 0.175751 0.255219
0.111328 0.404388 0.212128
0.163910 0.475494 0.165619
0.675201 0.571777 0.088379
0.973206 0.454315 0.224060
0.971313 0.459625 0.203033
0.219940 0.721436 0.308533
0.265564 0.794769 0.267365
0.546814 0.877014 0.223053
0.971008 0.952698 0.385071
0.951477 0.958313 0.355072
0.219849 0.721802 0.309692
0.264313 0.795715 0.267639
0.545319 0.881927 0.221191
0.975281 0.956726 0.379608
0.957336 0.963623 0.343689
0.057526 0.068573 0.216583
0.161713 0.078522 0.261261
0.413666 0.114075 0.336121
0.671753 0.174622 0.403625
0.650543 0.169464 0.398254
0.053589 0.173767 0.298706
0.121094 0.143890 0.365540
0.498077 0.142975 0.420990
0.787201 0.205658 0.450500
0.767090 0.200409 0.447449
0.074371 0.446228 0.438416
0.086365 0.488098 0.487671
0.463562 0.460602 0.445618
0.951782 0.382385 0.493134
0.952698 0.370544 0.479828
0.193939 0.776367 0.497192
0.237244 0.833160 0.471313
0.458069 0.881805 0.409790
0.959229 0.960419 0.515167
0.946503 0.982239 0.506012
0.192200 0.775146 0.502930
0.232086 0.836212 0.474548
0.450958 0.878723 0.402832
0.966827 0.969482 0.507050
0.953522 0.994049 0.492310
0.096100 0.115417 0.358398
0.185913 0.127289 0.405823
0.422089 0.154175 0.511932
0.731110 0.208649 0.600952
0.708771 0.203094 0.595062
0.094482 0.206635 0.447540
0.153168 0.185120 0.523010
0.451965 0.189941 0.628876
0.816345 0.241241 0.693024
0.795776 0.233917 0.693115
0.097076 0.465515 0.642883
0.118408 0.474304 0.723541
0.343170 0.393036 0.884521
0.906525 0.456940 0.844788
0.898132 0.432526 0.865753
0.161865 0.826019 0.717346
0.215149 0.857819 0.729401
0.448792 0.939911 0.806732
0.932343 0.922791 0.921326
0.795654 0.906555 0.869568
0.156799 0.826050 0.721100
0.198730 0.860779 0.732178
0.430878 0.943909 0.813477
0.889740 0.885498 0.901886
0.803833 0.898590 0.889984
0.101288 0.122101 0.378876
0.191254 0.134125 0.426941
0.424835 0.161255 0.534485
0.739532 0.213837 0.630737
0.716217 0.207855 0.624054
0.099731 0.213043 0.469788
0.158722 0.192047 0.546753
0.451263 0.198151 0.655090
0.821320 0.247589 0.728943
0.800415 0.239197 0.729767
0.103516 0.469879 0.668274
0.126068 0.476501 0.751587
0.350311 0.399261 0.903931
0.902588 0.479492 0.876068
0.887970 0.455048 0.894714
0.158661 0.831390 0.748993
0.218811 0.864471 0.769379
0.458038 0.940857 0.855225
0.857483 0.882233 0.939240
0.774841 0.891632 0.925781
0.150696 0.831055 0.754517
0.198059 0.865997 0.774719
0.439423 0.943390 0.865417
0.862976 0.866425 0.943298
0.774933 0.878021 0.932281
