Color-Correction/LUTs/GH5/Basic/IWLTBAP/U-PANASONIC-V-LOG-V1-LTR.cube
# Copyright: (C) Copyright 2010-2018 by IWLTBAP SAS
# Cannot be resold, shared or otherwise redistributed
# Website: https://luts.iwltbap.com
TITLE "Panasonic V-Log Version 1 (Utility LOG to Rec.709)"
LUT_3D_SIZE 32
0.000000 0.000000 0.000000
0.000000 0.000000 0.000000
0.000000 0.000000 0.000000
0.000000 0.000000 0.000000
0.000153 0.000000 0.000000
0.014801 0.000000 0.000000
0.028534 0.000000 0.000000
0.050018 0.000000 0.000000
0.072754 0.000000 0.000000
0.106781 0.000000 0.000000
0.144470 0.000000 0.000000
0.197205 0.000000 0.000000
0.256348 0.000000 0.000000
0.331421 0.000000 0.000000
0.416718 0.000000 0.000000
0.508179 0.000000 0.000000
0.605438 0.000000 0.000000
0.695587 0.000000 0.000000
0.778778 0.000000 0.000000
0.853394 0.000000 0.000000
0.916138 0.000000 0.000000
0.964111 0.000000 0.000000
0.983429 0.000000 0.000000
0.998077 0.000000 0.000000
0.999146 0.000000 0.000000
1.000000 0.000000 0.000000
1.000000 0.000000 0.000000
1.000000 0.000000 0.000000
1.000000 0.000000 0.000000
1.000000 0.000000 0.000000
1.000000 0.000000 0.000000
1.000000 0.000000 0.000000
0.000000 0.000000 0.000000
0.000000 0.000000 0.000000
0.000000 0.000000 0.000000
0.000000 0.000000 0.000000
0.000061 0.000000 0.000000
0.015778 0.000000 0.000000
0.029572 0.000000 0.000000
0.051361 0.000000 0.000000
0.074097 0.000000 0.000000
0.108276 0.000000 0.000000
0.146088 0.000000 0.000000
0.198730 0.000000 0.000000
0.257874 0.000000 0.000000
0.333099 0.000000 0.000000
0.418152 0.000000 0.000000
0.509430 0.000000 0.000000
0.606506 0.000000 0.000000
0.696503 0.000000 0.000000
0.779327 0.000000 0.000000
0.853851 0.000000 0.000000
0.916473 0.000000 0.000000
0.964325 0.000000 0.000000
0.983459 0.000000 0.000000
0.998077 0.000000 0.000000
0.999146 0.000000 0.000000
1.000000 0.000000 0.000000
1.000000 0.000000 0.000000
1.000000 0.000000 0.000000
1.000000 0.000000 0.000000
1.000000 0.000000 0.000000
1.000000 0.000000 0.000000
1.000000 0.000000 0.000000
0.000000 0.000000 0.000000
0.000000 0.000000 0.000000
0.000000 0.000000 0.000000
0.000000 0.000000 0.000000
0.000000 0.000000 0.000000
0.015686 0.000000 0.000000
0.030487 0.000000 0.000000
0.052338 0.000000 0.000000
0.075378 0.000000 0.000000
0.109863 0.000000 0.000000
0.147644 0.000000 0.000000
0.200226 0.000000 0.000000
0.259369 0.000000 0.000000
0.334625 0.000000 0.000000
0.419647 0.000000 0.000000
0.511108 0.000000 0.000000
0.607727 0.000000 0.000000
0.697723 0.000000 0.000000
0.780182 0.000000 0.000000
0.854614 0.000000 0.000000
0.916931 0.000000 0.000000
0.964874 0.000000 0.000000
0.983795 0.000000 0.000000
0.998108 0.000000 0.000000
0.999176 0.000000 0.000000
1.000000 0.000000 0.000000
1.000000 0.000000 0.000000
1.000000 0.000000 0.000000
1.000000 0.000000 0.000000
1.000000 0.000000 0.000000
1.000000 0.000000 0.000000
1.000000 0.000000 0.000000
0.000000 0.000000 0.000000
0.000000 0.000000 0.000000
0.000000 0.000000 0.000000
0.000000 0.000000 0.000000
0.000000 0.000000 0.000000
0.015350 0.000000 0.000000
0.030212 0.000000 0.000000
0.053711 0.000000 0.000000
0.076935 0.000000 0.000000
0.112274 0.000000 0.000000
0.150269 0.000000 0.000000
0.203613 0.000000 0.000000
0.263306 0.000000 0.000000
0.339996 0.000000 0.000000
0.425751 0.000000 0.000000
0.516571 0.000000 0.000000
0.612823 0.000000 0.000000
0.701630 0.000000 0.000000
0.783478 0.000000 0.000000
0.856995 0.000000 0.000000
0.918365 0.000000 0.000000
0.965820 0.000000 0.000000
0.983948 0.000000 0.000000
0.998169 0.000000 0.000000
0.999176 0.000000 0.000000
1.000000 0.000000 0.000000
1.000000 0.000000 0.000000
1.000000 0.000000 0.000000
1.000000 0.000000 0.000000
1.000000 0.000000 0.000000
1.000000 0.000000 0.000000
1.000000 0.000000 0.000000
0.000000 0.003662 0.000000
0.000000 0.003723 0.000000
0.000000 0.003632 0.000000
0.000000 0.000000 0.000000
0.000000 0.000000 0.000000
0.013336 0.000000 0.000000
0.029907 0.000000 0.000000
0.053436 0.000000 0.000000
0.078583 0.000000 0.000000
0.113800 0.000000 0.000000
0.152710 0.000000 0.000000
0.206482 0.000000 0.000000
0.266785 0.000000 0.000000
0.343781 0.000000 0.000000
0.431396 0.005127 0.000000
0.522766 0.002594 0.000000
0.618530 0.000000 0.000000
0.706940 0.000000 0.000000
0.787506 0.000000 0.000000
0.860168 0.000000 0.000000
0.920959 0.000000 0.000000
0.967316 0.000000 0.000000
0.984924 0.000000 0.000000
0.998230 0.000000 0.000000
0.999237 0.000000 0.000000
1.000000 0.000000 0.000000
1.000000 0.000000 0.000000
1.000000 0.000000 0.000000
1.000000 0.000000 0.000000
1.000000 0.000000 0.000000
1.000000 0.000000 0.000000
1.000000 0.000000 0.000000
0.000000 0.022186 0.000000
0.000000 0.022247 0.000000
0.000000 0.022278 0.000000
0.000000 0.018524 0.000000
0.000000 0.013977 0.000000
0.011627 0.008514 0.000000
0.028290 0.004608 0.000000
0.053619 0.000000 0.000000
0.078857 0.000000 0.000000
0.115479 0.000000 0.000000
0.154755 0.000000 0.000000
0.209320 0.000000 0.000000
0.270111 0.000000 0.000000
0.346619 0.002380 0.000000
0.433655 0.014587 0.000000
0.525421 0.026672 0.000000
0.620819 0.024994 0.000000
0.708862 0.025391 0.000000
0.789459 0.006714 0.000000
0.861053 0.000000 0.000000
0.920685 0.000000 0.000000
0.967041 0.000000 0.000000
0.985077 0.000000 0.000000
0.998199 0.000000 0.000000
0.999237 0.000000 0.000000
1.000000 0.000000 0.000000
1.000000 0.000000 0.000000
1.000000 0.000000 0.000000
1.000000 0.000000 0.000000
1.000000 0.000000 0.000000
1.000000 0.000000 0.000000
1.000000 0.000000 0.000000
0.000000 0.040802 0.000000
0.000000 0.040863 0.000000
0.000000 0.040894 0.000000
0.000000 0.037018 0.000000
0.000000 0.033173 0.000000
0.008453 0.027954 0.000000
0.026672 0.022827 0.000000
0.052094 0.017365 0.000000
0.079071 0.011292 0.000000
0.115814 0.004059 0.000000
0.156372 0.000000 0.000000
0.211121 0.000000 0.000000
0.272980 0.000000 0.000000
0.349701 0.003326 0.000000
0.436218 0.015198 0.000000
0.527435 0.027191 0.000000
0.622620 0.039948 0.000000
0.710785 0.047333 0.000000
0.790863 0.057831 0.000000
0.862274 0.058075 0.000000
0.920807 0.065826 0.000000
0.966217 0.067169 0.000000
0.984619 0.069611 0.000000
0.998169 0.062836 0.000000
0.999207 0.045746 0.000000
1.000000 0.017120 0.000000
1.000000 0.000000 0.000000
1.000000 0.000000 0.000000
1.000000 0.000000 0.000000
1.000000 0.000000 0.000000
1.000000 0.000000 0.000000
1.000000 0.000000 0.000000
0.000000 0.069275 0.000000
0.000000 0.069275 0.000000
0.000000 0.069336 0.000000
0.000000 0.066986 0.000000
0.000000 0.063354 0.000000
0.003998 0.057037 0.000000
0.022919 0.051971 0.000000
0.048584 0.043976 0.000000
0.075439 0.038300 0.000000
0.114319 0.030060 0.000000
0.155090 0.022186 0.000000
0.211426 0.011475 0.000000
0.273407 0.010132 0.000000
0.350983 0.008759 0.000000
0.437683 0.017273 0.000000
0.528687 0.028168 0.000000
0.624084 0.040405 0.000000
0.711487 0.051666 0.000000
0.791260 0.061920 0.000000
0.861664 0.071381 0.000000
0.919250 0.078888 0.000000
0.965027 0.084686 0.000000
0.984344 0.087402 0.000000
0.998077 0.089172 0.000000
0.999207 0.081543 0.000000
1.000000 0.068207 0.000000
1.000000 0.040436 0.000000
1.000000 0.000000 0.000000
1.000000 0.000000 0.000000
1.000000 0.000000 0.000000
1.000000 0.000000 0.000000
1.000000 0.000000 0.000000
0.000000 0.099701 0.000000
0.000000 0.099731 0.000000
0.000000 0.099762 0.000000
0.000000 0.097687 0.000000
0.000000 0.095306 0.000000
0.000000 0.089111 0.000000
0.018677 0.082611 0.000000
0.044556 0.074890 0.000000
0.071564 0.066437 0.000000
0.110535 0.058533 0.000000
0.152924 0.049652 0.000000
0.209656 0.039551 0.000000
0.273315 0.027802 0.000000
0.351105 0.024933 0.000000
0.438599 0.022278 0.000000
0.529877 0.030487 0.000000
0.625153 0.041382 0.000000
0.712494 0.052124 0.000000
0.791595 0.062073 0.000000
0.861725 0.071381 0.000000
0.917847 0.078735 0.000000
0.962646 0.084381 0.000000
0.983032 0.087219 0.000000
0.997955 0.089142 0.000000
0.999115 0.089294 0.000000
1.000000 0.084869 0.000000
1.000000 0.084869 0.000000
1.000000 0.066833 0.000000
1.000000 0.066833 0.000000
1.000000 0.058441 0.000000
1.000000 0.058441 0.000000
1.000000 0.053101 0.000000
0.000000 0.144867 0.000000
0.000000 0.144928 0.000000
0.000000 0.144958 0.000000
0.000000 0.144592 0.000000
0.000000 0.142426 0.000000
0.000000 0.134796 0.000000
0.010590 0.128387 0.000000
0.039429 0.118896 0.000000
0.066315 0.110718 0.000000
0.103882 0.098206 0.000000
0.146667 0.089630 0.000000
0.204224 0.080322 0.000000
0.268005 0.069336 0.000000
0.347382 0.057861 0.000000
0.434967 0.054108 0.000000
0.527252 0.045807 0.000000
0.622711 0.051575 0.000000
0.710632 0.056793 0.000000
0.789948 0.063965 0.000000
0.859406 0.072174 0.000000
0.915680 0.078949 0.000000
0.960846 0.084503 0.000000
0.982391 0.087311 0.000000
0.997864 0.089203 0.000000
0.999084 0.089325 0.000000
1.000000 0.089417 0.000000
1.000000 0.089386 0.000000
1.000000 0.089386 0.000000
1.000000 0.089386 0.000000
1.000000 0.089386 0.000000
1.000000 0.089386 0.000000
1.000000 0.089386 0.000000
0.000000 0.194580 0.000000
0.000000 0.194641 0.000000
0.000000 0.194702 0.000000
0.000000 0.194824 0.000000
0.000000 0.194458 0.000000
0.000000 0.186646 0.000000
0.000427 0.178314 0.000000
0.030518 0.168884 0.000000
0.060547 0.158508 0.000000
0.098297 0.146576 0.000000
0.139191 0.132904 0.000000
0.197083 0.123627 0.000000
0.261597 0.114166 0.000000
0.340973 0.103210 0.000000
0.429871 0.091492 0.000000
0.522308 0.082336 0.000000
0.619049 0.069153 0.000000
0.707031 0.069519 0.000000
0.786865 0.068726 0.000000
0.856750 0.074127 0.000000
0.912567 0.079834 0.000000
0.957642 0.084808 0.000000
0.981140 0.087494 0.000000
0.997742 0.089355 0.000000
0.999023 0.089417 0.000000
1.000000 0.089508 0.000000
1.000000 0.089417 0.000000
1.000000 0.089417 0.000000
1.000000 0.089386 0.000000
1.000000 0.089386 0.000000
1.000000 0.089386 0.000000
1.000000 0.089386 0.000000
0.000000 0.264404 0.000000
0.000000 0.264496 0.000000
0.000000 0.264557 0.000000
0.000000 0.264557 0.000000
0.000000 0.264709 0.000000
0.000000 0.258148 0.000000
0.000000 0.249695 0.000000
0.021576 0.237244 0.000000
0.052277 0.227234 0.000000
0.093719 0.211151 0.000000
0.134552 0.198059 0.000000
0.186035 0.179321 0.000000
0.250793 0.170166 0.000000
0.330536 0.162231 0.000000
0.419647 0.151215 0.000000
0.514130 0.137939 0.000000
0.611237 0.125183 0.000000
0.700836 0.107788 0.000000
0.781189 0.102814 0.000000
0.852325 0.094971 0.000000
0.908997 0.094147 0.000000
0.955200 0.094543 0.000000
0.979950 0.092773 0.000000
0.997620 0.093658 0.000000
0.998993 0.091980 0.000000
1.000000 0.091766 0.000000
1.000000 0.091217 0.000000
1.000000 0.091125 0.000000
1.000000 0.090851 0.000000
1.000000 0.090820 0.000000
1.000000 0.090637 0.000000
1.000000 0.090637 0.000000
0.000000 0.343109 0.000000
0.000000 0.343231 0.000000
0.000000 0.343323 0.000000
0.000000 0.343323 0.000000
0.000000 0.343323 0.000000
0.000000 0.337189 0.000000
0.000000 0.329834 0.000000
0.021667 0.317139 0.000000
0.043732 0.304108 0.000000
0.085602 0.287994 0.000000
0.130310 0.270325 0.000000
0.181885 0.252014 0.000000
0.238190 0.231140 0.000000
0.318390 0.223389 0.000000
0.407623 0.216522 0.000000
0.502167 0.203857 0.000000
0.601471 0.189240 0.000000
0.691681 0.172333 0.000000
0.773987 0.150452 0.000000
0.845612 0.138641 0.000000
0.904083 0.120514 0.000000
0.950989 0.114563 0.000000
0.978394 0.104950 0.000000
0.997284 0.101746 0.000000
0.998871 0.097595 0.000000
1.000000 0.095795 0.000000
1.000000 0.094635 0.000000
1.000000 0.093994 0.000000
1.000000 0.093292 0.000000
1.000000 0.093018 0.000000
1.000000 0.092621 0.000000
1.000000 0.092438 0.000000
0.000000 0.436615 0.000000
0.000000 0.436707 0.000000
0.000000 0.436798 0.000000
0.000000 0.436829 0.000000
0.000000 0.436798 0.000000
0.000000 0.434753 0.000000
0.000000 0.427765 0.000000
0.019470 0.412994 0.000000
0.040314 0.399475 0.000000
0.077606 0.381348 0.000000
0.122742 0.363495 0.000000
0.180481 0.340454 0.000000
0.236786 0.320007 0.000000
0.302734 0.295105 0.000000
0.392334 0.288361 0.000000
0.488007 0.280212 0.000000
0.587616 0.266296 0.000000
0.680847 0.248505 0.000000
0.763977 0.227112 0.000000
0.837585 0.203613 0.000000
0.896576 0.184448 0.000000
0.946289 0.165619 0.000000
0.974792 0.153046 0.000000
0.995911 0.142303 0.000000
0.998627 0.134735 0.000000
0.999939 0.129547 0.000000
1.000000 0.125092 0.000000
1.000000 0.122955 0.000000
1.000000 0.119598 0.000000
1.000000 0.118744 0.000000
1.000000 0.114685 0.000000
1.000000 0.114288 0.000000
0.000000 0.539093 0.000000
0.000000 0.539154 0.000000
0.000000 0.539215 0.000000
0.000000 0.539246 0.000000
0.000000 0.539246 0.000000
0.000000 0.539185 0.000000
0.000000 0.537354 0.000000
0.016479 0.521759 0.000000
0.035583 0.505127 0.000000
0.072876 0.486694 0.000000
0.115051 0.466827 0.000000
0.173492 0.443848 0.000000
0.237091 0.418213 0.000000
0.302979 0.394043 0.000000
0.375153 0.366821 0.000000
0.471100 0.358612 0.000000
0.572296 0.349426 0.000000
0.665771 0.332306 0.000000
0.752594 0.310547 0.000000
0.826782 0.287598 0.000000
0.888000 0.262115 0.000000
0.937988 0.242096 0.000000
0.970337 0.221619 0.000000
0.992950 0.207977 0.000000
0.997559 0.193634 0.000000
0.999786 0.185211 0.000000
0.999939 0.175781 0.000000
1.000000 0.170471 0.000000
1.000000 0.163696 0.000000
1.000000 0.159760 0.000000
1.000000 0.152771 0.000000
1.000000 0.149017 0.000000
0.000000 0.639557 0.001953
0.000000 0.639618 0.001892
0.000000 0.639679 0.001862
0.000000 0.639709 0.000763
0.000000 0.639709 0.000000
0.000000 0.639618 0.000000
0.000000 0.639557 0.000000
0.019501 0.629547 0.000000
0.038025 0.612274 0.000000
0.062439 0.594330 0.000000
0.104797 0.574402 0.000000
0.163727 0.551819 0.000000
0.227997 0.526215 0.000000
0.302063 0.498596 0.000000
0.374237 0.471832 0.000000
0.452698 0.443512 0.000000
0.554138 0.434235 0.000000
0.650726 0.420563 0.000000
0.737976 0.399414 0.000000
0.815643 0.375732 0.000000
0.877075 0.350220 0.000000
0.930359 0.325806 0.000000
0.963837 0.305176 0.000000
0.989990 0.286377 0.000000
0.995789 0.272064 0.000000
0.999634 0.258942 0.000000
0.999908 0.249725 0.000000
1.000000 0.240906 0.000000
1.000000 0.234375 0.000000
1.000000 0.227722 0.000000
1.000000 0.221008 0.000000
1.000000 0.214203 0.000000
0.000000 0.738464 0.029266
0.000000 0.738525 0.029266
0.000000 0.738586 0.029236
0.000000 0.738617 0.028961
0.000000 0.738647 0.028107
0.000000 0.738525 0.027191
0.000000 0.738403 0.024353
0.000000 0.730652 0.004730
0.045715 0.718872 0.000000
0.065521 0.701569 0.000000
0.089844 0.684052 0.000000
0.149628 0.661743 0.000000
0.216248 0.638214 0.000000
0.291412 0.610840 0.000000
0.372040 0.581879 0.000000
0.450775 0.553986 0.000000
0.534851 0.524750 0.000000
0.631683 0.511261 0.000000
0.723297 0.492493 0.000000
0.801147 0.469299 0.000000
0.865540 0.442230 0.000000
0.919525 0.417694 0.000000
0.957581 0.395050 0.000000
0.985107 0.375977 0.000000
0.994324 0.361237 0.000000
0.999390 0.348083 0.000000
0.999817 0.339111 0.000000
1.000000 0.330261 0.000000
1.000000 0.323914 0.000000
1.000000 0.317535 0.000000
1.000000 0.311249 0.000000
1.000000 0.304657 0.000000
0.000000 0.825470 0.049438
0.000000 0.825500 0.049408
0.000000 0.825562 0.049408
0.000000 0.825562 0.049225
0.000000 0.825592 0.048950
0.000000 0.825531 0.048401
0.000000 0.825378 0.047668
0.000000 0.820496 0.033356
0.023376 0.810944 0.011536
0.064240 0.797424 0.000000
0.084076 0.780243 0.000000
0.130096 0.761627 0.000000
0.197845 0.738586 0.000000
0.275787 0.714966 0.000000
0.357330 0.686401 0.000000
0.443970 0.658966 0.000000
0.528107 0.629822 0.000000
0.613281 0.601807 0.000000
0.705109 0.583252 0.000000
0.787201 0.561279 0.000000
0.851929 0.534515 0.000000
0.909729 0.508301 0.000000
0.948914 0.485596 0.000000
0.980957 0.465027 0.000000
0.991547 0.450378 0.000000
0.999115 0.437073 0.000000
0.999664 0.428375 0.000000
1.000000 0.419891 0.000000
1.000000 0.414093 0.000000
1.000000 0.408203 0.000000
1.000000 0.402374 0.000000
1.000000 0.395996 0.000000
0.000000 0.899475 0.063110
0.000000 0.899475 0.063110
0.000000 0.899536 0.063049
0.000000 0.899597 0.062897
0.000000 0.899597 0.062531
0.000000 0.899536 0.062073
0.000000 0.899414 0.061493
0.000000 0.896790 0.049500
0.019562 0.891327 0.032410
0.058624 0.878693 0.016602
0.073029 0.864197 0.000000
0.116638 0.846710 0.000000
0.173157 0.828125 0.000000
0.252167 0.805542 0.000000
0.337128 0.782593 0.000000
0.424561 0.755371 0.000000
0.515869 0.729279 0.000000
0.601166 0.701538 0.000000
0.687653 0.674744 0.000000
0.770111 0.653015 0.000000
0.838715 0.625977 0.000000
0.896851 0.600006 0.000000
0.941803 0.575134 0.000000
0.974731 0.554474 0.000000
0.989807 0.539368 0.000000
0.998749 0.526093 0.000000
0.999542 0.518127 0.000000
1.000000 0.510101 0.000000
1.000000 0.505280 0.000000
1.000000 0.499634 0.000000
1.000000 0.494690 0.000000
1.000000 0.488983 0.000000
0.000000 0.954346 0.072906
0.000000 0.954346 0.072906
0.000000 0.954346 0.072906
0.000000 0.954346 0.072845
0.000000 0.954346 0.072754
0.000000 0.954315 0.072479
0.000000 0.954285 0.071991
0.000000 0.952942 0.065765
0.000000 0.949524 0.050781
0.056030 0.943115 0.034393
0.068146 0.929443 0.020691
0.099365 0.917511 0.000000
0.153931 0.900116 0.000000
0.226013 0.883942 0.000000
0.311951 0.861969 0.000000
0.401825 0.840759 0.000000
0.493958 0.815277 0.000000
0.585266 0.790894 0.000000
0.671906 0.764343 0.000000
0.753906 0.739258 0.000000
0.822815 0.712433 0.000000
0.884705 0.686035 0.000000
0.929962 0.661316 0.000000
0.968994 0.639008 0.000000
0.985321 0.623840 0.000000
0.998047 0.610229 0.000000
0.999298 0.602325 0.000000
0.999969 0.595032 0.000000
1.000000 0.590820 0.000000
1.000000 0.586121 0.000000
1.000000 0.581787 0.000000
1.000000 0.577087 0.000000
0.000000 0.980591 0.077362
0.000000 0.980591 0.077362
0.000000 0.980591 0.077362
0.000000 0.980560 0.077332
0.000000 0.980530 0.077271
0.000000 0.980530 0.077118
0.000000 0.980530 0.076843
0.000000 0.980469 0.076385
0.000000 0.979126 0.070221
0.000000 0.976288 0.052124
0.066620 0.970123 0.034607
0.091187 0.961182 0.015686
0.127960 0.951721 0.000000
0.199860 0.937653 0.000000
0.282776 0.924072 0.000000
0.373260 0.904144 0.000000
0.467163 0.884979 0.000000
0.559082 0.861237 0.000000
0.649994 0.838776 0.000000
0.732422 0.813873 0.000000
0.808411 0.791412 0.000000
0.870575 0.765198 0.000000
0.919647 0.739868 0.000000
0.958954 0.717682 0.000000
0.981842 0.701385 0.000000
0.995575 0.687805 0.000000
0.998749 0.680237 0.000000
0.999908 0.673065 0.000000
1.000000 0.669647 0.000000
1.000000 0.665588 0.000000
1.000000 0.662354 0.000000
1.000000 0.658295 0.000000
0.000000 0.998444 0.080719
0.000000 0.998444 0.080688
0.000000 0.998444 0.080688
0.000000 0.998413 0.080658
0.000000 0.998383 0.080658
0.000000 0.998383 0.080536
0.000000 0.998383 0.080383
0.000000 0.998352 0.080017
0.000000 0.998260 0.079559
0.000000 0.997284 0.066681
0.036011 0.994659 0.047394
0.083008 0.991760 0.029205
0.113403 0.985077 0.007111
0.173309 0.979340 0.000000
0.255981 0.967804 0.000000
0.344971 0.957581 0.000000
0.439606 0.939667 0.000000
0.532959 0.923492 0.000000
0.624634 0.901672 0.000000
0.711243 0.881622 0.000000
0.787323 0.859070 0.000000
0.857544 0.838287 0.000000
0.906677 0.813110 0.000000
0.950195 0.790222 0.000000
0.973724 0.774017 0.000000
0.993561 0.759674 0.000000
0.997223 0.752136 0.000000
0.999817 0.745300 0.000000
0.999939 0.742065 0.000000
1.000000 0.738983 0.000000
1.000000 0.736084 0.000000
1.000000 0.733124 0.000000
0.000000 0.999359 0.081085
0.000000 0.999359 0.081085
0.000000 0.999359 0.081085
0.000000 0.999359 0.081024
0.000000 0.999359 0.081024
0.000000 0.999329 0.080933
0.000000 0.999329 0.080841
0.000000 0.999329 0.080383
0.000000 0.999298 0.079926
0.000000 0.999268 0.068604
0.032166 0.998322 0.051666
0.073364 0.997528 0.036530
0.092224 0.995148 0.020538
0.150543 0.992584 0.000000
0.227783 0.989410 0.000000
0.317474 0.982239 0.000000
0.412964 0.975861 0.000000
0.506775 0.961456 0.000000
0.599518 0.949493 0.000000
0.686646 0.929901 0.000000
0.766937 0.913422 0.000000
0.837280 0.892487 0.000000
0.896027 0.875122 0.000000
0.939758 0.852142 0.000000
0.969025 0.835449 0.000000
0.989227 0.820892 0.000000
0.996368 0.813141 0.000000
0.999725 0.806305 0.000000
0.999908 0.804077 0.000000
1.000000 0.800995 0.000000
1.000000 0.799072 0.000000
1.000000 0.796417 0.000000
0.000000 1.000000 0.081177
0.000000 1.000000 0.081177
0.000000 1.000000 0.081177
0.000000 1.000000 0.081177
0.000000 1.000000 0.081146
0.000000 1.000000 0.081024
0.000000 1.000000 0.080963
0.000000 1.000000 0.080597
0.000000 1.000000 0.080078
0.000000 1.000000 0.071960
0.000671 1.000000 0.056671
0.069214 1.000000 0.040619
0.082397 1.000000 0.027496
0.128082 1.000000 0.000000
0.203583 1.000000 0.000000
0.290955 0.999146 0.000000
0.386932 0.995575 0.000000
0.482086 0.991821 0.000000
0.575256 0.981384 0.000000
0.663940 0.972107 0.000000
0.744690 0.955841 0.000000
0.818726 0.941467 0.000000
0.877563 0.923950 0.000000
0.930603 0.908051 0.000000
0.960083 0.891235 0.000000
0.985870 0.876343 0.000000
0.993317 0.868622 0.000000
0.999603 0.861664 0.000000
0.999847 0.859253 0.000000
1.000000 0.857117 0.000000
1.000000 0.855438 0.000000
1.000000 0.853302 0.000000
0.000000 1.000000 0.080536
0.000000 1.000000 0.080536
0.000000 1.000000 0.080536
0.000000 1.000000 0.080475
0.000000 1.000000 0.080475
0.000000 1.000000 0.080383
0.000000 1.000000 0.080292
0.000000 1.000000 0.080017
0.000000 1.000000 0.079590
0.000000 1.000000 0.076660
0.000000 1.000000 0.067688
0.046173 1.000000 0.048462
0.077576 1.000000 0.029938
0.115753 1.000000 0.000000
0.176971 1.000000 0.000000
0.265350 1.000000 0.000000
0.363464 0.999146 0.000000
0.459717 0.997375 0.000000
0.555634 0.995148 0.000000
0.644806 0.987518 0.000000
0.727692 0.982086 0.000000
0.802277 0.968323 0.000000
0.864166 0.958679 0.000000
0.917236 0.942627 0.000000
0.955109 0.930725 0.000000
0.980957 0.915863 0.000000
0.992798 0.908173 0.000000
0.999359 0.901215 0.000000
0.999817 0.899109 0.000000
1.000000 0.897034 0.000000
1.000000 0.896118 0.000000
1.000000 0.894409 0.000000
0.000000 1.000000 0.079498
0.000000 1.000000 0.079498
0.000000 1.000000 0.079498
0.000000 1.000000 0.079498
0.000000 1.000000 0.079468
0.000000 1.000000 0.079346
0.000000 1.000000 0.079254
0.000000 1.000000 0.078979
0.000000 1.000000 0.078705
0.000000 1.000000 0.076263
0.000000 1.000000 0.072784
0.016998 1.000000 0.057343
0.061768 1.000000 0.035583
0.107208 1.000000 0.000000
0.161163 1.000000 0.000000
0.239502 1.000000 0.000000
0.339020 1.000000 0.000000
0.437866 1.000000 0.000000
0.534668 1.000000 0.000000
0.626770 0.999329 0.000000
0.710358 0.995544 0.000000
0.786774 0.991882 0.000000
0.849182 0.982544 0.000000
0.905579 0.973724 0.000000
0.943481 0.961884 0.000000
0.976776 0.950989 0.000000
0.988617 0.943298 0.000000
0.999084 0.936340 0.000000
0.999603 0.934479 0.000000
1.000000 0.932709 0.000000
1.000000 0.931610 0.000000
1.000000 0.930664 0.000000
0.000000 1.000000 0.076813
0.000000 1.000000 0.076782
0.000000 1.000000 0.076782
0.000000 1.000000 0.076782
0.000000 1.000000 0.076752
0.000000 1.000000 0.076569
0.000000 1.000000 0.076477
0.000000 1.000000 0.076233
0.000000 1.000000 0.075928
0.000000 1.000000 0.075073
0.000000 1.000000 0.072723
0.000000 1.000000 0.057007
0.061768 1.000000 0.034973
0.097443 1.000000 0.000000
0.137085 1.000000 0.000000
0.216187 1.000000 0.000000
0.315643 1.000000 0.000000
0.416687 1.000000 0.000000
0.518158 1.000000 0.000000
0.611267 1.000000 0.000000
0.698395 0.999329 0.000000
0.775238 0.996521 0.000000
0.839752 0.994812 0.000000
0.896698 0.986328 0.000000
0.938995 0.979248 0.000000
0.972290 0.968384 0.000000
0.987854 0.961670 0.000000
0.998352 0.954712 0.000000
0.999512 0.952820 0.000000
1.000000 0.950806 0.000000
1.000000 0.950348 0.000000
1.000000 0.949493 0.000000
0.000000 1.000000 0.073914
0.000000 1.000000 0.073883
0.000000 1.000000 0.073883
0.000000 1.000000 0.073853
0.000000 1.000000 0.073822
0.000000 1.000000 0.073700
0.000000 1.000000 0.073517
0.000000 1.000000 0.073212
0.000000 1.000000 0.072937
0.000000 1.000000 0.072083
0.000000 1.000000 0.071014
0.000000 1.000000 0.056763
0.015381 1.000000 0.034454
0.095306 1.000000 0.000000
0.125427 1.000000 0.000000
0.192688 1.000000 0.000000
