Color-Correction/LUTs/GH5/Basic/IWLTBAP/U-PANASONIC-V-LOG-V5-LTR.cube
# Copyright: (C) Copyright 2010-2018 by IWLTBAP SAS
# Cannot be resold, shared or otherwise redistributed
# Website: https://luts.iwltbap.com
TITLE "Panasonic V-Log Version 5 (Utility LOG to Rec.709)"
LUT_3D_SIZE 9
0.000000 0.000000 0.000000
0.000000 0.000000 0.000000
0.123322 0.000000 0.000000
0.349152 0.000000 0.000000
0.603302 0.000000 0.000000
0.854980 0.000000 0.000000
1.000000 0.000000 0.000000
1.000000 0.000000 0.006592
1.000000 0.000000 0.019287
0.000000 0.000000 0.000000
0.000000 0.000000 0.000000
0.113586 0.000000 0.000000
0.344116 0.000000 0.000000
0.600067 0.000000 0.000000
0.852386 0.000000 0.000000
1.000000 0.000000 0.000000
1.000000 0.000000 0.000000
1.000000 0.000000 0.007416
0.000000 0.109436 0.000000
0.000000 0.108551 0.000000
0.085968 0.106293 0.000000
0.329529 0.123077 0.000000
0.590546 0.135132 0.000000
0.845184 0.140533 0.000000
1.000000 0.145538 0.000000
1.000000 0.167908 0.000000
1.000000 0.204651 0.000000
0.000000 0.321320 0.000000
0.000000 0.320862 0.000000
0.000000 0.319611 0.000000
0.284515 0.315857 0.000000
0.563507 0.341858 0.000000
0.825684 0.364227 0.000000
1.000000 0.385986 0.000000
1.000000 0.413757 0.000000
1.000000 0.448822 0.000000
0.000000 0.560669 0.000000
0.000000 0.560394 0.000000
0.000000 0.559509 0.000000
0.201447 0.557190 0.000000
0.509949 0.552826 0.000000
0.790192 0.579834 0.000000
1.000000 0.605591 0.000000
1.000000 0.635529 0.000000
1.000000 0.668884 0.000000
0.000000 0.797852 0.000000
0.000000 0.797668 0.000000
0.000000 0.796997 0.000000
0.000000 0.795197 0.000000
0.444885 0.792206 0.000000
0.733551 0.787689 0.000000
0.981201 0.814789 0.000000
1.000000 0.844482 0.000000
1.000000 0.875824 0.000000
0.000000 1.000000 0.000000
0.000000 1.000000 0.000000
0.000000 1.000000 0.000000
0.000000 1.000000 0.000000
0.329437 1.000000 0.000000
0.689819 0.997284 0.000000
0.929413 0.993103 0.000000
1.000000 1.000000 0.000000
1.000000 1.000000 0.000000
0.000000 1.000000 0.000000
0.000000 1.000000 0.000000
0.000000 1.000000 0.000000
0.000000 1.000000 0.000000
0.276306 1.000000 0.000000
0.680206 1.000000 0.000000
0.916626 1.000000 0.000000
1.000000 1.000000 0.000000
1.000000 1.000000 0.000000
0.000000 1.000000 0.000000
0.000000 1.000000 0.000000
0.000000 1.000000 0.000000
0.000000 1.000000 0.000000
0.311249 1.000000 0.000000
0.709167 1.000000 0.000000
0.929138 1.000000 0.000000
1.000000 1.000000 0.000000
1.000000 1.000000 0.000000
0.000000 0.000000 0.000000
0.000000 0.000000 0.000000
0.121338 0.000000 0.000000
0.348145 0.000000 0.000000
0.602692 0.000000 0.000000
0.854401 0.000000 0.028198
1.000000 0.000000 0.057770
1.000000 0.000000 0.083313
1.000000 0.000000 0.103394
0.000000 0.000000 0.000000
0.000000 0.000000 0.000000
0.136658 0.000000 0.000000
0.378326 0.000000 0.000000
0.634857 0.000000 0.009064
0.886200 0.000000 0.038055
1.000000 0.000000 0.069183
1.000000 0.000000 0.093475
1.000000 0.000000 0.114624
0.000000 0.102905 0.000000
0.000000 0.126068 0.000000
0.106506 0.123505 0.000000
0.362213 0.142426 0.000000
0.624207 0.154907 0.000000
0.877777 0.164154 0.014008
1.000000 0.172577 0.044891
1.000000 0.197388 0.067596
1.000000 0.234863 0.086914
0.000000 0.317932 0.000000
0.000000 0.351013 0.000000
0.000000 0.349518 0.000000
0.315155 0.345673 0.000000
0.595367 0.371399 0.000000
0.857178 0.394135 0.000000
1.000000 0.416168 0.000000
1.000000 0.445343 0.001404
1.000000 0.479462 0.020996
0.000000 0.558533 0.000000
0.000000 0.591797 0.000000
0.000000 0.590881 0.000000
0.234467 0.588348 0.000000
0.541077 0.583893 0.000000
0.820709 0.610718 0.000000
1.000000 0.636841 0.000000
1.000000 0.666901 0.000000
1.000000 0.700317 0.000000
0.000000 0.796173 0.000000
0.000000 0.828430 0.000000
0.000000 0.827667 0.000000
0.000000 0.825867 0.000000
0.478058 0.822754 0.000000
0.763824 0.818176 0.000000
0.997803 0.845367 0.000000
1.000000 0.874023 0.000000
1.000000 0.904755 0.000000
0.000000 1.000000 0.000000
0.000000 1.000000 0.000000
0.000000 1.000000 0.000000
0.000000 1.000000 0.000000
0.383881 1.000000 0.000000
0.726471 1.000000 0.000000
0.948700 1.000000 0.000000
1.000000 1.000000 0.000000
1.000000 1.000000 0.000000
0.000000 1.000000 0.000000
0.000000 1.000000 0.000000
0.000000 1.000000 0.000000
0.000000 1.000000 0.000000
0.346741 1.000000 0.000000
0.722626 1.000000 0.000000
0.938965 1.000000 0.000000
1.000000 1.000000 0.000000
1.000000 1.000000 0.000000
0.000000 1.000000 0.000000
0.000000 1.000000 0.000000
0.000000 1.000000 0.000000
0.000000 1.000000 0.000000
0.402679 1.000000 0.000000
0.755310 1.000000 0.000000
0.950012 1.000000 0.000000
1.000000 1.000000 0.000000
1.000000 1.000000 0.000000
0.000000 0.000000 0.062469
0.000000 0.000000 0.062714
0.115997 0.000000 0.063538
0.345184 0.000000 0.090332
0.600647 0.000000 0.121979
0.852905 0.000000 0.155975
1.000000 0.000000 0.193573
1.000000 0.000000 0.226746
1.000000 0.000000 0.258301
0.000000 0.000000 0.058868
0.000000 0.000000 0.083069
0.130676 0.000000 0.083954
0.375061 0.000000 0.113464
0.632599 0.000000 0.145447
0.884460 0.000000 0.182190
1.000000 0.000000 0.218445
1.000000 0.000000 0.252625
1.000000 0.000000 0.283783
0.000000 0.084991 0.049408
0.000000 0.106659 0.072876
0.124939 0.129028 0.099731
0.392242 0.145813 0.128998
0.655579 0.158783 0.163208
0.908813 0.165527 0.198975
1.000000 0.174683 0.235535
1.000000 0.200806 0.268311
1.000000 0.237457 0.298798
0.000000 0.308228 0.038452
0.000000 0.340240 0.063965
0.000183 0.371094 0.091156
0.342773 0.366974 0.094543
0.625366 0.391357 0.129395
0.886841 0.412537 0.166412
1.000000 0.434235 0.203827
1.000000 0.462433 0.237244
1.000000 0.495789 0.268036
0.000000 0.552063 0.000000
0.000000 0.584625 0.010956
0.000000 0.616211 0.046295
0.263763 0.613617 0.051086
0.570160 0.609100 0.058777
0.849487 0.634644 0.102509
1.000000 0.660156 0.145111
1.000000 0.689667 0.181549
1.000000 0.721680 0.215240
0.000000 0.791321 0.000000
0.000000 0.822754 0.000000
0.000000 0.853577 0.000000
0.024628 0.851624 0.000000
0.507660 0.848389 0.000000
0.792297 0.843811 0.000000
1.000000 0.869354 0.030945
1.000000 0.897217 0.082458
1.000000 0.923981 0.128296
0.000000 0.999451 0.000000
0.000000 1.000000 0.000000
0.000000 1.000000 0.000000
0.000000 1.000000 0.000000
0.426941 1.000000 0.000000
0.759247 1.000000 0.000000
0.964996 1.000000 0.000000
1.000000 1.000000 0.000000
1.000000 1.000000 0.017761
0.000000 1.000000 0.000000
0.000000 1.000000 0.000000
0.000000 1.000000 0.000000
0.000000 1.000000 0.000000
0.418427 1.000000 0.000000
0.763123 1.000000 0.000000
0.955811 1.000000 0.000000
1.000000 1.000000 0.000000
1.000000 1.000000 0.000000
0.000000 1.000000 0.000000
0.000000 1.000000 0.000000
0.000000 1.000000 0.000000
0.000000 1.000000 0.000000
0.462402 1.000000 0.000000
0.793091 1.000000 0.000000
0.967651 1.000000 0.000000
1.000000 1.000000 0.000000
1.000000 1.000000 0.000000
0.000000 0.000000 0.268738
0.000000 0.000000 0.268860
0.123352 0.000000 0.269318
0.336609 0.000000 0.270660
0.595306 0.000000 0.306335
0.848969 0.000000 0.343170
1.000000 0.000000 0.380707
1.000000 0.000000 0.415741
1.000000 0.000000 0.449005
0.000000 0.000000 0.266846
0.000000 0.000000 0.299957
0.139221 0.000000 0.300507
0.366058 0.000000 0.301910
0.626801 0.000000 0.337402
0.880249 0.000000 0.374237
1.000000 0.000000 0.410980
1.000000 0.000000 0.445557
1.000000 0.000000 0.478271
0.000000 0.033875 0.261505
0.000000 0.056671 0.294128
0.127869 0.078033 0.327271
0.382507 0.064728 0.328674
0.649475 0.070099 0.363739
0.904327 0.070343 0.399811
1.000000 0.067383 0.435333
1.000000 0.098114 0.468689
1.000000 0.145294 0.500671
0.000000 0.278961 0.245972
0.000000 0.309631 0.277954
0.000000 0.339142 0.310455
0.362793 0.365784 0.344147
0.650574 0.388672 0.378784
0.912445 0.408661 0.414429
1.000000 0.430328 0.449432
1.000000 0.459076 0.482330
1.000000 0.492126 0.513824
0.000000 0.534027 0.244659
0.000000 0.565491 0.277191
0.000000 0.596191 0.310791
0.280731 0.624725 0.344879
0.594025 0.619934 0.347748
0.873688 0.644379 0.384277
1.000000 0.669617 0.419769
1.000000 0.698273 0.453186
1.000000 0.730103 0.485016
0.000000 0.778229 0.221466
0.000000 0.808990 0.258087
0.000000 0.838837 0.293243
0.014618 0.866516 0.330719
0.531616 0.863068 0.333862
0.816254 0.858429 0.338196
1.000000 0.882965 0.375916
1.000000 0.907440 0.412018
1.000000 0.931213 0.446655
0.000000 0.988922 0.185089
0.000000 1.000000 0.228882
0.000000 1.000000 0.275513
0.000000 1.000000 0.320374
0.468292 1.000000 0.323822
0.789154 1.000000 0.328522
0.975281 1.000000 0.332642
1.000000 1.000000 0.375336
1.000000 1.000000 0.416168
0.000000 1.000000 0.179504
0.000000 1.000000 0.238739
0.000000 1.000000 0.290344
0.000000 1.000000 0.341858
0.464447 1.000000 0.345367
0.794373 1.000000 0.349915
0.968658 1.000000 0.353516
1.000000 1.000000 0.355408
1.000000 1.000000 0.400787
0.000000 1.000000 0.224457
0.000000 1.000000 0.279297
0.000000 1.000000 0.333099
0.000000 1.000000 0.384094
0.517792 1.000000 0.387421
0.822906 1.000000 0.391449
0.977753 1.000000 0.394470
1.000000 1.000000 0.395782
1.000000 1.000000 0.396271
0.000000 0.000000 0.502563
0.000000 0.000000 0.502625
0.113159 0.000000 0.502991
0.354065 0.000000 0.503845
0.585236 0.000000 0.505341
0.842010 0.000000 0.541229
1.000000 0.000000 0.577057
1.000000 0.000000 0.611694
1.000000 0.000000 0.644714
0.000000 0.000000 0.501373
0.000000 0.000000 0.534546
0.129181 0.000000 0.534943
0.383026 0.000000 0.535858
0.616577 0.000000 0.537354
0.873108 0.000000 0.573059
1.000000 0.000000 0.608521
1.000000 0.000000 0.642548
1.000000 0.000000 0.675201
0.000000 0.000000 0.497833
0.000000 0.000000 0.530640
0.112610 0.000000 0.563721
0.396820 0.000000 0.564697
0.638885 0.000000 0.566315
0.896942 0.000000 0.601196
1.000000 0.000000 0.635864
1.000000 0.000000 0.668884
1.000000 0.000000 0.700592
0.000000 0.242615 0.488068
0.000000 0.274567 0.520264
0.000000 0.305389 0.552917
0.373322 0.331726 0.585999
0.639252 0.321777 0.587616
0.904572 0.341370 0.622040
1.000000 0.361969 0.655884
1.000000 0.392151 0.687897
1.000000 0.426605 0.719299
0.000000 0.499237 0.469635
0.000000 0.530212 0.501648
0.000000 0.560547 0.534119
0.250488 0.588593 0.567139
0.612518 0.614410 0.600769
0.893707 0.638031 0.634949
1.000000 0.663055 0.668182
1.000000 0.692505 0.700012
1.000000 0.723450 0.730713
0.000000 0.754700 0.471985
0.000000 0.784760 0.504578
0.000000 0.814148 0.537384
0.000000 0.841125 0.570892
0.550018 0.865906 0.605286
0.835724 0.860992 0.607727
1.000000 0.882355 0.641998
1.000000 0.904053 0.675354
1.000000 0.924866 0.707306
0.000000 0.970520 0.467865
0.000000 0.988739 0.504211
0.000000 1.000000 0.540466
0.000000 1.000000 0.578156
0.496429 1.000000 0.615356
0.810822 1.000000 0.617828
0.981323 1.000000 0.619812
1.000000 1.000000 0.656555
1.000000 1.000000 0.690918
0.000000 1.000000 0.482330
0.000000 1.000000 0.521790
0.000000 1.000000 0.562439
0.000000 1.000000 0.601593
0.510315 1.000000 0.642426
0.818512 1.000000 0.644745
0.974274 1.000000 0.646515
1.000000 1.000000 0.647339
1.000000 1.000000 0.683685
0.000000 1.000000 0.514832
0.000000 1.000000 0.556885
0.000000 1.000000 0.596893
0.000000 1.000000 0.637787
0.556915 1.000000 0.677277
0.845062 1.000000 0.679474
0.983734 1.000000 0.680969
1.000000 1.000000 0.681580
1.000000 1.000000 0.681793
0.000000 0.000000 0.734589
0.000000 0.000000 0.734650
0.076996 0.000000 0.734833
0.362183 0.000000 0.735474
0.604797 0.000000 0.736542
0.831451 0.000000 0.738220
1.000000 0.000000 0.772400
1.000000 0.000000 0.805573
1.000000 0.000000 0.836792
0.000000 0.000000 0.733643
0.000000 0.000000 0.765747
0.097137 0.000000 0.765961
0.391937 0.000000 0.766693
0.635956 0.000000 0.767792
0.862549 0.000000 0.769440
1.000000 0.000000 0.803253
1.000000 0.000000 0.834930
1.000000 0.000000 0.865387
0.000000 0.000000 0.730927
0.000000 0.000000 0.762634
0.069275 0.000000 0.794464
0.402557 0.000000 0.795166
0.656219 0.000000 0.796387
0.886200 0.000000 0.797974
1.000000 0.000000 0.830109
1.000000 0.000000 0.860718
1.000000 0.000000 0.887695
0.000000 0.127777 0.723755
0.000000 0.181396 0.755066
0.000000 0.215149 0.786407
0.375092 0.251129 0.817444
0.654297 0.237274 0.818542
0.893463 0.216705 0.820221
1.000000 0.239624 0.851227
1.000000 0.279938 0.878540
1.000000 0.326904 0.902771
0.000000 0.471497 0.711060
0.000000 0.503662 0.742035
0.000000 0.534363 0.773193
0.244019 0.562988 0.803802
0.625397 0.589539 0.834381
0.882050 0.581543 0.836060
1.000000 0.608124 0.863739
1.000000 0.640564 0.888336
1.000000 0.674591 0.910034
0.000000 0.718018 0.691742
0.000000 0.748047 0.722656
0.000000 0.777283 0.753784
0.000000 0.804230 0.784515
0.527863 0.828979 0.815216
0.848907 0.849731 0.843719
1.000000 0.869995 0.869598
1.000000 0.890839 0.892456
1.000000 0.910461 0.912262
0.000000 0.942932 0.699036
0.000000 0.960449 0.731903
0.000000 0.975739 0.763824
0.000000 0.986389 0.796356
0.470428 0.995270 0.826324
0.827667 0.999725 0.854614
0.981415 0.996704 0.855804
1.000000 1.000000 0.880249
1.000000 1.000000 0.901703
0.000000 1.000000 0.717743
0.000000 1.000000 0.751556
0.000000 1.000000 0.785706
0.000000 1.000000 0.816925
0.485535 1.000000 0.846283
0.837036 1.000000 0.873474
0.977142 1.000000 0.874481
1.000000 1.000000 0.875000
1.000000 1.000000 0.897400
0.000000 1.000000 0.747375
0.000000 1.000000 0.781891
0.000000 1.000000 0.813477
0.000000 1.000000 0.842957
0.534302 1.000000 0.870422
0.861145 1.000000 0.894745
0.983795 1.000000 0.895691
1.000000 1.000000 0.895996
1.000000 1.000000 0.896179
0.000000 0.000000 0.937683
0.000000 0.000000 0.937744
0.000000 0.000000 0.937958
0.367004 0.000000 0.938507
0.621429 0.000000 0.939362
0.852936 0.000000 0.940613
1.000000 0.000000 0.942078
1.000000 0.000000 0.963623
1.000000 0.000000 0.983093
0.000000 0.000000 0.936890
0.000000 0.000000 0.957520
0.048065 0.000000 0.957764
0.398193 0.000000 0.958282
0.653717 0.000000 0.959229
0.884399 0.000000 0.960480
1.000000 0.000000 0.961884
1.000000 0.000000 0.981812
1.000000 0.000000 0.997803
0.000000 0.000000 0.934418
0.000000 0.000000 0.954712
0.000000 0.000000 0.973572
0.408966 0.000000 0.974213
0.673401 0.000000 0.975189
0.906311 0.000000 0.976501
1.000000 0.000000 0.977814
1.000000 0.000000 0.994019
1.000000 0.000000 1.000000
0.000000 0.000000 0.928650
0.000000 0.000000 0.948425
0.000000 0.087891 0.966919
0.380310 0.142487 0.982666
0.671234 0.114929 0.983643
0.912567 0.065399 0.984985
1.000000 0.037292 0.986176
1.000000 0.136658 1.000000
1.000000 0.227417 1.000000
0.000000 0.424744 0.918640
0.000000 0.465912 0.937958
0.000000 0.503845 0.955994
0.237823 0.541382 0.971313
0.642029 0.574005 0.986145
0.897461 0.565491 0.987518
1.000000 0.558472 0.988647
1.000000 0.598999 0.999542
1.000000 0.638794 1.000000
0.000000 0.701935 0.903778
0.000000 0.735748 0.922791
0.000000 0.767517 0.940582
0.000000 0.798126 0.955536
0.545410 0.823608 0.970428
0.863770 0.846039 0.982483
1.000000 0.842285 0.983521
1.000000 0.866394 0.994232
1.000000 0.889313 1.000000
0.000000 0.909546 0.886230
0.000000 0.928772 0.906158
0.000000 0.946045 0.925079
0.000000 0.959198 0.941345
0.447968 0.970123 0.957397
0.817810 0.977020 0.970764
0.984833 0.985107 0.983429
1.000000 0.992340 0.992279
1.000000 1.000000 1.000000
0.000000 1.000000 0.895477
0.000000 1.000000 0.915588
0.000000 1.000000 0.932770
0.000000 1.000000 0.949707
0.466400 1.000000 0.963776
0.828186 1.000000 0.977844
0.981079 1.000000 0.988190
1.000000 1.000000 0.988495
1.000000 1.000000 0.997803
0.000000 1.000000 0.912018
0.000000 1.000000 0.929626
0.000000 1.000000 0.946838
0.000000 1.000000 0.960999
0.518341 1.000000 0.975159
0.853516 1.000000 0.986298
0.988647 1.000000 0.996490
1.000000 1.000000 0.996704
1.000000 1.000000 0.996826
0.000000 0.000000 1.000000
0.000000 0.000000 1.000000
0.017426 0.000000 1.000000
0.387268 0.000000 1.000000
0.647766 0.000000 1.000000
0.880432 0.000000 1.000000
1.000000 0.000000 1.000000
1.000000 0.000000 1.000000
1.000000 0.000000 1.000000
0.000000 0.000000 1.000000
0.000000 0.000000 1.000000
0.047577 0.000000 1.000000
0.422363 0.000000 1.000000
0.680817 0.000000 1.000000
0.911285 0.000000 1.000000
1.000000 0.000000 1.000000
1.000000 0.000000 1.000000
1.000000 0.000000 1.000000
0.000000 0.000000 1.000000
0.000000 0.000000 1.000000
0.021912 0.000000 1.000000
0.432220 0.000000 1.000000
0.700592 0.000000 1.000000
0.932617 0.000000 1.000000
1.000000 0.000000 1.000000
1.000000 0.000000 1.000000
1.000000 0.000000 1.000000
0.000000 0.000000 1.000000
0.000000 0.000000 1.000000
0.000000 0.000000 1.000000
0.405121 0.135864 1.000000
0.697540 0.120361 1.000000
0.935120 0.098480 1.000000
1.000000 0.078979 1.000000
1.000000 0.068237 1.000000
1.000000 0.161438 1.000000
0.000000 0.416016 1.000000
0.000000 0.464630 1.000000
0.000000 0.513458 1.000000
0.266815 0.554199 1.000000
0.669800 0.595093 1.000000
0.916992 0.586975 1.000000
1.000000 0.580933 1.000000
1.000000 0.578064 1.000000
1.000000 0.622528 1.000000
0.000000 0.707916 1.000000
0.000000 0.744751 1.000000
0.000000 0.780945 1.000000
0.000000 0.811462 1.000000
0.579071 0.837769 1.000000
0.883240 0.860352 1.000000
1.000000 0.856964 1.000000
1.000000 0.855469 1.000000
1.000000 0.880493 1.000000
0.000000 0.908447 0.996277
0.000000 0.929108 1.000000
0.000000 0.945862 1.000000
0.000000 0.960449 1.000000
0.499969 0.970215 1.000000
0.842590 0.978729 1.000000
0.990662 0.985870 1.000000
1.000000 0.984894 1.000000
1.000000 0.994598 1.000000
0.000000 1.000000 0.986847
0.000000 1.000000 0.995422
0.000000 1.000000 1.000000
0.000000 1.000000 1.000000
0.457031 1.000000 1.000000
0.824341 1.000000 1.000000
0.978424 1.000000 1.000000
1.000000 1.000000 1.000000
1.000000 1.000000 1.000000
0.000000 1.000000 0.992340
0.000000 1.000000 0.998962
0.000000 1.000000 1.000000
0.000000 1.000000 1.000000
0.511292 1.000000 1.000000
0.850372 1.000000 1.000000
0.986603 1.000000 1.000000
1.000000 1.000000 1.000000
1.000000 1.000000 1.000000
0.000000 0.000000 1.000000
0.000000 0.000000 1.000000
0.064056 0.000000 1.000000
0.426239 0.000000 1.000000
0.682861 0.000000 1.000000
0.913116 0.000000 1.000000
1.000000 0.000000 1.000000
1.000000 0.000000 1.000000
1.000000 0.000000 1.000000
0.000000 0.000000 1.000000
0.000000 0.000000 1.000000
0.108032 0.000000 1.000000
0.459656 0.000000 1.000000
0.716400 0.000000 1.000000
0.943512 0.000000 1.000000
1.000000 0.000000 1.000000
1.000000 0.000000 1.000000
1.000000 0.000000 1.000000
0.000000 0.000000 1.000000
0.000000 0.000000 1.000000
0.088348 0.000000 1.000000
0.468842 0.000000 1.000000
0.734070 0.000000 1.000000
0.960236 0.000000 1.000000
1.000000 0.000000 1.000000
1.000000 0.000000 1.000000
1.000000 0.000000 1.000000
0.000000 0.000000 1.000000
0.000000 0.000000 1.000000
0.000000 0.128510 1.000000
0.442139 0.219696 1.000000
0.731049 0.199951 1.000000
0.959198 0.173889 1.000000
1.000000 0.152191 1.000000
1.000000 0.140900 1.000000
1.000000 0.137390 1.000000
0.000000 0.449341 1.000000
0.000000 0.504486 1.000000
0.000000 0.550873 1.000000
0.310822 0.595581 1.000000
0.702362 0.633698 1.000000
0.937683 0.626160 1.000000
1.000000 0.620941 1.000000
1.000000 0.618713 1.000000
1.000000 0.618134 1.000000
0.000000 0.736664 1.000000
0.000000 0.775543 1.000000
0.000000 0.809174 1.000000
0.000000 0.838104 1.000000
0.617584 0.862488 1.000000
0.903503 0.882507 1.000000
1.000000 0.879517 1.000000
1.000000 0.878326 1.000000
1.000000 0.878021 1.000000
0.000000 0.922852 1.000000
0.000000 0.941620 1.000000
0.000000 0.958618 1.000000
0.000000 0.970490 1.000000
0.550598 0.980560 1.000000
0.868469 0.986237 1.000000
0.998718 0.993774 1.000000
1.000000 0.992950 1.000000
1.000000 0.992706 1.000000
0.000000 1.000000 1.000000
0.000000 1.000000 1.000000
0.000000 1.000000 1.000000
0.000000 1.000000 1.000000
0.518402 1.000000 1.000000
0.853760 1.000000 1.000000
0.989105 1.000000 1.000000
1.000000 1.000000 1.000000
1.000000 1.000000 1.000000
0.000000 1.000000 1.000000
0.000000 1.000000 1.000000
0.000000 1.000000 1.000000
0.000000 1.000000 1.000000
0.509430 1.000000 1.000000
0.849487 1.000000 1.000000
0.986053 1.000000 1.000000
1.000000 1.000000 1.000000
1.000000 1.000000 1.000000
