Color-Correction/LUTs/GH5/Basic/IWLTBAP/U-PANASONIC-V-LOG-V4-LTR.cube
# Copyright: (C) Copyright 2010-2018 by IWLTBAP SAS
# Cannot be resold, shared or otherwise redistributed
# Website: https://luts.iwltbap.com
TITLE "Panasonic V-Log Version 4 (Utility LOG to Rec.709)"
LUT_3D_SIZE 33
0.015686 0.015686 0.015686
0.031006 0.015564 0.019470
0.046326 0.008087 0.011780
0.073029 0.000366 0.007477
0.085297 0.000000 0.007843
0.118500 0.000000 0.000610
0.149994 0.003174 0.003174
0.186157 0.003052 0.003937
0.229401 0.000000 0.000000
0.286407 0.002808 0.005646
0.343140 0.001221 0.000000
0.397064 0.000000 0.001343
0.458832 0.001465 0.002441
0.526093 0.000000 0.000000
0.594604 0.001709 0.002197
0.659790 0.002075 0.000000
0.727448 0.000000 0.000000
0.797180 0.000000 0.002075
0.858582 0.000000 0.000000
0.913116 0.002319 0.000000
0.963715 0.000000 0.001465
0.981750 0.000000 0.006500
0.996063 0.000000 0.000000
0.996063 0.000000 0.000000
0.996063 0.002930 0.000000
0.996063 0.000000 0.000000
0.996063 0.000000 0.000000
0.996704 0.000610 0.000610
0.999512 0.003418 0.003418
0.996063 0.000000 0.000000
0.996063 0.000000 0.000000
0.996063 0.000000 0.000000
0.996063 0.000000 0.000000
0.015808 0.035034 0.019745
0.031128 0.027313 0.011902
0.046570 0.026947 0.011902
0.069366 0.015930 0.011780
0.084930 0.015076 0.008209
0.110779 0.004913 0.001099
0.146210 0.000000 0.000122
0.186157 0.000000 0.000854
0.230255 0.000000 0.000000
0.283325 0.000000 0.002808
0.335419 0.000122 0.001099
0.397064 0.000000 0.001343
0.459808 0.000000 0.002441
0.526093 0.000000 0.002930
0.590210 0.001709 0.000000
0.654297 0.001709 0.000000
0.721680 0.003784 0.000000
0.789093 0.001831 0.000000
0.856506 0.000000 0.000000
0.911652 0.003784 0.000000
0.964325 0.000000 0.001465
0.988098 0.000000 0.002563
0.996063 0.000000 0.000000
0.996063 0.001099 0.000000
0.996216 0.002930 0.002075
0.996063 0.000000 0.000000
0.996063 0.000000 0.000000
0.996063 0.000000 0.000000
1.000000 0.003937 0.003937
0.996063 0.000000 0.000000
0.996063 0.000000 0.000000
0.996063 0.000000 0.000000
0.996063 0.000000 0.000000
0.007843 0.050476 0.019867
0.027069 0.046448 0.023529
0.038727 0.042633 0.019348
0.061646 0.035187 0.012024
0.084564 0.033813 0.012024
0.111023 0.023651 0.004669
0.142151 0.011505 0.003662
0.185913 0.004303 0.004303
0.230377 0.000000 0.001465
0.275726 0.002808 0.002808
0.331604 0.006378 0.000244
0.390808 0.003662 0.001343
0.457367 0.002441 0.000000
0.524261 0.001343 0.000000
0.588470 0.000000 0.000000
0.651947 0.003937 0.001831
0.721558 0.003937 0.001953
0.789093 0.001831 0.000000
0.851227 0.001953 0.000000
0.904785 0.001831 0.000000
0.961273 0.000000 0.001465
0.980530 0.001343 0.002686
0.996063 0.000000 0.000000
0.996063 0.000000 0.000000
0.996063 0.000000 0.000000
0.996063 0.000000 0.000488
0.996063 0.000000 0.000488
0.996063 0.000000 0.000000
0.999268 0.003174 0.003174
0.996063 0.000000 0.000000
0.996063 0.000000 0.000000
0.996063 0.000000 0.000000
0.996063 0.000000 0.000000
0.008209 0.069855 0.027466
0.019989 0.065796 0.027069
0.038727 0.061646 0.023285
0.061646 0.050995 0.016052
0.080750 0.046814 0.018738
0.103668 0.039459 0.011383
0.135773 0.031006 0.005035
0.172546 0.016785 0.000000
0.224518 0.002197 0.005890
0.271820 0.000000 0.000732
0.327820 0.003052 0.000000
0.390198 0.003540 0.000977
0.450989 0.000000 0.000366
0.520599 0.002319 0.001587
0.582733 0.002197 0.000000
0.644470 0.002075 0.000000
0.718384 0.003540 0.001953
0.787262 0.000000 0.000000
0.851227 0.000000 0.000000
0.904541 0.001587 0.000000
0.959808 0.001465 0.001465
0.981140 0.000000 0.001709
0.996063 0.000000 0.000000
0.996063 0.000000 0.000000
0.996460 0.000366 0.000366
0.996063 0.000000 0.000000
0.996063 0.000000 0.000000
0.996063 0.000000 0.000000
0.996948 0.001221 0.000488
0.996460 0.000366 0.000366
0.996063 0.000000 0.000000
0.996063 0.000000 0.000000
0.996063 0.000000 0.000000
0.008331 0.089203 0.024017
0.023163 0.088593 0.027313
0.035034 0.084564 0.019623
0.050873 0.073883 0.019867
0.066162 0.073029 0.019104
0.096436 0.059204 0.012512
0.137512 0.053680 0.011017
0.177826 0.039459 0.000854
0.219604 0.024994 0.002930
0.270233 0.011902 0.006866
0.320587 0.000000 0.000000
0.384796 0.000488 0.000000
0.445587 0.002441 0.000488
0.512146 0.000000 0.000000
0.576477 0.000000 0.002197
0.648773 0.002075 0.000000
0.713226 0.001953 0.000488
0.779663 0.000000 0.001831
0.843384 0.000488 0.005157
0.904541 0.002563 0.006012
0.958832 0.001953 0.003937
0.974030 0.002075 0.000000
0.996063 0.000000 0.000000
0.997192 0.001099 0.003296
0.999023 0.002930 0.007843
0.996063 0.000000 0.000000
0.996063 0.000000 0.000000
0.996063 0.000000 0.000000
0.996063 0.000488 0.000000
0.996063 0.000000 0.000000
0.996063 0.000000 0.000000
0.996063 0.000000 0.000000
0.996063 0.000000 0.000000
0.007843 0.119110 0.034668
0.019470 0.115326 0.035309
0.027832 0.111511 0.030762
0.049622 0.107117 0.033813
0.065308 0.100006 0.020111
0.094971 0.092285 0.016296
0.130280 0.080627 0.012512
0.164703 0.069855 0.001099
0.209808 0.052094 0.000000
0.260651 0.040070 0.000610
0.315674 0.024139 0.000000
0.377441 0.006012 0.000732
0.438965 0.003296 0.002441
0.502563 0.000000 0.000000
0.571686 0.000000 0.002197
0.639587 0.001221 0.000000
0.709808 0.000000 0.000000
0.777313 0.000000 0.000000
0.841187 0.000000 0.001587
0.902313 0.000610 0.003937
0.949524 0.001465 0.002441
0.973419 0.000610 0.000000
0.996063 0.000610 0.000000
0.996063 0.000000 0.006622
0.996063 0.000000 0.004669
0.996063 0.000000 0.000000
0.996704 0.000610 0.000610
0.996704 0.000610 0.000610
0.999390 0.003296 0.003296
0.996063 0.000000 0.000000
0.996063 0.000000 0.000000
0.996063 0.000000 0.000000
0.996063 0.000000 0.000000
0.003174 0.153931 0.042389
0.015930 0.146820 0.043030
0.020355 0.146088 0.035309
0.042023 0.141785 0.037750
0.061523 0.134308 0.024506
0.088470 0.126831 0.023529
0.120087 0.118622 0.019623
0.155640 0.103912 0.006378
0.201965 0.087006 0.004913
0.253296 0.073029 0.002808
0.311279 0.055389 0.002686
0.373535 0.038239 0.002563
0.433563 0.020355 0.005646
0.497681 0.007233 0.002319
0.565430 0.003174 0.000000
0.638000 0.000000 0.000000
0.705872 0.000000 0.003937
0.770966 0.001343 0.002075
0.835541 0.000000 0.003937
0.897430 0.002319 0.000732
0.946564 0.001465 0.000000
0.970093 0.003937 0.000000
0.997314 0.001221 0.001221
0.996063 0.000000 0.000000
0.996826 0.000732 0.000732
0.996063 0.000000 0.000000
0.996063 0.000000 0.000000
0.996063 0.000000 0.000000
0.996063 0.000732 0.000000
0.996063 0.000000 0.000000
0.996063 0.000000 0.000000
0.996063 0.000000 0.000000
0.996063 0.000000 0.000000
0.000000 0.191803 0.050110
0.008453 0.191040 0.042511
0.016907 0.184204 0.042267
0.037140 0.183075 0.040558
0.053802 0.175232 0.034424
0.077942 0.168030 0.029907
0.115570 0.156494 0.025604
0.152588 0.142517 0.015686
0.189087 0.131012 0.005280
0.244720 0.118622 0.001953
0.303680 0.100128 0.005402
0.362610 0.076843 0.000854
0.425873 0.059570 0.004791
0.490082 0.039581 0.000732
0.561523 0.020477 0.002197
0.629669 0.005890 0.000854
0.698029 0.001953 0.001953
0.762512 0.000000 0.000000
0.824127 0.001343 0.000000
0.885040 0.003052 0.002319
0.939331 0.001465 0.000854
0.971436 0.002563 0.003052
0.996063 0.000000 0.003662
0.996063 0.000000 0.000000
0.997070 0.000977 0.000977
0.996063 0.000000 0.000000
0.996063 0.000000 0.000000
0.996063 0.000000 0.000000
0.998657 0.003052 0.002563
0.996063 0.003052 0.000000
0.996063 0.003052 0.000000
0.996063 0.003052 0.000000
0.996063 0.003052 0.000000
0.000000 0.241180 0.060791
0.000854 0.237366 0.057831
0.015442 0.236267 0.053436
0.027069 0.229401 0.052948
0.046082 0.222046 0.046570
0.072052 0.214966 0.044128
0.102936 0.207123 0.035309
0.140076 0.191925 0.027313
0.187256 0.181366 0.017639
0.238373 0.164093 0.012024
0.290192 0.145599 0.004913
0.350006 0.128784 0.000732
0.419128 0.107361 0.002441
0.483337 0.087494 0.000000
0.549255 0.064941 0.000000
0.620819 0.041779 0.000854
0.687256 0.023529 0.001953
0.755768 0.012878 0.001831
0.815918 0.004181 0.000000
0.879669 0.002930 0.000000
0.935303 0.001465 0.000000
0.967529 0.001343 0.001343
0.996063 0.000000 0.001953
0.996063 0.000000 0.000000
0.997070 0.000977 0.000977
0.999023 0.002930 0.002930
0.998291 0.002197 0.002197
0.996063 0.000000 0.000000
0.996063 0.000488 0.000000
0.996063 0.002930 0.000000
0.996063 0.002930 0.000000
0.996063 0.002930 0.000000
0.996063 0.002930 0.000000
0.000000 0.294250 0.071198
0.002808 0.289215 0.064453
0.003937 0.286407 0.061646
0.016785 0.278931 0.060913
0.042389 0.274628 0.052094
0.064819 0.267883 0.053314
0.096191 0.259308 0.051971
0.130157 0.244110 0.037872
0.176605 0.229767 0.029541
0.225861 0.216919 0.023529
0.280396 0.198883 0.013123
0.341797 0.179535 0.005524
0.403320 0.161407 0.003540
0.466797 0.141541 0.000488
0.536896 0.117401 0.000000
0.606018 0.095459 0.000000
0.674744 0.077454 0.000000
0.743011 0.056244 0.000000
0.810425 0.035919 0.000000
0.872314 0.019226 0.001221
0.923279 0.009796 0.002441
0.960419 0.007111 0.000000
0.992889 0.001587 0.002197
0.996063 0.001099 0.002197
0.996063 0.002808 0.000000
0.996063 0.000000 0.000000
0.996063 0.000000 0.000000
0.996063 0.000000 0.000000
0.996582 0.000488 0.000488
0.998535 0.002441 0.002441
0.996063 0.000000 0.000000
0.996063 0.000000 0.000000
0.996063 0.000000 0.000000
0.000000 0.349762 0.079895
0.001221 0.347046 0.079895
0.002441 0.343140 0.074768
0.010406 0.339569 0.069366
0.027466 0.329163 0.068146
0.054291 0.324127 0.064209
0.085785 0.316437 0.055634
0.119720 0.305267 0.052460
0.166656 0.289703 0.041656
0.215698 0.279907 0.038727
0.272552 0.260529 0.026215
0.325012 0.241180 0.012024
0.391663 0.223297 0.004181
0.457855 0.202454 0.000000
0.530884 0.179657 0.004913
0.596436 0.156494 0.000610
0.665192 0.136017 0.000732
0.732727 0.115570 0.000000
0.796570 0.097809 0.001709
0.855530 0.075623 0.002197
0.916168 0.055145 0.002441
0.954407 0.042389 0.001343
0.994598 0.026703 0.001221
0.998901 0.018982 0.001221
0.996063 0.016174 0.000000
0.996063 0.014465 0.000000
0.996063 0.010773 0.000000
0.996063 0.010773 0.002441
0.996063 0.010773 0.002441
0.996063 0.010773 0.000000
0.996063 0.010773 0.000000
0.996063 0.010773 0.000000
0.996063 0.010773 0.000000
0.000000 0.412750 0.088837
0.000000 0.410309 0.087616
0.002563 0.404907 0.084930
0.007477 0.399994 0.081970
0.020355 0.395721 0.079163
0.042023 0.390320 0.075623
0.070953 0.378174 0.070587
0.107849 0.370453 0.062256
0.155640 0.353302 0.058075
0.201355 0.339325 0.040314
0.258209 0.321075 0.033813
0.314819 0.305634 0.024872
0.379913 0.286407 0.005890
0.448395 0.264587 0.001587
0.515320 0.243988 0.001709
0.585297 0.222931 0.001831
0.654297 0.197662 0.000000
0.721680 0.179779 0.002563
0.786285 0.159180 0.001709
0.848053 0.139954 0.003540
0.905396 0.123535 0.000000
0.952087 0.104156 0.000000
0.989349 0.088715 0.001343
0.996063 0.076843 0.002686
0.997070 0.068268 0.000000
0.995575 0.056732 0.000854
0.996063 0.049377 0.001343
0.995331 0.048035 0.000000
1.000000 0.047058 0.000488
1.000000 0.042877 0.002563
1.000000 0.042877 0.002563
1.000000 0.042877 0.002563
1.000000 0.042877 0.002563
0.001465 0.480896 0.101959
0.000000 0.476959 0.098053
0.000244 0.471802 0.096802
0.002808 0.468018 0.093018
0.013733 0.461273 0.090698
0.029541 0.454895 0.083954
0.060547 0.447052 0.080872
0.095825 0.435547 0.076111
0.142151 0.424011 0.064697
0.190552 0.408569 0.053558
0.242645 0.393127 0.048279
0.300598 0.373657 0.035187
0.363739 0.354401 0.024994
0.431854 0.336029 0.012024
0.497314 0.309814 0.006134
0.569366 0.290314 0.001831
0.640198 0.265198 0.001953
0.706360 0.245819 0.000000
0.771332 0.227203 0.000000
0.833710 0.205627 0.001465
0.894623 0.188721 0.002930
0.940308 0.172302 0.001343
0.980377 0.158081 0.003662
0.994598 0.143860 0.001343
0.998535 0.136261 0.000000
0.997681 0.126221 0.000000
0.996063 0.117889 0.000000
0.995453 0.115570 0.001465
0.995575 0.112244 0.001953
0.993622 0.108337 0.000000
0.993622 0.108337 0.000000
0.993622 0.108337 0.000000
0.993622 0.108337 0.000000
0.000000 0.548767 0.113739
0.001465 0.548767 0.113739
0.000000 0.542511 0.109802
0.002686 0.537384 0.106262
0.003174 0.531982 0.100250
0.017029 0.526459 0.098053
0.051239 0.515686 0.098785
0.089691 0.501831 0.088593
0.127075 0.493500 0.076477
0.174866 0.479645 0.064453
0.228668 0.462616 0.056854
0.288361 0.444366 0.048157
0.353180 0.425354 0.033569
0.416290 0.406860 0.023529
0.481995 0.383087 0.010406
0.555267 0.359802 0.004181
0.624756 0.338593 0.004303
0.692413 0.319244 0.000488
0.761505 0.296570 0.000000
0.819855 0.280518 0.000000
0.879181 0.263611 0.001465
0.927704 0.242767 0.000000
0.976715 0.229156 0.002808
0.994476 0.217163 0.001221
1.000000 0.207245 0.000977
0.999146 0.193390 0.002441
0.999268 0.187256 0.001587
0.995453 0.183441 0.001587
0.994720 0.181244 0.001587
1.000000 0.177826 0.001587
1.000000 0.177826 0.001587
1.000000 0.177826 0.001587
1.000000 0.177826 0.001587
0.000000 0.621582 0.127686
0.002197 0.617767 0.126099
0.000244 0.612244 0.122314
0.000000 0.612000 0.117645
0.004669 0.606384 0.118134
0.011139 0.598663 0.113617
0.039703 0.589203 0.105652
0.075867 0.579773 0.100739
0.113983 0.568146 0.095581
0.164337 0.553680 0.080139
0.214203 0.535553 0.071808
0.274994 0.516663 0.061035
0.337250 0.500977 0.052460
0.402588 0.477814 0.039093
0.472046 0.458588 0.025726
0.543762 0.437134 0.017639
0.617157 0.415924 0.002441
0.677460 0.395233 0.001709
0.744843 0.377197 0.000000
0.808197 0.351227 0.001709
0.864471 0.333588 0.000000
0.912262 0.317413 0.001709
0.969849 0.300995 0.002930
0.991547 0.290436 0.002808
0.999023 0.279907 0.000977
0.997314 0.272186 0.001709
0.999268 0.260529 0.000000
0.996704 0.256744 0.000000
0.997803 0.254669 0.000000
0.996063 0.249512 0.000000
0.996063 0.249512 0.000000
0.996063 0.249512 0.000000
0.996063 0.249512 0.000000
0.002075 0.695343 0.143250
0.005524 0.693634 0.143250
0.001831 0.689575 0.135651
0.001831 0.683960 0.132111
0.004669 0.674622 0.131012
0.008698 0.671814 0.126587
0.027832 0.664703 0.119965
0.062134 0.650970 0.112976
0.100739 0.640320 0.106018
0.152069 0.626953 0.098663
0.201721 0.609436 0.089569
0.260895 0.591431 0.074005
0.322052 0.574280 0.065552
0.390686 0.555023 0.052826
0.457123 0.531982 0.039459
0.530396 0.510773 0.027710
0.601471 0.487488 0.012146
0.665436 0.468140 0.006012
0.731140 0.448761 0.001831
0.796570 0.429413 0.001831
0.851105 0.411896 0.001465
0.898651 0.394348 0.000000
0.956116 0.378052 0.001221
0.989716 0.364838 0.003784
1.000000 0.352203 0.001953
0.998779 0.343384 0.003937
1.000000 0.337738 0.001343
1.000000 0.332733 0.003937
1.000000 0.329895 0.001587
1.000000 0.326721 0.000000
0.999756 0.326477 0.000000
0.997925 0.324646 0.000000
0.997925 0.324646 0.000000
0.003937 0.768616 0.154907
0.001953 0.766663 0.152954
0.000000 0.761017 0.147308
0.000000 0.754913 0.140320
0.000000 0.751953 0.142639
0.005280 0.745697 0.138489
0.023285 0.734070 0.133331
0.052582 0.725494 0.123535
0.094116 0.714691 0.119598
0.140198 0.698273 0.107849
0.198029 0.682831 0.101227
0.249268 0.663483 0.087616
0.317657 0.646576 0.077942
0.379059 0.631866 0.062012
0.445343 0.607361 0.054657
0.516785 0.583954 0.039093
0.584320 0.564697 0.029419
0.651825 0.545349 0.012024
0.717163 0.525726 0.005890
0.782593 0.506622 0.000366
0.840210 0.485779 0.000000
0.887268 0.471802 0.000610
0.944611 0.452942 0.000000
0.980896 0.439819 0.001953
0.998047 0.431366 0.000977
1.000000 0.417633 0.000000
1.000000 0.411041 0.001221
0.998047 0.407837 0.001221
0.999512 0.405396 0.004913
0.994110 0.403931 0.000000
1.000000 0.399994 0.000000
1.000000 0.399994 0.000000
1.000000 0.399994 0.000000
0.003937 0.840088 0.166290
0.002075 0.838226 0.164459
0.000244 0.836395 0.162628
0.001831 0.829041 0.158813
0.001587 0.821442 0.158203
0.002075 0.817535 0.155396
0.013733 0.808075 0.148773
0.039093 0.795715 0.135162
0.081604 0.786163 0.135162
0.131989 0.771698 0.125488
0.182587 0.753540 0.112610
0.235779 0.740082 0.101593
0.299255 0.718994 0.087494
0.366302 0.699768 0.079285
0.431854 0.680511 0.068146
0.505280 0.659180 0.054657
0.570709 0.638123 0.033447
0.636383 0.616791 0.029541
0.705505 0.599640 0.013977
0.766418 0.581726 0.006012
0.822052 0.561523 0.001831
0.875854 0.545349 0.002075
0.931854 0.525726 0.000000
0.969116 0.514221 0.001831
0.996216 0.503937 0.001831
0.996948 0.497070 0.000000
1.000000 0.487122 0.000000
0.998779 0.482605 0.002075
0.999512 0.477692 0.000000
0.998169 0.479034 0.000000
0.996338 0.477203 0.000000
0.996338 0.477203 0.000000
0.996338 0.477203 0.000000
0.005646 0.907837 0.179901
0.003937 0.906128 0.174011
0.000000 0.902191 0.169861
0.000000 0.896088 0.165924
0.001709 0.892639 0.171082
0.003296 0.885040 0.166046
0.009308 0.875732 0.154663
0.031494 0.864227 0.146332
0.068146 0.859558 0.144348
0.113739 0.842285 0.133942
0.167145 0.825745 0.124023
0.228912 0.809448 0.114594
0.287750 0.790680 0.102448
0.355896 0.773163 0.093994
0.416412 0.751709 0.079651
0.482361 0.732971 0.064575
0.553925 0.707855 0.052460
0.623047 0.690063 0.036896
0.690918 0.673035 0.029175
0.758087 0.651459 0.017639
0.812744 0.629913 0.002930
0.864838 0.615692 0.000000
0.919861 0.601227 0.000000
0.958954 0.589691 0.000610
0.988983 0.578186 0.001953
0.997803 0.566681 0.003937
1.000000 0.557587 0.001465
0.998901 0.554901 0.001709
1.000000 0.550476 0.001709
0.997803 0.548767 0.000000
0.997803 0.548767 0.000000
0.997803 0.548767 0.000000
0.997803 0.548767 0.000000
0.001587 0.969482 0.192169
0.001587 0.969482 0.184570
0.000000 0.965576 0.180389
0.000000 0.957733 0.176483
0.003174 0.951965 0.181000
0.001709 0.949127 0.174866
0.003937 0.938110 0.166168
0.024017 0.928925 0.159424
0.057831 0.919983 0.151215
0.108337 0.907471 0.147797
0.157227 0.892029 0.133820
0.216431 0.870087 0.123535
0.276215 0.857117 0.110413
0.342529 0.838715 0.102081
0.407104 0.817902 0.087982
0.475983 0.798645 0.081360
0.541534 0.779419 0.065918
0.609192 0.758087 0.046814
0.676727 0.738617 0.040680
0.742889 0.717773 0.032104
0.800720 0.701599 0.014709
0.849152 0.688477 0.009064
0.905762 0.666779 0.000000
0.947418 0.655273 0.000000
0.985779 0.641418 0.002319
0.996948 0.633087 0.002319
1.000000 0.629303 0.000000
1.000000 0.625488 0.002319
0.997681 0.621704 0.000000
1.000000 0.620575 0.000000
1.000000 0.620575 0.000000
1.000000 0.620575 0.000000
1.000000 0.620575 0.000000
0.001465 0.987244 0.203918
0.002441 0.983337 0.197784
0.000244 0.985535 0.197540
0.000000 0.982971 0.190918
0.002930 0.976471 0.190674
0.000000 0.975494 0.186768
0.001465 0.969116 0.179413
0.018005 0.963593 0.173401
0.050995 0.958832 0.167633
0.098907 0.951233 0.157959
0.149506 0.944855 0.147797
0.204407 0.934326 0.135773
0.267639 0.916656 0.129913
0.329407 0.898895 0.113861
0.396332 0.880646 0.101959
0.463715 0.858582 0.084198
0.535797 0.839203 0.075989
0.600006 0.818390 0.058838
0.664948 0.801239 0.049744
0.728912 0.783569 0.041290
0.786774 0.764221 0.023529
0.835785 0.748779 0.016052
0.889709 0.728424 0.005646
0.938354 0.716553 0.003540
0.975006 0.704895 0.002441
0.993011 0.699646 0.004913
1.000000 0.689453 0.002441
0.997559 0.685059 0.000000
0.997559 0.680878 0.000000
1.000000 0.683319 0.000000
1.000000 0.680878 0.000000
1.000000 0.678436 0.000000
1.000000 0.678436 0.000000
0.006500 0.997437 0.210541
0.003937 0.994843 0.205261
0.003937 0.994843 0.205261
0.003937 0.994843 0.205261
0.007355 0.995575 0.200500
0.001343 0.996704 0.194122
0.001343 0.992157 0.190918
0.012268 0.993500 0.181366
0.041412 0.991913 0.177216
0.091797 0.989716 0.165680
0.145721 0.989716 0.160797
0.199646 0.984436 0.147675
0.256500 0.975739 0.136139
0.319977 0.958954 0.123413
0.387146 0.942657 0.108459
0.450623 0.919006 0.093384
0.523529 0.897675 0.083099
0.587250 0.880280 0.073517
0.655884 0.860901 0.062378
0.715942 0.838959 0.048279
0.780396 0.822174 0.043762
0.825134 0.808075 0.027466
0.882965 0.793884 0.018372
0.925232 0.781128 0.009430
0.957855 0.772797 0.002930
0.982605 0.759796 0.000000
0.996063 0.751831 0.002563
0.999268 0.747437 0.002563
1.000000 0.744110 0.007721
0.999634 0.743744 0.000000
0.998657 0.742767 0.000000
0.998657 0.742767 0.000000
0.998657 0.742767 0.000000
0.002686 1.000000 0.215698
0.002686 1.000000 0.215698
0.003937 1.000000 0.215698
0.006622 0.997314 0.215698
0.005646 0.998291 0.208832
0.003937 1.000000 0.203674
0.000732 0.998779 0.197296
0.006134 0.998779 0.192780
0.035309 1.000000 0.183319
0.080017 0.998413 0.179047
0.131378 0.997314 0.169861
0.191925 0.997314 0.159424
0.247314 0.997314 0.145355
0.312378 0.993500 0.135040
0.379181 0.986511 0.123291
0.446442 0.969727 0.106873
0.514465 0.950500 0.092163
0.579773 0.929169 0.082367
0.649017 0.912018 0.071075
0.710785 0.893982 0.054535
0.770111 0.876221 0.047791
0.816162 0.860779 0.037872
0.868866 0.846558 0.030151
0.918030 0.832733 0.023773
0.958832 0.819366 0.016907
0.977814 0.814331 0.010529
0.992401 0.809326 0.005157
0.996704 0.803436 0.002441
1.000000 0.800720 0.002441
0.999634 0.794983 0.004791
0.998779 0.794128 0.003937
0.998779 0.794128 0.003937
0.998779 0.794128 0.003937
0.002808 0.997192 0.225739
0.002686 0.997314 0.225739
0.002808 0.997192 0.224640
0.003937 0.996063 0.223541
0.006256 0.996063 0.218872
0.002808 1.000000 0.210052
0.001831 0.997925 0.207977
0.006134 0.996063 0.203064
0.033325 0.997925 0.193390
0.076843 0.997192 0.188232
0.126343 0.998413 0.174988
0.185547 0.998657 0.162018
0.240692 0.995941 0.154053
0.307220 1.000000 0.144348
0.369965 0.998291 0.132843
0.440063 0.996216 0.116547
0.507599 0.991791 0.102203
0.572296 0.974396 0.093750
0.639587 0.955017 0.080505
0.705750 0.939575 0.069122
0.768250 0.922302 0.055634
0.813110 0.905884 0.051727
0.858215 0.894470 0.036285
0.902466 0.881744 0.030273
0.944977 0.870209 0.025604
0.970093 0.860413 0.014832
0.989716 0.855774 0.012878
0.997192 0.848663 0.010040
0.999512 0.844727 0.010773
0.998901 0.844727 0.008942
0.998901 0.844727 0.008942
0.998901 0.844727 0.008942
0.998901 0.844727 0.008942
0.000000 0.996063 0.235291
0.004913 0.995941 0.230652
0.002930 0.997070 0.227448
0.003937 0.996063 0.224518
0.001465 0.998535 0.223541
0.000000 1.000000 0.218872
0.000000 0.997803 0.213470
0.003052 1.000000 0.207855
0.024506 0.999023 0.202942
0.071808 0.996063 0.194366
0.121582 1.000000 0.182831
0.179413 1.000000 0.171326
0.238220 0.997070 0.161774
0.303680 0.997070 0.150970
0.364716 0.997070 0.134796
0.429535 1.000000 0.121216
0.497070 1.000000 0.107849
0.563354 0.996216 0.099274
0.636261 0.987732 0.086273
0.700989 0.977203 0.075867
0.754913 0.958832 0.067169
0.805511 0.943390 0.051605
0.854156 0.931122 0.045837
0.896942 0.916534 0.035187
0.937256 0.904907 0.029419
0.967285 0.897308 0.024506
0.988220 0.890198 0.019623
0.995697 0.889587 0.019623
0.999512 0.879913 0.016663
0.996063 0.883331 0.016663
0.996338 0.882843 0.016418
0.997070 0.881378 0.015686
0.997070 0.881378 0.015686
0.001709 0.996063 0.237854
0.000000 1.000000 0.239227
0.001709 0.999146 0.233093
0.001709 0.999146 0.233093
0.000000 1.000000 0.228790
0.000000 1.000000 0.226593
0.003052 0.996948 0.223541
0.006134 0.996948 0.215698
0.022552 0.998169 0.207977
0.065674 0.998047 0.202209
0.111145 0.997925 0.186768
0.166534 1.000000 0.174744
0.227448 0.998535 0.166412
0.294617 0.997559 0.159180
0.357117 0.999146 0.144104
0.426605 1.000000 0.128784
0.496338 0.996948 0.117645
0.562622 0.996948 0.105896
0.634186 0.999146 0.092407
0.696564 1.000000 0.075256
0.751221 0.991791 0.065186
0.798157 0.977203 0.060059
0.852325 0.962616 0.050232
0.892883 0.950012 0.042267
0.933441 0.935913 0.036285
0.961639 0.931976 0.025238
0.987244 0.924988 0.027710
0.992523 0.920471 0.027466
1.000000 0.914093 0.024384
1.000000 0.914093 0.018250
0.999756 0.913849 0.018005
0.999146 0.913239 0.017395
0.999146 0.913239 0.017395
0.000000 1.000000 0.247070
0.000000 1.000000 0.240936
0.000000 1.000000 0.240692
0.000732 0.999634 0.239227
0.006134 0.993134 0.235779
0.003937 0.996063 0.227448
0.003174 0.996826 0.223541
0.003937 0.999146 0.217407
0.019867 0.997803 0.205872
0.061890 0.996826 0.200134
0.112244 0.998779 0.190186
0.167755 1.000000 0.179291
0.223785 1.000000 0.169128
0.293884 0.996826 0.159180
0.354889 1.000000 0.146820
0.425110 0.998657 0.136261
0.488220 0.998047 0.123047
0.558838 1.000000 0.107361
0.623779 1.000000 0.096313
0.685669 1.000000 0.088593
0.747559 0.997559 0.079651
0.794373 0.994843 0.067291
