Color-Correction/LUTs/GH5/Basic/IWLTBAP/U-PANASONIC-V-LOG-V3-LTR.cube
# Copyright: (C) Copyright 2010-2018 by IWLTBAP SAS
# Cannot be resold, shared or otherwise redistributed
# Website: https://luts.iwltbap.com
TITLE "Panasonic V-Log Version 3 (Utility LOG to Rec.709)"
LUT_3D_SIZE 5
DOMAIN_MIN 0.000000 0.000000 0.000000
DOMAIN_MAX 0.903226 0.903226 0.903226
0.014709 0.014099 0.012848
0.104614 0.023102 0.015015
0.589386 0.000000 0.000000
0.747772 0.000000 0.000000
0.759277 0.000000 0.000000
0.019379 0.056335 0.017212
0.072937 0.065826 0.018219
0.508453 0.045471 0.000000
0.747772 0.011505 0.000000
0.759277 0.011505 0.000000
0.159454 0.445679 0.012360
0.170746 0.445374 0.012329
0.575317 0.523499 0.000000
0.914398 0.550415 0.000000
0.925903 0.550385 0.000000
0.497620 0.839447 0.236725
0.509125 0.839417 0.236725
0.689301 0.871643 0.228485
0.960632 0.917267 0.231110
0.972321 0.917297 0.231110
0.497681 0.850983 0.236755
0.509186 0.850983 0.236755
0.689331 0.883209 0.228577
0.960663 0.928986 0.231415
0.972351 0.929016 0.231445
0.010712 0.016937 0.071167
0.119659 0.026672 0.067963
0.588715 0.000000 0.018616
0.747772 0.000000 0.011505
0.759277 0.000000 0.011505
0.014221 0.058136 0.062653
0.076904 0.068176 0.063049
0.545319 0.024170 0.013763
0.747772 0.011505 0.011505
0.759277 0.011505 0.011505
0.159454 0.445679 0.023895
0.171692 0.446655 0.023895
0.576782 0.524811 0.011505
0.913971 0.548157 0.011505
0.925507 0.548126 0.011505
0.497620 0.839447 0.248230
0.509125 0.839447 0.248230
0.688080 0.871399 0.240021
0.960632 0.917267 0.242615
0.972321 0.917297 0.242615
0.497681 0.850983 0.248260
0.509186 0.850983 0.248260
0.688080 0.882996 0.240112
0.960663 0.928986 0.242950
0.972351 0.929016 0.242981
0.003235 0.000000 0.406616
0.089996 0.000000 0.436981
0.550598 0.000000 0.499603
0.797089 0.000000 0.489960
0.808624 0.000000 0.489929
0.000000 0.086456 0.434692
0.059113 0.075653 0.451843
0.548187 0.015167 0.504974
0.796692 0.011505 0.487091
0.808197 0.011505 0.487091
0.000000 0.514343 0.561066
0.011505 0.515411 0.562195
0.577515 0.578949 0.582581
0.924652 0.566376 0.531281
0.936157 0.566284 0.531189
0.461578 0.884918 0.613464
0.473328 0.884552 0.610809
0.646210 0.903992 0.562347
0.953369 0.945648 0.533752
0.965057 0.945648 0.533661
0.461639 0.896423 0.613373
0.473389 0.896118 0.610718
0.646210 0.915527 0.562256
0.953369 0.957306 0.533722
0.965088 0.957336 0.533691
0.000000 0.072937 0.645844
0.125427 0.077301 0.685822
0.576691 0.083618 0.778168
0.872650 0.060303 0.809326
0.884186 0.060303 0.809326
0.000000 0.178558 0.686951
0.090149 0.171753 0.707611
0.576965 0.134094 0.785248
0.872650 0.071808 0.809326
0.884186 0.071808 0.809326
0.007904 0.563690 0.838837
0.018127 0.561432 0.838074
0.549988 0.580902 0.878906
0.933807 0.595367 0.904205
0.945312 0.595337 0.904205
0.463715 0.921814 0.932861
0.475220 0.921814 0.932861
0.635651 0.942902 0.942566
0.945007 0.983337 0.957306
0.956696 0.983368 0.957336
0.463745 0.933350 0.932861
0.475281 0.933350 0.932861
0.635651 0.954437 0.942566
0.945007 0.995026 0.957336
0.956726 0.995026 0.957336
0.000000 0.072937 0.657349
0.125427 0.077301 0.697357
0.576691 0.083618 0.789673
0.872650 0.060303 0.820831
0.884186 0.060303 0.820831
0.000000 0.178558 0.698486
0.090149 0.171753 0.719116
0.576965 0.134094 0.796753
0.872650 0.071808 0.820831
0.884186 0.071808 0.820831
0.007904 0.563690 0.850342
0.018127 0.561432 0.849579
0.549957 0.580872 0.890442
0.933807 0.595337 0.915710
0.945312 0.595306 0.915710
0.463715 0.921814 0.944397
0.475220 0.921814 0.944397
0.635651 0.942902 0.954132
0.945007 0.983368 0.969025
0.956696 0.983368 0.969025
0.463745 0.933350 0.944397
0.475281 0.933350 0.944397
0.635651 0.954468 0.954132
0.945007 0.995026 0.969055
0.956726 0.995056 0.969055
