Color-Correction/LUTs/GH5/Basic/IWLTBAP/U-PANASONIC-V-LOG-V8-LTR.cube
# Copyright: (C) Copyright 2010-2018 by IWLTBAP SAS
# Cannot be resold, shared or otherwise redistributed
# Website: https://luts.iwltbap.com
TITLE "Panasonic V-Log Version 8 (Utility LOG to Rec.709)"
LUT_3D_SIZE 33
0.038574 0.038574 0.038574
0.056274 0.039795 0.040314
0.074890 0.041199 0.042297
0.094666 0.042419 0.044281
0.116699 0.043549 0.046356
0.141388 0.044312 0.048523
0.168213 0.044739 0.050873
0.197632 0.044800 0.053284
0.232971 0.043884 0.055939
0.274200 0.041718 0.058960
0.320099 0.038239 0.062378
0.369873 0.033508 0.066193
0.422607 0.026825 0.070770
0.475800 0.018341 0.075531
0.529205 0.008087 0.080536
0.582611 0.004181 0.086029
0.636047 0.000000 0.091705
0.689362 0.000000 0.097473
0.742340 0.000000 0.103638
0.795105 0.000000 0.109863
0.847382 0.000000 0.116119
0.898621 0.000000 0.122864
0.948181 0.000000 0.129547
0.984161 0.000000 0.135803
1.000000 0.000000 0.141571
1.000000 0.000000 0.146759
1.000000 0.000000 0.151062
1.000000 0.000000 0.154877
1.000000 0.000000 0.158203
1.000000 0.000000 0.161041
1.000000 0.000000 0.163605
1.000000 0.000000 0.166229
1.000000 0.000000 0.168610
0.035797 0.054169 0.038849
0.052094 0.053864 0.039001
0.071167 0.055298 0.040955
0.091522 0.056549 0.042908
0.114166 0.057678 0.045013
0.139130 0.058624 0.047180
0.166351 0.059540 0.049377
0.196014 0.060120 0.051758
0.231506 0.059875 0.054382
0.273071 0.058746 0.057373
0.319092 0.056213 0.060730
0.368988 0.052216 0.064575
0.421906 0.045593 0.069214
0.475159 0.037170 0.073975
0.528656 0.026978 0.079041
0.582153 0.016113 0.084534
0.635590 0.008911 0.090179
0.688904 0.001831 0.095978
0.741974 0.000122 0.102173
0.794739 0.000000 0.108368
0.847015 0.000000 0.114594
0.898254 0.000000 0.121429
0.947876 0.000000 0.128174
0.983917 0.000000 0.134491
1.000000 0.000000 0.140320
1.000000 0.000000 0.145416
1.000000 0.000000 0.149689
1.000000 0.000000 0.153442
1.000000 0.000000 0.156708
1.000000 0.000000 0.159546
1.000000 0.000000 0.162109
1.000000 0.000000 0.164703
1.000000 0.000000 0.167084
0.032379 0.070892 0.039093
0.048767 0.070618 0.039215
0.066864 0.070282 0.039398
0.087585 0.071960 0.041229
0.110870 0.073547 0.043274
0.136475 0.074890 0.045410
0.163971 0.075958 0.047638
0.194092 0.076782 0.049988
0.229858 0.076935 0.052643
0.271606 0.076508 0.055511
0.317932 0.075317 0.058777
0.367950 0.072418 0.062561
0.420959 0.067810 0.067169
0.474365 0.062042 0.071991
0.527924 0.053528 0.077057
0.581512 0.043610 0.082611
0.635040 0.030457 0.088318
0.688385 0.015503 0.094177
0.741455 0.006439 0.100372
0.794312 0.001129 0.106598
0.846558 0.001984 0.112823
0.897827 0.000000 0.119629
0.947449 0.000000 0.126373
0.983765 0.000000 0.132721
1.000000 0.000000 0.138519
1.000000 0.000000 0.143707
1.000000 0.000000 0.148010
1.000000 0.000000 0.151794
1.000000 0.000000 0.154999
1.000000 0.000000 0.157715
1.000000 0.000000 0.160217
1.000000 0.000000 0.162720
1.000000 0.000000 0.165039
0.027618 0.088959 0.038849
0.044067 0.088715 0.039001
0.063019 0.088379 0.039154
0.083069 0.088013 0.039337
0.106720 0.090057 0.041199
0.132904 0.092010 0.043213
0.160980 0.093811 0.045319
0.191376 0.095123 0.047546
0.227661 0.096100 0.050079
0.269775 0.096344 0.052948
0.316345 0.095581 0.056213
0.366699 0.093872 0.060120
0.419830 0.090790 0.064728
0.473328 0.086731 0.069519
0.527039 0.081726 0.074615
0.580658 0.073822 0.080170
0.634247 0.064270 0.085846
0.687714 0.053467 0.091766
0.740814 0.038391 0.097931
0.793671 0.025726 0.104218
0.846008 0.007080 0.110626
0.897339 0.001770 0.117493
0.946960 0.001709 0.124237
0.983459 0.000000 0.130524
1.000000 0.000000 0.136322
1.000000 0.000000 0.141449
1.000000 0.000000 0.145721
1.000000 0.000000 0.149414
1.000000 0.000000 0.152618
1.000000 0.000000 0.155365
1.000000 0.000000 0.157837
1.000000 0.000519 0.160339
1.000000 0.001953 0.162506
0.020142 0.109344 0.037933
0.036560 0.109100 0.038055
0.057312 0.108826 0.038177
0.078644 0.108490 0.038361
0.101593 0.108032 0.038605
0.128357 0.110077 0.040619
0.157166 0.112122 0.042603
0.188141 0.114258 0.044617
0.224762 0.115906 0.046997
0.267395 0.116974 0.049652
0.314331 0.117401 0.052734
0.364868 0.116821 0.056458
0.418365 0.115326 0.061188
0.472046 0.112671 0.066040
0.525848 0.108795 0.071228
0.579712 0.104187 0.076935
0.633331 0.098053 0.082642
0.686798 0.090027 0.088501
0.739990 0.080963 0.094818
0.792877 0.067291 0.101044
0.845215 0.052612 0.107422
0.896576 0.041290 0.114349
0.946259 0.024384 0.121216
0.982971 0.012604 0.127594
1.000000 0.000000 0.133453
1.000000 0.003021 0.138580
1.000000 0.010681 0.142731
1.000000 0.014648 0.146301
1.000000 0.016235 0.149384
1.000000 0.017181 0.151978
1.000000 0.018494 0.154297
1.000000 0.017944 0.156738
1.000000 0.017548 0.158875
0.010590 0.132233 0.035858
0.025909 0.131989 0.036011
0.047546 0.131775 0.036163
0.071564 0.131470 0.036316
0.096069 0.131073 0.036560
0.122498 0.130615 0.036896
0.151855 0.133087 0.038788
0.183716 0.135345 0.040833
0.221222 0.137360 0.043121
0.264282 0.138611 0.045776
0.311768 0.139893 0.048615
0.362701 0.140594 0.052155
0.416412 0.140320 0.056763
0.470428 0.139496 0.061646
0.524353 0.137665 0.066772
0.578278 0.134735 0.072510
0.632111 0.131317 0.078430
0.685669 0.126587 0.084381
0.738922 0.120270 0.090820
0.791931 0.113464 0.097229
0.844299 0.104584 0.103455
0.895691 0.093201 0.110352
0.945404 0.081024 0.117218
0.982666 0.068939 0.123566
1.000000 0.060333 0.129333
1.000000 0.063263 0.134460
1.000000 0.060211 0.138641
1.000000 0.056702 0.142303
1.000000 0.052673 0.145447
1.000000 0.055725 0.147766
1.000000 0.063477 0.149780
1.000000 0.073730 0.151917
1.000000 0.086182 0.153748
0.003265 0.157227 0.032623
0.014160 0.157043 0.032745
0.033722 0.156830 0.032928
0.060913 0.156525 0.033112
0.087860 0.156219 0.033356
0.116669 0.155792 0.033691
0.145447 0.155304 0.034088
0.177826 0.158234 0.035828
0.216309 0.160889 0.037842
0.260345 0.163177 0.040253
0.308258 0.164886 0.043030
0.359863 0.165985 0.046509
0.414093 0.166504 0.051117
0.468323 0.166473 0.055939
0.522522 0.166626 0.060913
0.576538 0.166046 0.066589
0.630463 0.164642 0.072418
0.684143 0.162903 0.078430
0.737488 0.160065 0.084869
0.790558 0.155823 0.091278
0.843079 0.151062 0.097809
0.894562 0.146484 0.104950
0.944366 0.140320 0.111969
0.981873 0.135590 0.118225
1.000000 0.132385 0.123901
1.000000 0.128662 0.128754
1.000000 0.128510 0.132690
1.000000 0.131226 0.136108
1.000000 0.136505 0.138947
1.000000 0.142883 0.141296
1.000000 0.152618 0.143372
1.000000 0.164703 0.145538
1.000000 0.176300 0.147156
0.000000 0.184723 0.027924
0.004333 0.184570 0.028076
0.017487 0.184387 0.028259
0.044342 0.184143 0.028503
0.076233 0.183868 0.028748
0.107697 0.183472 0.029053
0.139252 0.182983 0.029510
0.170868 0.182434 0.029999
0.209869 0.186066 0.031494
0.254944 0.189392 0.033417
0.303955 0.192352 0.035706
0.355865 0.194824 0.038666
0.410675 0.196594 0.042938
0.465363 0.198181 0.047546
0.519836 0.198853 0.052643
0.574249 0.199188 0.058380
0.628448 0.199249 0.064423
0.682159 0.199554 0.070099
0.735626 0.199738 0.076477
0.788788 0.199127 0.082855
0.841309 0.197479 0.089142
0.892822 0.196106 0.096405
0.942688 0.194611 0.103546
0.980927 0.192780 0.109955
1.000000 0.192413 0.115906
1.000000 0.194275 0.121063
1.000000 0.197601 0.124878
1.000000 0.201630 0.127930
1.000000 0.207123 0.130432
1.000000 0.213959 0.132324
1.000000 0.221527 0.134003
1.000000 0.230042 0.135803
1.000000 0.239197 0.137360
0.000000 0.217804 0.019836
0.000000 0.217682 0.019958
0.004425 0.217529 0.020111
0.020477 0.217346 0.020355
0.051880 0.217072 0.020630
0.092194 0.216766 0.020966
0.128082 0.216339 0.021423
0.163361 0.215820 0.021973
0.201569 0.215179 0.022736
0.247589 0.218719 0.024597
0.297943 0.221924 0.026886
0.351044 0.225708 0.029144
0.406128 0.229309 0.032440
0.461365 0.232452 0.036255
0.516296 0.235229 0.040680
0.570831 0.237427 0.045715
0.625336 0.239471 0.051544
0.679443 0.241150 0.057953
0.733124 0.242096 0.064697
0.786499 0.243134 0.071533
0.839172 0.244019 0.078094
0.890686 0.244690 0.085266
0.940582 0.245331 0.092468
0.980255 0.246735 0.098999
1.000000 0.248260 0.104706
1.000000 0.250824 0.109711
1.000000 0.255371 0.113617
1.000000 0.260803 0.116882
1.000000 0.267120 0.119476
1.000000 0.274353 0.121399
1.000000 0.281830 0.122467
1.000000 0.289825 0.123810
1.000000 0.298096 0.124939
0.000000 0.256592 0.007202
0.000000 0.256470 0.007355
0.000000 0.256348 0.007507
0.004944 0.256195 0.007751
0.021637 0.256012 0.008026
0.056580 0.255707 0.008362
0.108978 0.255341 0.008850
0.149658 0.254852 0.009460
0.191528 0.254272 0.010223
0.237640 0.253479 0.011414
0.288879 0.258057 0.012787
0.343567 0.262268 0.014954
0.400238 0.266296 0.018280
0.456055 0.269928 0.022034
0.511658 0.273651 0.025848
0.566742 0.277435 0.029755
0.621368 0.280823 0.034454
0.675781 0.283936 0.039856
0.729767 0.286835 0.045990
0.783234 0.289124 0.052399
0.836090 0.291412 0.059296
0.887970 0.293732 0.068085
0.937988 0.295685 0.076050
0.977905 0.298248 0.083252
1.000000 0.301575 0.089264
1.000000 0.305145 0.094147
1.000000 0.310120 0.097717
1.000000 0.315826 0.100616
1.000000 0.322266 0.102905
1.000000 0.329285 0.104370
1.000000 0.336639 0.105713
1.000000 0.345062 0.107117
1.000000 0.353577 0.108246
0.000000 0.299805 0.000000
0.000000 0.299713 0.000061
0.000000 0.299591 0.000122
0.000000 0.299469 0.000336
0.004852 0.299286 0.000488
0.021759 0.299072 0.000732
0.066193 0.298737 0.001099
0.128540 0.298340 0.001373
0.175140 0.297852 0.002045
0.227234 0.297089 0.002777
0.277924 0.296234 0.003387
0.333649 0.301453 0.005127
0.391785 0.306519 0.006012
0.449127 0.311310 0.007385
0.505249 0.315948 0.010345
0.561127 0.320160 0.012207
0.616547 0.324280 0.015015
0.671295 0.327972 0.019836
0.725586 0.331757 0.024017
0.779419 0.335602 0.029175
0.832397 0.338898 0.035065
0.884430 0.342163 0.043060
0.934723 0.345581 0.051575
0.976410 0.348877 0.059021
1.000000 0.352753 0.065796
1.000000 0.357330 0.071838
1.000000 0.362915 0.076324
1.000000 0.368744 0.078522
1.000000 0.375061 0.080109
1.000000 0.382172 0.080688
1.000000 0.389130 0.081299
1.000000 0.396820 0.082214
1.000000 0.404755 0.082855
0.000000 0.346741 0.000000
0.000000 0.346649 0.000000
0.000000 0.346558 0.000000
0.000000 0.346436 0.000000
0.000000 0.346252 0.000000
0.004608 0.346039 0.000000
0.021759 0.345795 0.000000
0.079437 0.345459 0.000000
0.152679 0.345032 0.000000
0.210754 0.344391 0.000000
0.266998 0.343628 0.000031
0.321747 0.342712 0.000031
0.381134 0.348358 0.000092
0.439911 0.353912 0.000122
0.497711 0.359070 0.000122
0.554016 0.364197 0.000122
0.610138 0.369049 0.000092
0.665680 0.373718 0.000031
0.720367 0.378052 0.001221
0.774658 0.382080 0.002930
0.828156 0.386353 0.006622
0.880341 0.390228 0.013672
0.930786 0.393982 0.021057
0.974670 0.398193 0.028107
1.000000 0.402435 0.034637
1.000000 0.407227 0.040039
1.000000 0.412903 0.044067
1.000000 0.419128 0.047211
1.000000 0.425781 0.049194
1.000000 0.432892 0.050323
1.000000 0.440125 0.050812
1.000000 0.447510 0.050934
1.000000 0.454956 0.050537
0.000000 0.396545 0.000000
0.000000 0.396484 0.000000
0.000000 0.396423 0.000000
0.000000 0.396332 0.000000
0.000000 0.396149 0.000000
0.000000 0.395935 0.000000
0.004272 0.395752 0.000000
0.033325 0.395477 0.000000
0.099823 0.395111 0.000000
0.188019 0.394562 0.000000
0.250824 0.393860 0.000000
0.310608 0.392975 0.000000
0.368317 0.391937 0.000000
0.428497 0.397705 0.000000
0.487854 0.403320 0.000000
0.545959 0.408539 0.000000
0.602631 0.413849 0.000000
0.658813 0.418945 0.000000
0.714355 0.423828 0.000000
0.768921 0.428406 0.000000
0.822784 0.432739 0.002197
0.875610 0.437317 0.001862
0.926300 0.441528 0.004913
0.970795 0.446136 0.007813
1.000000 0.451080 0.008606
1.000000 0.456146 0.010376
1.000000 0.461884 0.013031
1.000000 0.468018 0.014771
1.000000 0.474518 0.015717
1.000000 0.481445 0.016235
1.000000 0.488770 0.015625
1.000000 0.496185 0.014832
1.000000 0.504089 0.013367
0.000000 0.446808 0.000000
0.000000 0.446747 0.000000
0.000000 0.446686 0.000000
0.000000 0.446625 0.000000
0.000000 0.446472 0.000000
0.000000 0.446320 0.000000
0.000000 0.446136 0.000000
0.006897 0.445892 0.000000
0.058014 0.445557 0.000000
0.143677 0.445099 0.000000
0.230347 0.444458 0.000000
0.295746 0.443665 0.000000
0.357391 0.442749 0.000000
0.415405 0.441711 0.000000
0.476044 0.447479 0.000000
0.535553 0.453217 0.000000
0.594055 0.458710 0.000000
0.650879 0.464020 0.000000
0.707062 0.469147 0.000000
0.762604 0.474152 0.000000
0.816772 0.478912 0.000000
0.869873 0.483643 0.000000
0.921082 0.488342 0.000000
0.967346 0.493073 0.000000
0.998230 0.498230 0.000000
1.000000 0.503876 0.000000
1.000000 0.509796 0.000000
1.000000 0.515991 0.000000
1.000000 0.522491 0.000000
1.000000 0.529480 0.000000
1.000000 0.536591 0.000000
1.000000 0.543793 0.000000
1.000000 0.551605 0.000000
0.000000 0.497345 0.000000
0.000000 0.497284 0.000000
0.000000 0.497223 0.000000
0.000000 0.497131 0.000000
0.000000 0.497009 0.000000
0.000000 0.496887 0.000000
0.000000 0.496735 0.000000
0.000000 0.496490 0.000000
0.014008 0.496185 0.000000
0.091522 0.495789 0.000000
0.192505 0.495209 0.000000
0.276825 0.494537 0.000000
0.343384 0.493774 0.000000
0.404602 0.492798 0.000000
0.462769 0.491730 0.000000
0.523621 0.497406 0.000000
0.583313 0.503265 0.000000
0.641815 0.508850 0.000000
0.698639 0.514130 0.000000
0.754852 0.519440 0.000000
0.810059 0.524536 0.000000
0.863525 0.529602 0.000000
0.915009 0.534576 0.000000
0.961731 0.539581 0.000000
0.995636 0.544830 0.000000
1.000000 0.550537 0.000000
1.000000 0.556549 0.000000
1.000000 0.562927 0.000000
1.000000 0.569641 0.000000
1.000000 0.576691 0.000000
1.000000 0.583710 0.000000
1.000000 0.590851 0.000000
1.000000 0.598419 0.000000
0.000000 0.547882 0.000000
0.000000 0.547882 0.000000
0.000000 0.547821 0.000000
0.000000 0.547729 0.000000
0.000000 0.547607 0.000000
0.000000 0.547455 0.000000
0.000000 0.547302 0.000000
0.000000 0.547119 0.000000
0.000000 0.546844 0.000000
0.022339 0.546478 0.000000
0.144043 0.545959 0.000000
0.244385 0.545380 0.000000
0.325745 0.544708 0.000000
0.391083 0.543793 0.000000
0.452057 0.542816 0.000000
0.510193 0.541748 0.000000
0.571136 0.547546 0.000000
0.630829 0.553406 0.000000
0.689392 0.558929 0.000000
0.746155 0.564270 0.000000
0.801910 0.569733 0.000000
0.856323 0.575043 0.000000
0.908234 0.580322 0.000000
0.955322 0.585510 0.000000
0.990112 0.591003 0.000000
1.000000 0.596741 0.000000
1.000000 0.602814 0.000000
1.000000 0.609100 0.000000
1.000000 0.615906 0.000000
1.000000 0.622742 0.000000
1.000000 0.629730 0.000000
1.000000 0.637054 0.000000
1.000000 0.644592 0.000000
0.000000 0.598450 0.000000
0.000000 0.598419 0.000000
0.000000 0.598328 0.000000
0.000000 0.598297 0.000000
0.000000 0.598206 0.000000
0.000000 0.598053 0.000000
0.000000 0.597900 0.000000
0.000000 0.597748 0.000000
0.000000 0.597473 0.000000
0.011871 0.597137 0.000000
0.052704 0.596741 0.000000
0.192749 0.596161 0.000000
0.298553 0.595520 0.000000
0.375061 0.594788 0.000000
0.439209 0.593872 0.000000
0.499847 0.592896 0.000000
0.557617 0.591827 0.000000
0.618500 0.597687 0.000000
0.678162 0.603485 0.000000
0.736603 0.609009 0.000000
0.792969 0.614594 0.000000
0.847931 0.620117 0.000000
0.900696 0.625458 0.000000
0.948090 0.630829 0.000000
0.984619 0.636322 0.000000
1.000000 0.642365 0.000000
1.000000 0.648651 0.000000
1.000000 0.655029 0.000000
1.000000 0.661591 0.000000
1.000000 0.668427 0.000000
1.000000 0.675446 0.000000
1.000000 0.682678 0.000000
1.000000 0.689728 0.000000
0.000000 0.648865 0.000000
0.000000 0.648834 0.000000
0.000000 0.648804 0.000000
0.000000 0.648743 0.000000
0.000000 0.648651 0.000000
0.000000 0.648529 0.000000
0.000000 0.648407 0.000000
0.000000 0.648224 0.000000
0.000000 0.647980 0.000000
0.000000 0.647614 0.000000
0.021515 0.647247 0.000000
0.139557 0.646759 0.000000
0.262817 0.646149 0.000000
0.351379 0.645477 0.000000
0.424103 0.644745 0.000000
0.487488 0.643829 0.000000
0.547607 0.642822 0.000000
0.604950 0.641754 0.000000
0.665649 0.647614 0.000000
0.725159 0.653381 0.000000
0.783112 0.659149 0.000000
0.838776 0.664703 0.000000
0.892120 0.670105 0.000000
0.940216 0.675598 0.000000
0.979340 0.681305 0.000000
1.000000 0.687286 0.000000
1.000000 0.693451 0.000000
1.000000 0.700104 0.000000
1.000000 0.706635 0.000000
1.000000 0.713562 0.000000
1.000000 0.720551 0.000000
1.000000 0.727631 0.000000
1.000000 0.734650 0.000000
0.000000 0.699036 0.000000
0.000000 0.699005 0.000000
0.000000 0.698975 0.000000
0.000000 0.698914 0.000000
0.000000 0.698853 0.000000
0.000000 0.698761 0.000000
0.000000 0.698639 0.000000
0.000000 0.698456 0.000000
0.000000 0.698212 0.000000
0.000000 0.697906 0.000000
0.000000 0.697540 0.000000
0.069366 0.697083 0.000000
0.220215 0.696533 0.000000
0.321594 0.695923 0.000000
0.401917 0.695221 0.000000
0.473022 0.694427 0.000000
0.535736 0.693512 0.000000
0.595123 0.692505 0.000000
0.652039 0.691437 0.000000
0.712616 0.697266 0.000000
0.771606 0.702972 0.000000
0.828644 0.708801 0.000000
0.882660 0.714294 0.000000
0.931366 0.719971 0.000000
0.971558 0.725891 0.000000
0.999359 0.731659 0.000000
1.000000 0.737946 0.000000
1.000000 0.744324 0.000000
1.000000 0.751007 0.000000
1.000000 0.757660 0.000000
1.000000 0.764648 0.000000
1.000000 0.771820 0.000000
1.000000 0.778900 0.000000
0.000000 0.749054 0.000000
0.000000 0.748993 0.000000
0.000000 0.748932 0.000000
0.000000 0.748871 0.000000
0.000000 0.748840 0.000000
0.000000 0.748749 0.000000
0.000000 0.748627 0.000000
0.000000 0.748474 0.000000
0.000000 0.748291 0.000000
0.000000 0.747986 0.000000
0.000000 0.747620 0.000000
0.000000 0.747162 0.000000
0.124329 0.746674 0.000000
0.286072 0.746124 0.000000
0.375122 0.745483 0.000000
0.452393 0.744751 0.000000
0.521759 0.743958 0.000000
0.583496 0.743011 0.000000
0.642365 0.742004 0.000000
0.698975 0.740936 0.000000
0.759033 0.746643 0.000000
0.817047 0.752289 0.000000
0.872345 0.757935 0.000000
0.921631 0.763672 0.000000
0.963440 0.769653 0.000000
0.996307 0.775696 0.000000
0.999542 0.781952 0.000000
1.000000 0.788239 0.000000
1.000000 0.794739 0.000000
1.000000 0.801270 0.000000
1.000000 0.808167 0.000000
1.000000 0.815186 0.000000
1.000000 0.822113 0.000000
0.000000 0.798523 0.000000
0.000000 0.798523 0.000000
0.000000 0.798492 0.000000
0.000000 0.798401 0.000000
0.000000 0.798370 0.000000
0.000000 0.798279 0.000000
0.000000 0.798157 0.000000
0.000000 0.797974 0.000000
0.000000 0.797791 0.000000
0.000000 0.797516 0.000000
0.000000 0.797180 0.000000
0.000000 0.796783 0.000000
0.100067 0.796295 0.000000
0.217712 0.795746 0.000000
0.345245 0.795135 0.000000
0.428131 0.794495 0.000000
0.503021 0.793762 0.000000
0.570404 0.792969 0.000000
0.631012 0.791962 0.000000
0.689423 0.790955 0.000000
0.745422 0.789917 0.000000
0.804474 0.795563 0.000000
0.860657 0.801300 0.000000
0.911041 0.806915 0.000000
0.953400 0.812805 0.000000
0.988220 0.818787 0.000000
0.999390 0.824951 0.000000
1.000000 0.831268 0.000000
1.000000 0.837830 0.000000
1.000000 0.844452 0.000000
1.000000 0.851166 0.000000
1.000000 0.857544 0.000000
1.000000 0.864288 0.000000
0.000000 0.847046 0.000000
0.000000 0.846985 0.000000
0.000000 0.846985 0.000000
0.000000 0.846954 0.000000
0.000000 0.846893 0.000000
0.000000 0.846802 0.000000
0.000000 0.846680 0.000000
0.000000 0.846497 0.000000
0.000000 0.846313 0.000000
0.000000 0.846100 0.000000
0.000000 0.845764 0.000000
0.000000 0.845367 0.000000
0.000000 0.844971 0.000000
0.147217 0.844452 0.000000
0.300903 0.843903 0.000000
0.402252 0.843262 0.000000
0.481842 0.842560 0.000000
0.553772 0.841766 0.000000
0.618958 0.840973 0.000000
0.678680 0.839996 0.000000
0.736206 0.839020 0.000000
0.790985 0.837921 0.000000
0.848145 0.843719 0.000000
0.899353 0.849701 0.000000
0.942627 0.855316 0.000000
0.978363 0.860840 0.000000
0.997345 0.866669 0.000000
1.000000 0.872803 0.000000
1.000000 0.878967 0.000000
1.000000 0.885376 0.000000
1.000000 0.891846 0.000000
1.000000 0.898438 0.000000
1.000000 0.904785 0.000000
0.000000 0.894043 0.000000
0.000000 0.893982 0.000000
0.000000 0.893890 0.000000
0.000000 0.893890 0.000000
0.000000 0.893860 0.000000
0.000000 0.893768 0.000000
0.000000 0.893646 0.000000
0.000000 0.893494 0.000000
0.000000 0.893311 0.000000
0.000000 0.893066 0.000000
0.000000 0.892792 0.000000
0.000000 0.892426 0.000000
0.000000 0.892029 0.000000
0.069336 0.891571 0.000000
0.234711 0.891022 0.000000
0.367310 0.890442 0.000000
0.458893 0.889801 0.000000
0.534943 0.889038 0.000000
0.603760 0.888275 0.000000
0.667267 0.887421 0.000000
0.726440 0.886475 0.000000
0.782623 0.885468 0.000000
0.835114 0.884460 0.000000
0.887146 0.890045 0.000000
0.931152 0.895660 0.000000
0.967651 0.901428 0.000000
0.994781 0.907135 0.000000
1.000000 0.911987 0.000000
1.000000 0.917114 0.000000
1.000000 0.922394 0.000000
1.000000 0.927704 0.000000
1.000000 0.933075 0.000000
1.000000 0.938690 0.000000
0.000000 0.936829 0.000000
0.000000 0.936768 0.000000
0.000000 0.936707 0.000000
0.000000 0.936646 0.000000
0.000000 0.936615 0.000000
0.000000 0.936584 0.000000
0.000000 0.936432 0.000000
0.000000 0.936310 0.000000
0.000000 0.936127 0.000000
0.000000 0.935852 0.000000
0.000000 0.935608 0.000000
0.000000 0.935303 0.000000
0.000000 0.934906 0.000000
0.032623 0.934448 0.000000
0.167755 0.933929 0.000000
0.327942 0.933380 0.000000
0.432343 0.932770 0.000000
0.516663 0.932068 0.000000
0.589233 0.931335 0.000000
0.655182 0.930542 0.000000
0.717041 0.929657 0.000000
0.775085 0.928711 0.000000
0.828064 0.927734 0.000000
0.875305 0.926849 0.000000
0.920258 0.931305 0.000000
0.957489 0.936096 0.000000
0.986237 0.940826 0.000000
0.998230 0.945953 0.000000
1.000000 0.951172 0.000000
1.000000 0.955597 0.000000
1.000000 0.959808 0.000000
1.000000 0.964142 0.000000
1.000000 0.968475 0.000000
0.000000 0.972839 0.000000
0.000000 0.972839 0.000000
0.000000 0.972778 0.000000
0.000000 0.972748 0.000000
0.000000 0.972687 0.000000
0.000000 0.972656 0.000000
0.000000 0.972595 0.000000
0.000000 0.972473 0.000000
0.000000 0.972321 0.000000
0.000000 0.972107 0.000000
0.000000 0.971893 0.000000
0.000000 0.971680 0.000000
0.000000 0.971405 0.000000
0.000000 0.971008 0.000000
0.100555 0.970673 0.000000
0.294159 0.970184 0.000000
0.406067 0.969696 0.000000
0.498840 0.969025 0.000000
0.577118 0.968292 0.000000
0.645081 0.967529 0.000000
0.708679 0.966736 0.000000
0.768311 0.965820 0.000000
0.822327 0.964874 0.000000
0.868958 0.964020 0.000000
0.909912 0.963226 0.000000
0.947906 0.966919 0.000000
0.977417 0.970703 0.000000
0.996338 0.974548 0.000000
1.000000 0.978760 0.000000
1.000000 0.982880 0.000000
1.000000 0.987213 0.000000
1.000000 0.990784 0.000000
1.000000 0.991821 0.000000
0.000000 1.000000 0.000000
0.000000 1.000000 0.000000
0.000000 1.000000 0.000000
0.000000 1.000000 0.000000
0.000000 1.000000 0.000000
0.000000 1.000000 0.000000
0.000000 1.000000 0.000000
0.000000 1.000000 0.000000
0.000000 1.000000 0.000000
0.000000 1.000000 0.000000
0.000000 1.000000 0.000000
0.000000 1.000000 0.000000
0.000000 1.000000 0.000000
0.000000 1.000000 0.000000
0.106903 1.000000 0.000000
0.251343 0.999969 0.000000
0.384460 0.999908 0.000000
0.483185 0.999420 0.000000
0.565948 0.998810 0.000000
0.637421 0.998077 0.000000
0.702240 0.997284 0.000000
0.762787 0.996490 0.000000
0.818481 0.995575 0.000000
0.864349 0.994812 0.000000
0.904449 0.994049 0.000000
0.939056 0.993408 0.000000
0.969177 0.993622 0.000000
0.991272 0.994110 0.000000
1.000000 0.994781 0.000000
1.000000 0.995605 0.000000
1.000000 0.996490 0.000000
1.000000 0.997528 0.000000
1.000000 0.998657 0.000000
0.000000 1.000000 0.000000
0.000000 1.000000 0.000000
0.000000 1.000000 0.000000
0.000000 1.000000 0.000000
0.000000 1.000000 0.000000
0.000000 1.000000 0.000000
0.000000 1.000000 0.000000
0.000000 1.000000 0.000000
0.000000 1.000000 0.000000
0.000000 1.000000 0.000000
0.000000 1.000000 0.000000
0.000000 1.000000 0.000000
0.000000 1.000000 0.000000
0.000000 1.000000 0.000000
0.065521 1.000000 0.000000
0.198547 1.000000 0.000000
0.375732 1.000000 0.000000
0.473907 1.000000 0.000000
0.559021 0.999878 0.000000
0.633698 0.999756 0.000000
0.699188 0.999725 0.000000
0.759949 0.999542 0.000000
