Color-Correction/LUTs/GH5/Basic/IWLTBAP/U-PANASONIC-V-LOG-V6-LTR.cube
# Copyright: (C) Copyright 2010-2018 by IWLTBAP SAS
# Cannot be resold, shared or otherwise redistributed
# Website: https://luts.iwltbap.com
TITLE "Panasonic V-Log Version 6 (Utility LOG to Rec.709)"
LUT_3D_SIZE 33
0.000000 0.000000 0.000000
0.000427 0.000000 0.000061
0.000854 0.000031 0.000122
0.001221 0.000031 0.000183
0.042847 0.001862 0.007050
0.073578 0.006195 0.017242
0.097351 0.011230 0.027191
0.114166 0.015503 0.034821
0.127167 0.018646 0.040588
0.144775 0.023132 0.048340
0.161804 0.027771 0.055695
0.178223 0.031860 0.062592
0.195923 0.036224 0.069946
0.212891 0.040436 0.076904
0.229340 0.044739 0.083679
0.246643 0.049438 0.090759
0.264862 0.054565 0.098145
0.283783 0.059906 0.105804
0.306519 0.066193 0.114899
0.327515 0.072052 0.123322
0.358063 0.080627 0.135590
0.376556 0.085785 0.143005
0.399231 0.092041 0.152069
0.428009 0.100006 0.163513
0.457458 0.108124 0.175262
0.486115 0.115967 0.186615
0.514648 0.123779 0.197937
0.546448 0.132477 0.210510
0.587067 0.143555 0.226593
0.611786 0.150299 0.236359
0.627319 0.154510 0.242493
0.641968 0.158508 0.248291
0.646820 0.159851 0.250214
0.000061 0.000275 0.000061
0.000366 0.000305 0.000122
0.000793 0.000305 0.000183
0.001282 0.000305 0.000244
0.036560 0.001556 0.005768
0.074097 0.006317 0.017456
0.095184 0.010712 0.026215
0.111176 0.014771 0.033478
0.126678 0.018555 0.040314
0.146057 0.023468 0.048889
0.161713 0.027740 0.055664
0.179016 0.032074 0.062927
0.196014 0.036255 0.069977
0.214081 0.040741 0.077393
0.230225 0.044952 0.084015
0.247162 0.049591 0.090942
0.264832 0.054565 0.098145
0.285828 0.060455 0.106628
0.304352 0.065613 0.114044
0.329987 0.072754 0.124298
0.358063 0.080627 0.135590
0.376404 0.085754 0.142944
0.400269 0.092316 0.152466
0.427216 0.099792 0.163208
0.456757 0.107941 0.174988
0.487213 0.116272 0.187073
0.518799 0.124908 0.199585
0.550446 0.133545 0.212097
0.590515 0.144470 0.227936
0.613464 0.150757 0.237030
0.628479 0.154846 0.242950
0.643066 0.158813 0.248718
0.646820 0.159851 0.250214
0.000122 0.000641 0.000153
0.000427 0.000641 0.000183
0.000824 0.000671 0.000244
0.001312 0.000671 0.000336
0.038208 0.001984 0.006073
0.068848 0.005646 0.015259
0.090912 0.009979 0.024200
0.110382 0.014740 0.032990
0.126404 0.018616 0.040100
0.144989 0.023254 0.048340
0.160736 0.027527 0.055176
0.178497 0.031952 0.062714
0.196320 0.036316 0.070099
0.213806 0.040680 0.077301
0.229553 0.044800 0.083771
0.247650 0.049713 0.091156
0.265259 0.054688 0.098328
0.284393 0.060059 0.106018
0.306427 0.066162 0.114838
0.330688 0.072968 0.124603
0.359497 0.081024 0.136169
0.376404 0.085754 0.142975
0.400146 0.092285 0.152405
0.428101 0.100037 0.163574
0.455872 0.107697 0.174622
0.485870 0.115906 0.186523
0.522827 0.126007 0.201172
0.554993 0.134796 0.213898
0.594421 0.145538 0.229492
0.615234 0.151245 0.237732
0.630035 0.155273 0.243561
0.644226 0.159119 0.249176
0.646820 0.159851 0.250214
0.000214 0.001099 0.000244
0.000488 0.001099 0.000275
0.000885 0.001099 0.000336
0.001373 0.001129 0.000427
0.035767 0.002228 0.005615
0.067047 0.005676 0.014465
0.089233 0.009857 0.023376
0.109070 0.014587 0.032257
0.127777 0.019043 0.040588
0.144806 0.023315 0.048126
0.161377 0.027771 0.055328
0.179260 0.032166 0.062927
0.197327 0.036591 0.070465
0.213989 0.040741 0.077362
0.232056 0.045441 0.084778
0.248566 0.049988 0.091522
0.267303 0.055267 0.099152
0.286438 0.060638 0.106873
0.306671 0.066254 0.114960
0.332428 0.073425 0.125275
0.361450 0.081604 0.136963
0.379120 0.086517 0.144043
0.402222 0.092865 0.153259
0.430084 0.100555 0.164337
0.457428 0.108124 0.175232
0.492065 0.117615 0.188965
0.522064 0.125793 0.200867
0.557159 0.135376 0.214752
0.597076 0.146271 0.230530
0.616882 0.151672 0.238373
0.632019 0.155792 0.244354
0.645477 0.159454 0.249664
0.646820 0.159851 0.250214
0.002777 0.014648 0.003204
0.002899 0.014160 0.003113
0.003204 0.013702 0.003052
0.003265 0.011230 0.002563
0.036652 0.010345 0.005493
0.065613 0.012115 0.012329
0.088348 0.015503 0.020447
0.110260 0.019653 0.029053
0.129089 0.023621 0.036407
0.147491 0.027588 0.043732
0.165649 0.031586 0.051361
0.184387 0.035767 0.058472
0.202881 0.039856 0.065582
0.221985 0.044037 0.073730
0.239960 0.048340 0.080963
0.257935 0.052917 0.087372
0.276276 0.057648 0.094940
0.295929 0.062805 0.103668
0.316315 0.068268 0.113281
0.342072 0.075439 0.124512
0.366272 0.082581 0.136505
0.382965 0.087158 0.142975
0.406586 0.094055 0.154968
0.432892 0.101349 0.165466
0.461456 0.109222 0.176849
0.489563 0.116913 0.187988
0.525513 0.126740 0.202240
0.559418 0.136017 0.215668
0.597992 0.146515 0.230896
0.617279 0.151794 0.238525
0.632172 0.155853 0.244415
0.646820 0.159851 0.250214
0.646820 0.159851 0.250214
0.009735 0.048981 0.011261
0.009583 0.047150 0.010742
0.009521 0.045288 0.010223
0.011688 0.043640 0.009491
0.041931 0.039825 0.005432
0.067993 0.038879 0.007416
0.092529 0.038849 0.012573
0.115173 0.039581 0.017853
0.136658 0.040894 0.023865
0.156372 0.042358 0.030334
0.176636 0.043976 0.037994
0.197174 0.046051 0.046631
0.217896 0.048798 0.055450
0.237762 0.051971 0.064087
0.256775 0.055603 0.071899
0.275726 0.059357 0.080109
0.294769 0.063232 0.088989
0.315399 0.067932 0.096527
0.337402 0.072937 0.105804
0.364258 0.079712 0.117676
0.389282 0.086700 0.129730
0.403290 0.090942 0.139252
0.425812 0.097565 0.151337
0.452911 0.105194 0.162048
0.475861 0.112488 0.177155
0.504944 0.120453 0.188171
0.534363 0.128754 0.200745
0.566010 0.137756 0.217621
0.601440 0.147461 0.232056
0.620575 0.152618 0.238678
0.635986 0.156799 0.244385
0.646820 0.159851 0.250214
0.646820 0.159851 0.250214
0.015411 0.071136 0.017883
0.015503 0.070465 0.017609
0.015564 0.069763 0.017334
0.020599 0.068665 0.015686
0.045380 0.066467 0.009216
0.071808 0.064941 0.005859
0.097656 0.063721 0.006012
0.121338 0.062378 0.009888
0.143768 0.061279 0.014374
0.165863 0.060425 0.020020
0.186951 0.060272 0.026917
0.208191 0.060425 0.035492
0.230408 0.061432 0.045258
0.251495 0.063354 0.054657
0.272156 0.065521 0.064423
0.292145 0.068329 0.073364
0.312439 0.071472 0.082306
0.334015 0.075195 0.091095
0.357025 0.079346 0.101440
0.386292 0.085999 0.114044
0.409790 0.091919 0.124725
0.426636 0.096191 0.132904
0.451813 0.102814 0.144653
0.478729 0.110626 0.158203
0.506134 0.118774 0.172180
0.534607 0.126831 0.184570
0.563385 0.135681 0.199921
0.600311 0.145844 0.213684
0.630615 0.154602 0.231232
0.647888 0.159271 0.237701
0.666901 0.164307 0.242798
0.666473 0.164612 0.248871
0.671387 0.165802 0.248505
0.022034 0.094788 0.025574
0.022156 0.094574 0.025421
0.022278 0.094360 0.025269
0.026611 0.094055 0.023499
0.049377 0.093323 0.014832
0.074707 0.092560 0.007599
0.101624 0.091370 0.003174
0.126251 0.089081 0.004700
0.151031 0.086884 0.007202
0.175079 0.084564 0.011017
0.198212 0.082336 0.017120
0.220428 0.080536 0.025085
0.242767 0.079681 0.034485
0.264954 0.079773 0.044586
0.286530 0.080933 0.054443
0.308044 0.082428 0.064331
0.329926 0.084473 0.073944
0.353394 0.086426 0.084564
0.377106 0.089935 0.093964
0.408752 0.095215 0.108063
0.431335 0.099518 0.119019
0.450043 0.103546 0.126831
0.476868 0.109680 0.137573
0.505524 0.116974 0.151733
0.534454 0.124634 0.165314
0.563507 0.132843 0.179565
0.594574 0.142242 0.195129
0.632965 0.152802 0.209595
0.664948 0.162170 0.226776
0.685211 0.167694 0.232513
0.695709 0.171173 0.240784
0.709534 0.174896 0.244385
0.714600 0.176025 0.243591
0.029114 0.117920 0.033722
0.029144 0.117523 0.033478
0.029327 0.117645 0.033447
0.032043 0.117737 0.031921
0.052673 0.119324 0.021149
0.075256 0.120361 0.012695
0.101105 0.120697 0.006622
0.129700 0.120239 0.003906
0.157745 0.118073 0.003510
0.184235 0.115326 0.005127
0.209381 0.112183 0.008759
0.232513 0.108490 0.014801
0.254974 0.105499 0.023285
0.277863 0.103546 0.033325
0.300507 0.102631 0.043732
0.323181 0.102234 0.054382
0.347107 0.102600 0.065491
0.372070 0.103943 0.076447
0.397461 0.105865 0.087219
0.431152 0.109802 0.101135
0.454102 0.112579 0.111176
0.474030 0.115753 0.118896
0.502869 0.120026 0.131683
0.532990 0.126099 0.143921
0.563019 0.132721 0.156647
0.594269 0.140381 0.170227
0.627686 0.149658 0.185669
0.667389 0.159851 0.203583
0.699554 0.169067 0.219360
0.719055 0.174530 0.225220
0.733521 0.179047 0.233093
0.747955 0.182953 0.236237
0.743591 0.182068 0.237396
0.036560 0.139374 0.042145
0.036652 0.139496 0.042175
0.036804 0.139618 0.042114
0.037903 0.139587 0.041168
0.052948 0.143463 0.030548
0.074524 0.147003 0.019470
0.099670 0.149963 0.011658
0.129303 0.151184 0.006409
0.160767 0.151337 0.003571
0.192261 0.149536 0.002777
0.220215 0.146210 0.003845
0.246063 0.142029 0.007599
0.268890 0.137299 0.013916
0.290985 0.133240 0.022125
0.313416 0.130341 0.031769
0.336670 0.128387 0.042389
0.361603 0.127594 0.053802
0.389069 0.126831 0.066772
0.416595 0.127563 0.079132
0.452881 0.130035 0.094269
0.475586 0.131683 0.103516
0.497711 0.133881 0.112061
0.527985 0.136749 0.124146
0.559570 0.141113 0.136566
0.590942 0.146362 0.148560
0.623749 0.152832 0.161316
0.659271 0.159515 0.178253
0.701752 0.168427 0.195709
0.734955 0.177124 0.206238
0.752289 0.182159 0.215271
0.768372 0.186798 0.222992
0.774658 0.188599 0.227478
0.779938 0.189911 0.225494
0.043671 0.161011 0.050323
0.043701 0.161133 0.050354
0.043671 0.160858 0.050232
0.043884 0.161224 0.050232
0.054108 0.165588 0.041199
0.073517 0.171844 0.028137
0.095947 0.176849 0.019226
0.126129 0.180664 0.012115
0.159668 0.183075 0.007202
0.194916 0.183533 0.004028
0.229340 0.182312 0.002716
0.259186 0.178528 0.003723
0.285248 0.173798 0.007599
0.307037 0.168243 0.013611
0.328461 0.163696 0.021210
0.350372 0.159943 0.030029
0.376068 0.156921 0.041443
0.404236 0.155182 0.054626
0.434021 0.154297 0.068726
0.472748 0.155273 0.085876
0.496399 0.155792 0.096069
0.520447 0.157593 0.105286
0.552185 0.159576 0.117493
0.584869 0.162384 0.129883
0.616852 0.167450 0.140656
0.651764 0.171173 0.154419
0.687836 0.177063 0.167175
0.733917 0.182861 0.185974
0.764282 0.189270 0.197723
0.782593 0.193390 0.204865
0.799469 0.197021 0.212067
0.810913 0.200867 0.212311
0.810944 0.200867 0.212311
0.050598 0.182587 0.058289
0.050659 0.182831 0.058380
0.050720 0.182953 0.058441
0.050781 0.183105 0.058472
0.054962 0.185760 0.054382
0.071991 0.194672 0.039520
0.092743 0.201935 0.028748
0.120911 0.207947 0.020172
0.154846 0.212585 0.013641
0.192413 0.215881 0.008698
0.232452 0.217438 0.005066
0.270203 0.216339 0.003723
0.301270 0.212555 0.005249
0.326324 0.207214 0.008972
0.347534 0.201263 0.014282
0.368286 0.195923 0.020905
0.392181 0.191559 0.029694
0.419403 0.188110 0.041138
0.450531 0.185486 0.055847
0.491882 0.184082 0.075714
0.515930 0.184113 0.086517
0.542603 0.185303 0.097504
0.575439 0.186920 0.110535
0.608643 0.189697 0.122742
0.642700 0.193207 0.134857
0.678375 0.196411 0.147827
0.716644 0.199799 0.161804
0.762360 0.206299 0.177216
0.792725 0.209625 0.188934
0.811279 0.212708 0.195496
0.829102 0.216248 0.201172
0.835602 0.218140 0.202637
0.836639 0.219025 0.202332
0.057617 0.204468 0.066376
0.057739 0.204834 0.066528
0.057800 0.205078 0.066620
0.057953 0.205536 0.066772
0.058929 0.206146 0.065643
0.072845 0.216461 0.051422
0.091766 0.225677 0.039062
0.116730 0.233368 0.029449
0.148071 0.239960 0.022034
0.186707 0.245697 0.015717
0.229248 0.250214 0.010437
0.274475 0.252563 0.006958
0.314209 0.251770 0.006256
0.345398 0.248047 0.008087
0.369904 0.242493 0.011475
0.390594 0.236115 0.015961
0.412903 0.230072 0.022034
0.438629 0.224854 0.030792
0.469452 0.220642 0.043701
0.510651 0.217194 0.063446
0.535248 0.216553 0.074982
0.564209 0.216980 0.087555
0.598358 0.217834 0.101807
0.633087 0.219543 0.115326
0.669403 0.221497 0.129272
0.705322 0.225006 0.142029
0.744995 0.228485 0.156281
0.793030 0.233185 0.173401
0.820374 0.238037 0.182312
0.839447 0.240173 0.189392
0.858093 0.244690 0.195068
0.863434 0.247040 0.196228
0.866150 0.250153 0.195953
0.064758 0.226868 0.074615
0.064911 0.227356 0.074799
0.065063 0.227844 0.074982
0.065125 0.227997 0.075043
0.065216 0.228333 0.075165
0.076263 0.238373 0.062408
0.092743 0.249176 0.049500
0.114655 0.258423 0.039307
0.143951 0.266693 0.031158
0.179169 0.273865 0.024445
0.222931 0.280609 0.017944
0.271667 0.286224 0.012421
0.319580 0.289490 0.009613
0.360229 0.289032 0.009583
0.391785 0.285309 0.011658
0.416534 0.279724 0.014771
0.438873 0.272552 0.019043
0.462646 0.265747 0.025055
0.492401 0.260376 0.035217
0.531738 0.255493 0.052460
0.556183 0.254059 0.063477
0.587463 0.252930 0.077576
0.623810 0.251648 0.093567
0.659515 0.251892 0.107788
0.696198 0.253021 0.121887
0.733124 0.256470 0.135162
0.776794 0.259613 0.151917
0.825317 0.266113 0.170197
0.851562 0.270996 0.180267
0.872437 0.277283 0.187714
0.891052 0.281250 0.195190
0.895935 0.285614 0.196106
0.900055 0.290497 0.196503
0.072266 0.250519 0.083221
0.072357 0.250854 0.083344
0.072540 0.251434 0.083557
0.072662 0.251831 0.083710
0.072784 0.252167 0.083832
0.079559 0.259766 0.075287
0.095642 0.273468 0.059875
0.114594 0.284027 0.049286
0.142090 0.293549 0.040375
0.176239 0.302063 0.033325
0.216583 0.310120 0.026764
0.264893 0.318115 0.020081
0.316711 0.324615 0.014984
0.366608 0.328705 0.012817
0.408752 0.328705 0.013214
0.441406 0.325134 0.015564
0.468719 0.318695 0.019012
0.492706 0.310883 0.023773
0.522522 0.303680 0.032440
0.558594 0.298462 0.046509
0.582947 0.296753 0.056732
0.615692 0.294586 0.070648
0.652557 0.291748 0.086365
0.689423 0.289154 0.101257
0.726288 0.289062 0.115234
0.765717 0.291718 0.130554
0.813232 0.298401 0.149811
0.863953 0.307373 0.171997
0.889740 0.314240 0.183350
0.912506 0.320862 0.193634
0.931610 0.328827 0.201904
0.933807 0.331421 0.202454
0.938568 0.337372 0.203613
0.080017 0.275116 0.092133
0.080139 0.275513 0.092285
0.080292 0.275940 0.092438
0.080475 0.276550 0.092651
0.080658 0.277161 0.092865
0.085419 0.283356 0.086517
0.100677 0.298889 0.069702
0.119690 0.311127 0.057556
0.143707 0.321411 0.049164
0.175140 0.330811 0.042358
0.212708 0.339722 0.036102
0.258911 0.348877 0.028870
0.310669 0.357819 0.022369
0.365387 0.365112 0.017822
0.416260 0.369873 0.016296
0.460693 0.370789 0.017090
0.496674 0.366547 0.019928
0.525604 0.359100 0.024353
0.557495 0.350220 0.033173
0.590973 0.344879 0.045502
0.615234 0.343384 0.054840
0.649902 0.340332 0.068817
0.687012 0.337067 0.083588
0.723755 0.333527 0.097565
0.762054 0.332764 0.112366
0.805420 0.336609 0.130890
0.860138 0.347046 0.156586
0.908844 0.358063 0.180664
0.933838 0.366272 0.193176
0.954895 0.372375 0.204559
0.966949 0.377716 0.210846
0.970551 0.383789 0.211853
0.972656 0.387543 0.212463
0.088318 0.301392 0.101654
0.088440 0.301788 0.101776
0.088593 0.302216 0.101959
0.088837 0.303040 0.102234
0.089020 0.303589 0.102448
0.092072 0.308197 0.098541
0.107391 0.326233 0.079895
0.123444 0.338989 0.068237
0.147430 0.351013 0.058258
0.177948 0.361511 0.051178
0.212616 0.371185 0.045502
0.256805 0.381165 0.038330
0.304291 0.391235 0.031464
0.357971 0.401001 0.025360
0.414368 0.409637 0.021423
0.469635 0.415344 0.020172
0.519958 0.416443 0.021515
0.558838 0.411743 0.025330
0.596588 0.402161 0.034668
0.627808 0.396851 0.046204
0.653564 0.394562 0.056152
0.689911 0.391357 0.070282
0.727905 0.388000 0.084900
0.766724 0.385895 0.099731
0.808746 0.386810 0.117523
0.855194 0.393433 0.140167
0.916687 0.404785 0.172546
0.953339 0.414368 0.192841
0.971558 0.419800 0.204041
0.984711 0.425812 0.214142
0.989441 0.429016 0.218323
0.990356 0.433075 0.218750
0.991425 0.439270 0.219330
0.097473 0.330383 0.112152
0.097595 0.330780 0.112274
0.097778 0.331390 0.112518
0.098022 0.332092 0.112762
0.098297 0.332947 0.113068
0.102112 0.338898 0.107758
0.115204 0.356018 0.091583
0.130707 0.370209 0.078735
0.152649 0.383301 0.068146
0.181122 0.394806 0.060730
0.214569 0.405426 0.055176
0.256195 0.416443 0.048798
0.300568 0.427185 0.041962
0.350891 0.437866 0.034943
0.406799 0.448608 0.029053
0.468262 0.458862 0.025421
0.532440 0.466278 0.024597
0.587311 0.467773 0.027008
0.638733 0.460358 0.036285
0.668274 0.455505 0.046600
0.696442 0.452118 0.057678
0.734741 0.447815 0.072815
0.774261 0.444916 0.088531
0.816895 0.444916 0.107086
0.862671 0.449249 0.129852
0.913025 0.457550 0.156769
0.965210 0.467194 0.187256
0.983215 0.472778 0.201874
0.989197 0.476257 0.212585
0.989960 0.478973 0.223816
0.988251 0.484436 0.227325
0.986206 0.489655 0.228668
0.983582 0.494781 0.230072
0.107574 0.362518 0.123749
0.107727 0.362946 0.123901
0.107941 0.363586 0.124146
0.108276 0.364716 0.124542
0.108582 0.365692 0.124908
0.111237 0.370514 0.122131
0.124359 0.389709 0.105011
0.138428 0.405334 0.091736
0.157928 0.420044 0.080231
0.184875 0.433411 0.071838
0.218781 0.445831 0.066010
0.256653 0.458038 0.060913
0.299377 0.470398 0.054749
0.346130 0.482574 0.047821
0.396301 0.495148 0.041321
0.457001 0.508881 0.035736
0.528290 0.523834 0.032745
0.602875 0.536072 0.032623
0.683990 0.541290 0.038513
0.721527 0.541748 0.046692
0.757782 0.539642 0.058746
0.799225 0.536316 0.076141
0.843597 0.536316 0.097443
0.890564 0.539917 0.122559
0.938232 0.545135 0.149261
0.976044 0.546234 0.173706
0.986786 0.537231 0.195740
0.981842 0.531799 0.211090
0.973419 0.527740 0.225494
0.965698 0.525757 0.238831
0.964020 0.528351 0.240204
0.962311 0.532257 0.241364
0.961090 0.535492 0.242310
0.122742 0.410706 0.141083
0.122864 0.411163 0.141266
0.123047 0.411652 0.141449
0.123291 0.412476 0.141724
0.123535 0.413269 0.142029
0.126343 0.418335 0.138763
0.136902 0.435425 0.125000
0.151001 0.453613 0.109009
0.167999 0.469147 0.096252
0.191803 0.483459 0.086609
0.223511 0.496643 0.080017
0.260529 0.509094 0.074890
0.300659 0.521423 0.069366
0.344604 0.533539 0.062927
0.392639 0.545654 0.056274
0.449677 0.559021 0.050385
0.520264 0.574371 0.046570
0.606384 0.590668 0.044281
0.706146 0.603973 0.045380
0.754730 0.607300 0.050354
0.804199 0.605896 0.062866
0.850220 0.602570 0.084106
0.896423 0.602325 0.109955
0.942261 0.604004 0.136597
0.977478 0.602264 0.158691
0.988007 0.587463 0.177734
0.973877 0.570679 0.203369
0.963837 0.566406 0.221832
0.957306 0.566162 0.240326
0.955261 0.569824 0.251801
0.955597 0.575897 0.253571
0.956268 0.582733 0.255615
0.957092 0.589142 0.257690
0.132416 0.441528 0.152161
0.132538 0.441925 0.152313
0.132751 0.442566 0.152557
0.132965 0.443237 0.152802
0.133270 0.444275 0.153168
0.134277 0.446472 0.152618
0.147797 0.468506 0.134766
0.158508 0.483887 0.122528
0.175903 0.501862 0.107330
0.198914 0.517548 0.096283
0.231171 0.532196 0.088776
0.265228 0.545197 0.084229
0.305206 0.558411 0.079071
0.349976 0.571655 0.072876
0.394714 0.584991 0.067657
0.451385 0.599976 0.063110
0.521088 0.617249 0.060577
0.612030 0.637451 0.058594
0.712555 0.656891 0.057587
0.773804 0.668518 0.060791
0.848999 0.678772 0.073853
0.909393 0.683502 0.097717
0.954071 0.682922 0.123322
0.981201 0.675873 0.141876
0.987091 0.659332 0.154175
0.965576 0.631012 0.186127
0.955505 0.623535 0.220001
0.957520 0.626312 0.244720
0.963928 0.631561 0.269409
0.967133 0.637573 0.279724
0.968384 0.643646 0.283600
0.969635 0.650299 0.288116
0.970856 0.657440 0.293274
0.145264 0.482513 0.166870
0.145386 0.482971 0.167053
0.145599 0.483612 0.167267
0.145905 0.484589 0.167603
0.146240 0.485748 0.167999
0.148254 0.489746 0.166565
0.158508 0.507385 0.154327
0.172943 0.529266 0.136047
0.186859 0.546143 0.122803
0.207886 0.563629 0.110077
0.235718 0.579132 0.102051
0.274750 0.594421 0.096222
0.311035 0.608002 0.092041
0.351990 0.622040 0.087128
0.400208 0.636749 0.082397
0.454834 0.653259 0.079956
0.523682 0.672119 0.078979
0.616791 0.695374 0.078156
0.706055 0.717529 0.079254
0.779938 0.737671 0.084076
0.880981 0.761963 0.095367
0.951355 0.771637 0.108612
0.976929 0.761383 0.118683
0.975494 0.739685 0.127075
0.962372 0.712646 0.155090
0.956818 0.692078 0.219116
0.964264 0.691528 0.258453
0.969910 0.692780 0.291656
0.973328 0.694061 0.322235
0.973602 0.699432 0.329468
0.973572 0.705048 0.334412
0.973541 0.711731 0.339935
0.973511 0.718353 0.345001
0.159882 0.529175 0.183594
0.160034 0.529663 0.183746
0.160309 0.530548 0.184082
0.160583 0.531464 0.184418
0.161072 0.532990 0.184937
0.163605 0.537872 0.182709
0.174011 0.556061 0.170868
0.185516 0.575043 0.156708
0.202179 0.597076 0.138062
0.218872 0.613861 0.126465
0.247009 0.631958 0.115906
0.280945 0.647766 0.110291
0.320862 0.662933 0.105621
0.362640 0.678009 0.101562
0.404877 0.693604 0.099457
0.464630 0.712250 0.098480
0.530029 0.732452 0.099182
0.627472 0.761230 0.102509
0.701111 0.784454 0.108002
0.776733 0.807556 0.113281
0.859680 0.827850 0.111023
0.918762 0.836426 0.101166
0.953522 0.830536 0.099243
0.961517 0.807648 0.128174
0.960022 0.776215 0.201172
0.968384 0.759277 0.278168
0.971161 0.756012 0.316589
0.972534 0.754913 0.349304
0.973267 0.757141 0.369598
0.973297 0.763763 0.373230
0.973328 0.770691 0.377106
0.973389 0.777985 0.381134
0.973450 0.785522 0.385284
0.176239 0.581512 0.202301
0.176422 0.582062 0.202515
0.176605 0.582703 0.202728
0.177002 0.583954 0.203186
0.177429 0.585358 0.203674
0.178864 0.588623 0.203308
0.188385 0.605743 0.193390
0.202728 0.629608 0.175720
0.215851 0.649597 0.160400
0.236053 0.672028 0.142334
0.258026 0.689606 0.132294
0.290955 0.707092 0.125275
0.328949 0.723206 0.121429
0.370789 0.739594 0.118958
0.418823 0.757263 0.118439
0.473663 0.777527 0.120361
0.538513 0.801086 0.124176
0.628571 0.831299 0.128723
0.675110 0.846466 0.129089
0.729034 0.859711 0.125305
0.788788 0.871918 0.118896
0.856750 0.883209 0.118744
0.918091 0.885040 0.133606
0.952301 0.869965 0.182037
0.967224 0.839478 0.275299
0.970306 0.826324 0.334167
0.971985 0.823792 0.368225
0.973511 0.823334 0.398407
0.973969 0.828369 0.409851
0.973938 0.835815 0.413940
0.973663 0.843323 0.417999
0.973206 0.851196 0.422058
0.972504 0.858978 0.425995
0.194519 0.639984 0.223206
0.194672 0.640503 0.223419
0.194946 0.641296 0.223694
0.195343 0.642609 0.224152
0.195831 0.644196 0.224731
0.197510 0.648041 0.224274
0.207275 0.665802 0.214569
0.218506 0.685516 0.202423
0.231934 0.707825 0.186218
0.251282 0.733582 0.164856
0.271362 0.753632 0.152283
0.304871 0.774170 0.142517
0.342438 0.792084 0.139679
0.383087 0.810181 0.140167
0.430969 0.830292 0.142578
0.481567 0.851044 0.146606
0.536591 0.868439 0.151062
0.595459 0.879059 0.156921
0.629181 0.883667 0.164520
0.680756 0.887695 0.176361
0.735352 0.888092 0.191132
0.793182 0.888977 0.210632
0.855591 0.897766 0.240784
0.919861 0.908600 0.284790
0.962372 0.902466 0.354675
0.968140 0.896027 0.392853
0.967834 0.891296 0.419434
0.964813 0.886719 0.439606
0.962646 0.889618 0.442719
0.960297 0.892456 0.444641
0.957489 0.894714 0.446289
0.954254 0.896332 0.447632
0.950500 0.897430 0.448792
0.216278 0.709656 0.248108
0.216492 0.710358 0.248352
0.216858 0.711487 0.248749
0.217224 0.712708 0.249207
0.217773 0.714386 0.249817
0.220551 0.720276 0.248260
0.230621 0.738708 0.238647
0.241943 0.758759 0.226807
0.255310 0.781281 0.211121
0.270416 0.804749 0.193390
0.293854 0.830536 0.173767
0.321655 0.849518 0.166046
0.359863 0.865112 0.167206
0.400970 0.876282 0.174835
0.443024 0.883698 0.185852
0.490631 0.887024 0.199799
0.534637 0.886047 0.214539
0.579956 0.882385 0.226227
0.612885 0.878296 0.235291
0.660675 0.876007 0.251526
0.715576 0.882477 0.278046
0.772552 0.895050 0.311798
0.832214 0.909454 0.348816
0.897614 0.926117 0.392975
0.936218 0.928192 0.425873
0.941162 0.920685 0.440369
0.936371 0.906403 0.448853
0.929718 0.896301 0.451080
0.925659 0.895386 0.451141
0.922516 0.894684 0.451202
0.921661 0.894531 0.451233
0.921661 0.894531 0.451233
0.921661 0.894531 0.451233
0.234711 0.768646 0.269257
0.234863 0.769104 0.269440
0.235046 0.769775 0.269684
0.235413 0.770905 0.270081
0.235809 0.772125 0.270508
0.238495 0.777588 0.268768
0.248566 0.795929 0.258972
0.260315 0.816620 0.246338
0.274048 0.839294 0.229919
0.290680 0.859802 0.213379
0.312744 0.874298 0.203552
0.351898 0.883270 0.204163
0.387207 0.886566 0.214813
0.427582 0.888580 0.229431
0.465027 0.888672 0.243500
0.498474 0.883179 0.251953
0.544434 0.866638 0.254913
0.578461 0.862701 0.263611
0.619141 0.868195 0.282257
0.672363 0.879913 0.310730
0.726654 0.892365 0.340973
0.780670 0.904907 0.372223
