Color-Correction/LUTs/GH5/Basic/IWLTBAP/U-PANASONIC-V-LOG-V4-LTR.cube
# Copyright: (C) Copyright 2010-2018 by IWLTBAP SAS
# Cannot be resold, shared or otherwise redistributed
# Website: https://luts.iwltbap.com
TITLE "Panasonic V-Log Version 4 (Utility LOG to Rec.709)"
LUT_3D_SIZE 9
0.015686 0.015686 0.015686
0.085297 0.000000 0.007843
0.229401 0.000000 0.000000
0.458832 0.001465 0.002441
0.727448 0.000000 0.000000
0.963715 0.000000 0.001465
0.996063 0.002930 0.000000
0.999512 0.003418 0.003418
0.996063 0.000000 0.000000
0.008331 0.089203 0.024017
0.066162 0.073029 0.019104
0.219604 0.024994 0.002930
0.445587 0.002441 0.000488
0.713226 0.001953 0.000488
0.958832 0.001953 0.003937
0.999023 0.002930 0.007843
0.996063 0.000488 0.000000
0.996063 0.000000 0.000000
0.000000 0.241180 0.060791
0.046082 0.222046 0.046570
0.187256 0.181366 0.017639
0.419128 0.107361 0.002441
0.687256 0.023529 0.001953
0.935303 0.001465 0.000000
0.997070 0.000977 0.000977
0.996063 0.000488 0.000000
0.996063 0.002930 0.000000
0.001465 0.480896 0.101959
0.013733 0.461273 0.090698
0.142151 0.424011 0.064697
0.363739 0.354401 0.024994
0.640198 0.265198 0.001953
0.894623 0.188721 0.002930
0.998535 0.136261 0.000000
0.995575 0.112244 0.001953
0.993622 0.108337 0.000000
0.003937 0.768616 0.154907
0.000000 0.751953 0.142639
0.094116 0.714691 0.119598
0.317657 0.646576 0.077942
0.584320 0.564697 0.029419
0.840210 0.485779 0.000000
0.998047 0.431366 0.000977
0.999512 0.405396 0.004913
1.000000 0.399994 0.000000
0.001465 0.987244 0.203918
0.002930 0.976471 0.190674
0.050995 0.958832 0.167633
0.267639 0.916656 0.129913
0.535797 0.839203 0.075989
0.786774 0.764221 0.023529
0.975006 0.704895 0.002441
0.997559 0.680878 0.000000
1.000000 0.678436 0.000000
0.000000 0.996063 0.235291
0.001465 0.998535 0.223541
0.024506 0.999023 0.202942
0.238220 0.997070 0.161774
0.497070 1.000000 0.107849
0.754913 0.958832 0.067169
0.937256 0.904907 0.029419
0.999512 0.879913 0.016663
0.997070 0.881378 0.015686
0.000000 1.000000 0.254913
0.006866 0.996582 0.240204
0.017639 0.999512 0.208832
0.224030 1.000000 0.178925
0.489716 0.999512 0.128418
0.745087 1.000000 0.075500
0.921570 0.991180 0.043640
1.000000 0.969116 0.027954
1.000000 0.965210 0.024017
0.000000 1.000000 0.247070
0.000000 1.000000 0.239227
0.019623 1.000000 0.216675
0.222046 0.998535 0.175476
0.488220 0.998047 0.125488
0.747559 0.997559 0.080383
0.924500 0.997070 0.052948
1.000000 0.980377 0.031372
1.000000 0.976471 0.027466
0.012756 0.019623 0.070099
0.085297 0.006866 0.054901
0.229401 0.000000 0.033325
0.453430 0.002441 0.003418
0.723541 0.000000 0.001953
0.964203 0.000488 0.000000
0.999512 0.003418 0.003418
0.996582 0.000488 0.000488
0.996063 0.000000 0.000000
0.007843 0.092651 0.081360
0.076477 0.069611 0.079895
0.218628 0.028931 0.046082
0.443146 0.000000 0.006378
0.708344 0.003937 0.000000
0.949524 0.000000 0.002441
0.996582 0.002930 0.000488
0.996063 0.000000 0.000000
0.996063 0.000000 0.000000
0.000488 0.241180 0.111267
0.045105 0.219116 0.099518
0.183319 0.179901 0.072052
0.407349 0.112244 0.024994
0.677948 0.030884 0.003418
0.930389 0.001953 0.001465
0.998047 0.001953 0.005890
0.996582 0.000488 0.007355
0.996063 0.000000 0.000000
0.000000 0.478424 0.150482
0.012268 0.461761 0.135773
0.140686 0.426971 0.116180
0.368622 0.355896 0.074524
0.633820 0.273041 0.020111
0.891174 0.192169 0.000488
1.000000 0.140198 0.001465
0.999023 0.119110 0.000977
0.997070 0.115692 0.000000
0.003937 0.765686 0.202454
0.000000 0.748047 0.189697
0.097046 0.714691 0.170593
0.314209 0.647552 0.128937
0.582367 0.563232 0.075500
0.839203 0.489227 0.027466
0.995087 0.432343 0.002930
0.998535 0.408325 0.000000
1.000000 0.405884 0.001953
0.001953 0.985779 0.255402
0.001465 0.975494 0.243134
0.054901 0.958344 0.216187
0.269623 0.919128 0.172058
0.535309 0.838715 0.126953
0.788239 0.764709 0.075989
0.971069 0.710297 0.047058
1.000000 0.680878 0.028442
0.999512 0.684326 0.029907
0.001465 0.999023 0.279419
0.000977 0.998535 0.269623
0.025970 1.000000 0.243134
0.234314 0.999023 0.208832
0.500000 0.998047 0.159790
0.755890 0.960785 0.111267
0.937744 0.907349 0.079895
1.000000 0.885773 0.066681
1.000000 0.885773 0.065186
0.002930 0.999023 0.300476
0.003418 0.996582 0.286285
0.017639 0.999512 0.267639
0.222534 1.000000 0.220581
0.490692 0.999512 0.176971
0.746063 1.000000 0.126465
0.925476 0.994110 0.094604
1.000000 0.971558 0.083832
1.000000 0.972046 0.076965
0.003418 0.999512 0.300995
0.003418 0.996582 0.293152
0.015686 1.000000 0.269623
0.219604 0.998535 0.224030
0.489716 0.998047 0.173523
0.743622 0.998047 0.125977
0.924500 0.997070 0.096069
0.996063 0.980377 0.081360
0.996582 0.980377 0.080872
0.012756 0.023529 0.188232
0.074524 0.007843 0.169128
0.216675 0.000000 0.143127
0.449524 0.000000 0.101471
0.715698 0.000000 0.049988
0.959808 0.000000 0.010284
0.998047 0.001953 0.001953
0.997070 0.000977 0.000977
0.996063 0.000000 0.000000
0.011780 0.092163 0.194611
0.073517 0.070587 0.188232
0.209320 0.032349 0.159790
0.435303 0.002930 0.117645
0.701965 0.001953 0.059814
0.947540 0.001465 0.022552
0.999023 0.002930 0.003937
0.996063 0.000000 0.000000
0.996063 0.000000 0.000000
0.002930 0.241180 0.220581
0.048523 0.222046 0.209320
0.180389 0.186279 0.183319
0.405396 0.117645 0.142639
0.672546 0.038239 0.096069
0.927460 0.002930 0.047058
0.997070 0.001953 0.015686
0.997559 0.001465 0.012268
0.996063 0.000000 0.010773
0.000000 0.480377 0.256866
0.013245 0.460297 0.242645
0.141174 0.424011 0.223053
0.367157 0.355896 0.184326
0.632843 0.277466 0.134308
0.887268 0.200989 0.085297
1.000000 0.146576 0.054901
0.999023 0.124512 0.036774
0.998535 0.121063 0.034302
0.001953 0.767639 0.308838
0.001465 0.750488 0.301483
0.101959 0.714691 0.276459
0.313232 0.647552 0.234314
0.582367 0.567657 0.185303
0.835297 0.494598 0.139709
0.992157 0.439209 0.103912
0.996582 0.414215 0.086273
0.998047 0.409790 0.086273
0.001465 0.986755 0.357361
0.002441 0.975983 0.348053
0.057831 0.957367 0.325989
0.271088 0.917145 0.280396
0.537262 0.840698 0.233337
0.787750 0.765686 0.186279
0.967651 0.712250 0.153442
1.000000 0.688721 0.136261
1.000000 0.686279 0.138733
0.001953 0.997070 0.390198
0.002930 0.999023 0.378937
0.025482 0.999023 0.355896
0.237244 0.998535 0.314697
0.500977 1.000000 0.266663
0.755890 0.963715 0.219604
0.941162 0.907837 0.187256
1.000000 0.887268 0.176483
1.000000 0.884308 0.171570
0.000488 0.999023 0.407837
0.000488 0.997559 0.394104
0.021576 0.997070 0.372559
0.226959 0.998535 0.331848
0.488220 1.000000 0.281372
0.743622 0.997070 0.239716
0.919617 0.994598 0.200012
0.995575 0.973053 0.190674
0.999023 0.969116 0.188232
0.002930 0.999023 0.407837
0.006866 0.993622 0.396088
0.014709 1.000000 0.369598
0.224518 1.000000 0.331848
0.490204 0.999023 0.286285
0.742157 0.998535 0.234802
0.922546 1.000000 0.202942
0.995575 0.984314 0.189209
1.000000 0.980377 0.181366
0.017151 0.029907 0.375000
0.071075 0.012756 0.358826
0.214203 0.000488 0.333344
0.441681 0.000000 0.286774
0.713715 0.002441 0.232361
0.958832 0.000000 0.181366
0.998535 0.001465 0.154419
0.999023 0.001465 0.136780
1.000000 0.000000 0.140198
0.012756 0.096558 0.375000
0.074524 0.079407 0.372070
0.201965 0.039215 0.340210
0.426483 0.000000 0.296082
0.700989 0.000488 0.242645
0.941681 0.001465 0.197052
0.999023 0.002930 0.158813
0.994598 0.003937 0.148041
1.000000 0.000000 0.148041
0.000000 0.241180 0.403931
0.051971 0.225983 0.385773
0.180389 0.187256 0.369110
0.400970 0.123047 0.322540
0.671082 0.043152 0.274506
0.918152 0.001465 0.221069
0.996582 0.000488 0.190186
0.999023 0.000488 0.177460
0.996063 0.003418 0.177460
0.000000 0.485779 0.440674
0.016174 0.465210 0.427948
0.147552 0.425476 0.406860
0.364716 0.359802 0.362244
0.627930 0.284302 0.310303
0.880402 0.209808 0.269623
0.997070 0.154907 0.231873
0.996063 0.137268 0.216675
1.000000 0.131866 0.218140
0.002441 0.772552 0.489227
0.000977 0.753418 0.478912
0.099518 0.717163 0.449005
0.312256 0.651947 0.416168
0.579895 0.572052 0.361267
0.831360 0.497559 0.319122
0.993134 0.446564 0.284302
0.996063 0.420105 0.264221
0.999512 0.419617 0.268127
0.001465 0.988220 0.536285
0.003418 0.978912 0.524506
0.062256 0.960297 0.501465
0.273041 0.920593 0.458344
0.534790 0.847046 0.412750
0.788239 0.768127 0.359802
0.963226 0.718628 0.326477
1.000000 0.693634 0.315674
0.999023 0.690186 0.309814
0.002441 0.998535 0.566162
0.002930 0.996582 0.554413
0.030396 1.000000 0.533813
0.240692 0.998535 0.492157
0.504425 0.998535 0.440186
0.755402 0.966187 0.395599
0.937256 0.911285 0.363739
1.000000 0.894623 0.349518
0.998535 0.888733 0.347046
0.005402 0.998047 0.588715
0.000977 0.997559 0.570099
0.021088 0.999512 0.548523
0.227448 1.000000 0.510284
0.489716 0.999023 0.458832
0.743622 0.998535 0.417145
0.921570 0.999023 0.375000
0.996582 0.975494 0.361755
0.997559 0.971069 0.359314
0.006378 0.996063 0.583344
0.006866 0.996582 0.572540
0.011261 1.000000 0.542145
0.218140 1.000000 0.506378
0.488739 0.998047 0.454895
0.742645 0.998535 0.413239
0.925476 0.998535 0.375488
1.000000 0.988220 0.363739
0.998535 0.981873 0.356873
0.017639 0.033325 0.588226
0.071564 0.017639 0.571075
0.205872 0.001953 0.555878
0.425476 0.000488 0.504425
0.701965 0.001953 0.454895
0.954895 0.002441 0.403442
1.000000 0.001953 0.372559
1.000000 0.000000 0.356873
1.000000 0.000000 0.352936
0.012756 0.100494 0.594116
0.074524 0.085297 0.585297
0.197540 0.047058 0.557831
0.419128 0.000488 0.518616
0.690674 0.002441 0.462738
0.937256 0.000000 0.419128
0.998047 0.001465 0.380402
0.995575 0.003418 0.366180
0.995575 0.003418 0.365204
0.002930 0.247070 0.618622
0.051483 0.227936 0.604889
0.179413 0.194122 0.580383
0.397064 0.129425 0.540680
0.662750 0.050995 0.489227
0.917145 0.002930 0.442169
0.998047 0.003937 0.404907
0.996063 0.000000 0.394104
0.996063 0.000977 0.392151
0.000000 0.486755 0.654907
0.016174 0.466187 0.642639
0.146088 0.428436 0.620087
0.362244 0.366180 0.581848
0.625488 0.288727 0.525482
0.875977 0.216675 0.482361
1.000000 0.162750 0.446564
0.997070 0.144623 0.433838
0.999512 0.139221 0.430878
0.001953 0.776459 0.707855
0.000488 0.755402 0.691681
0.097046 0.719604 0.663727
0.312744 0.657349 0.630890
0.578430 0.578430 0.578430
0.829407 0.505402 0.535797
0.991180 0.453918 0.498047
0.996063 0.428925 0.483826
1.000000 0.423523 0.480377
0.001953 0.991669 0.752441
0.001953 0.983337 0.742645
0.058838 0.964691 0.715210
0.273529 0.925476 0.674988
0.534302 0.849518 0.623535
0.782837 0.774506 0.575500
0.961273 0.723053 0.544128
1.000000 0.698517 0.532349
1.000000 0.699524 0.532349
0.001953 1.000000 0.780396
0.004913 0.999023 0.771576
0.031372 0.999023 0.748047
0.242645 0.998535 0.709320
0.501953 1.000000 0.654907
0.750000 0.974518 0.609802
0.932343 0.917633 0.579407
0.999512 0.897552 0.565674
0.998047 0.894104 0.557831
0.003418 1.000000 0.801483
0.002930 0.998535 0.784302
0.017639 0.999023 0.761261
0.224030 0.999512 0.722046
0.488220 1.000000 0.670593
0.743134 0.997559 0.626953
0.918640 0.999512 0.588715
0.995087 0.977448 0.578918
1.000000 0.976959 0.573029
0.001953 0.996063 0.796082
0.001953 0.998047 0.787262
0.007843 1.000000 0.756866
0.212250 1.000000 0.718628
0.478424 0.998047 0.672546
0.734802 0.998535 0.625000
0.922546 0.997070 0.590210
0.989716 0.994598 0.572052
1.000000 0.994110 0.568634
0.011780 0.044617 0.791656
0.071564 0.026947 0.781860
0.202454 0.000000 0.752930
0.418152 0.000000 0.707367
0.692169 0.000000 0.663239
0.946075 0.000000 0.612244
1.000000 0.000488 0.579895
1.000000 0.002441 0.565186
0.997559 0.000000 0.557831
0.009796 0.107849 0.794617
0.075012 0.090698 0.790192
0.196564 0.048523 0.759308
0.409790 0.002441 0.720093
0.679901 0.000000 0.672546
0.931366 0.000000 0.623535
0.998535 0.000488 0.589203
0.998535 0.002930 0.572052
0.998535 0.003937 0.568146
0.000000 0.250488 0.819122
0.047546 0.233826 0.803925
0.175995 0.195099 0.785797
0.391174 0.133820 0.744598
0.658325 0.056854 0.693634
0.911285 0.001465 0.644623
0.998047 0.004425 0.610779
0.996582 0.000977 0.595093
0.999023 0.000000 0.597046
0.000000 0.490204 0.864716
0.015198 0.472046 0.846069
0.146576 0.434326 0.825500
0.360779 0.371582 0.785309
0.620575 0.292633 0.731384
0.871582 0.222046 0.685303
0.998535 0.168640 0.653931
0.996582 0.148529 0.638245
1.000000 0.146576 0.637268
0.006866 0.775970 0.910309
0.001465 0.757355 0.898529
0.102448 0.723541 0.874023
0.312744 0.657837 0.830872
0.574524 0.579895 0.783325
0.828918 0.506378 0.735291
0.990692 0.455872 0.703918
0.998047 0.433319 0.685791
0.999512 0.429413 0.688232
0.002930 0.993622 0.951477
0.005402 0.984314 0.946075
0.057343 0.963715 0.917145
0.274506 0.927460 0.875488
0.530884 0.853912 0.825012
0.781372 0.778442 0.779907
0.960297 0.727448 0.752930
1.000000 0.702942 0.733826
1.000000 0.701965 0.732849
0.001465 1.000000 0.984314
0.002930 0.995575 0.969604
0.029907 0.998047 0.951477
0.235779 0.998047 0.910309
0.500000 0.998047 0.861755
0.749023 0.976959 0.815186
0.931854 0.923523 0.780884
0.999512 0.901947 0.770111
1.000000 0.896576 0.767639
0.002441 0.998535 0.976959
0.000000 0.999512 0.973053
0.016663 1.000000 0.958344
0.218628 0.999512 0.923523
0.481384 0.998047 0.874023
0.739227 1.000000 0.825500
0.919617 0.999512 0.789215
0.993622 0.981384 0.780396
0.999512 0.984802 0.778931
0.000000 0.998535 0.980896
0.001465 1.000000 0.975983
0.000000 1.000000 0.960297
0.199524 1.000000 0.923035
0.469116 0.996063 0.875000
0.727936 0.997559 0.827942
0.920105 0.997559 0.795593
0.991669 0.997070 0.777466
0.998535 0.998535 0.772064
0.015686 0.043152 0.931366
0.071075 0.030884 0.920105
0.199005 0.000977 0.892151
0.415680 0.000000 0.853424
0.682343 0.000977 0.802948
0.937744 0.002441 0.754913
0.999023 0.000000 0.723541
1.000000 0.002930 0.707855
1.000000 0.002930 0.704895
0.011261 0.111267 0.942169
0.069611 0.090698 0.935303
0.195099 0.057343 0.904419
0.405884 0.003418 0.863739
0.673523 0.001465 0.815674
0.929413 0.000977 0.766663
1.000000 0.000488 0.736267
0.999512 0.005890 0.725983
0.996063 0.002930 0.717651
0.001953 0.257843 0.962738
0.048523 0.237732 0.951965
0.178436 0.202942 0.933319
0.388733 0.139221 0.886780
0.653931 0.061768 0.838226
0.911285 0.001465 0.792633
0.996063 0.001953 0.754913
1.000000 0.002441 0.740692
0.999023 0.001953 0.740204
0.000000 0.492645 0.995575
0.018127 0.474030 0.983826
0.145599 0.437744 0.968140
0.357361 0.375000 0.928436
0.614716 0.296082 0.873047
0.871063 0.226471 0.832367
0.998535 0.171570 0.795593
0.996582 0.149017 0.781372
0.999023 0.149017 0.782837
0.003937 0.782349 1.000000
0.000977 0.762756 1.000000
0.099030 0.724518 0.998047
0.311768 0.661774 0.976471
0.572540 0.584320 0.929413
0.823517 0.511780 0.881866
0.994110 0.456848 0.852936
0.999023 0.433838 0.837738
0.998047 0.433319 0.831360
0.000977 0.997070 0.997070
0.004913 0.986267 1.000000
0.056854 0.966675 0.999023
0.270599 0.932343 0.996582
0.528442 0.856873 0.976959
0.778931 0.779907 0.927460
0.962250 0.731384 0.896576
1.000000 0.702942 0.875977
1.000000 0.701965 0.879913
0.000000 1.000000 1.000000
0.002930 0.999023 0.999023
0.030396 0.999023 1.000000
0.238739 0.998535 1.000000
0.496063 0.998047 0.995087
0.750000 0.980377 0.959808
0.926483 0.927460 0.934326
1.000000 0.903931 0.914215
1.000000 0.901947 0.912750
0.000000 1.000000 1.000000
0.002930 0.999512 0.999512
0.019623 1.000000 0.999512
0.217651 0.998047 1.000000
0.481873 0.997070 1.000000
0.730896 1.000000 0.976959
0.912750 0.997070 0.941162
0.996582 0.988739 0.931854
0.997070 0.985291 0.923035
0.000977 1.000000 1.000000
0.003418 1.000000 1.000000
0.000000 1.000000 1.000000
0.192657 0.998535 0.999023
0.451965 0.999023 1.000000
0.719116 1.000000 0.981873
0.912750 0.997070 0.947052
0.985779 0.999512 0.923035
0.999023 1.000000 0.925476
0.018616 0.043640 0.992157
0.070099 0.035309 0.981384
0.204895 0.000488 0.961761
0.414703 0.001953 0.911285
0.683319 0.001953 0.865692
0.938721 0.000000 0.815674
0.996063 0.000488 0.783325
1.000000 0.000000 0.762268
1.000000 0.000000 0.769104
0.014709 0.111267 0.996063
0.069611 0.097046 0.992157
0.197052 0.058838 0.960785
0.407349 0.002930 0.925476
0.674988 0.002441 0.873535
0.924988 0.001465 0.830383
0.997070 0.000000 0.799988
0.999512 0.002930 0.786285
0.996063 0.000488 0.783325
0.000977 0.256378 1.000000
0.048035 0.240204 1.000000
0.174500 0.205872 0.992157
0.391174 0.137268 0.951965
0.651947 0.063721 0.901947
0.909790 0.002930 0.858826
0.997070 0.002930 0.815674
0.997559 0.000000 0.804413
0.999023 0.002441 0.803436
0.001465 0.496582 0.998535
0.014709 0.474030 0.998535
0.143616 0.439209 1.000000
0.355896 0.374023 0.986267
0.616669 0.298523 0.943146
0.871582 0.228424 0.894104
0.999023 0.171570 0.859802
0.998535 0.150482 0.842651
0.997070 0.147552 0.844116
0.005890 0.784302 1.000000
0.000000 0.764221 0.998535
0.097534 0.726959 0.997559
0.309814 0.663727 1.000000
0.573029 0.585785 0.986267
0.823517 0.514709 0.939697
0.993134 0.459808 0.912750
0.996063 0.435303 0.892151
1.000000 0.431366 0.896088
0.000977 0.997559 0.997559
0.000488 0.985779 0.999023
0.053925 0.967163 0.999023
0.266663 0.932831 0.999023
0.524017 0.856873 0.998047
0.781372 0.783813 0.997559
0.960785 0.730896 0.957855
1.000000 0.707855 0.942657
1.000000 0.701965 0.938721
0.000000 1.000000 1.000000
0.001465 0.997559 0.997559
0.026459 0.999023 0.997559
0.228424 1.000000 0.997559
0.491180 1.000000 1.000000
0.744598 0.984314 0.995087
0.926971 0.928436 0.994598
0.997070 0.903442 0.975006
1.000000 0.902954 0.974518
0.000000 1.000000 1.000000
0.000977 1.000000 1.000000
0.013733 0.997559 0.995575
0.209808 0.998047 0.998047
0.475983 1.000000 1.000000
0.728912 0.997559 0.997559
0.910797 1.000000 1.000000
0.995575 0.992157 0.985291
1.000000 0.989227 0.991669
0.003937 1.000000 1.000000
0.003418 1.000000 1.000000
0.000000 1.000000 1.000000
0.180389 1.000000 0.995087
0.445099 0.998047 1.000000
0.713715 1.000000 0.998047
0.903442 0.999512 1.000000
0.985291 1.000000 0.996063
1.000000 1.000000 0.992157
0.019623 0.043152 0.992157
0.070099 0.031860 0.989227
0.198029 0.002930 0.964691
0.411774 0.000000 0.918152
0.686279 0.000000 0.874512
0.942169 0.000000 0.823517
0.999023 0.002930 0.795105
0.996582 0.003418 0.776459
0.996063 0.003937 0.776459
0.015198 0.112244 0.996063
0.069611 0.096558 1.000000
0.197540 0.055878 0.972046
0.408325 0.001953 0.936279
0.676483 0.001953 0.881378
0.928436 0.001953 0.841187
1.000000 0.000000 0.806854
0.996063 0.000000 0.791168
0.996063 0.000000 0.791168
0.000977 0.259796 1.000000
0.045105 0.238739 1.000000
0.172546 0.203918 0.998047
0.390198 0.142639 0.963226
0.654907 0.064697 0.910797
0.914215 0.004425 0.866180
1.000000 0.002930 0.826477
0.997559 0.000000 0.811279
1.000000 0.000000 0.813721
0.001465 0.495087 1.000000
0.014709 0.475983 0.997070
0.144623 0.438721 1.000000
0.347534 0.376953 0.994598
0.621063 0.298523 0.953430
0.875977 0.223053 0.902466
0.998047 0.169128 0.868134
1.000000 0.147552 0.854401
0.997559 0.143616 0.853424
0.005890 0.784302 1.000000
0.000000 0.765198 1.000000
0.097046 0.726471 0.998047
0.309814 0.663727 1.000000
0.576477 0.586273 1.000000
0.827942 0.509308 0.952454
0.992157 0.458832 0.912750
0.998047 0.436768 0.904907
0.996063 0.427460 0.901947
0.001465 0.997559 0.994598
0.001953 0.988220 1.000000
0.043640 0.970093 0.999023
0.255890 0.936279 1.000000
0.522064 0.861267 1.000000
0.778931 0.783813 1.000000
0.964203 0.728424 0.965210
1.000000 0.704407 0.949005
0.998535 0.700500 0.947540
0.000000 1.000000 0.994110
0.003937 1.000000 0.998047
0.014709 0.998047 0.998047
0.215210 0.998535 1.000000
0.478424 0.998047 1.000000
0.740692 0.984802 0.999512
0.932343 0.925476 1.000000
1.000000 0.902954 0.988220
0.997070 0.901947 0.981384
0.003418 0.996582 1.000000
0.000488 0.996063 0.997070
0.002441 1.000000 1.000000
0.184814 0.998535 0.998047
0.452454 0.999512 1.000000
0.713715 1.000000 1.000000
0.907349 0.996582 0.999512
0.988739 0.992157 1.000000
1.000000 0.985291 1.000000
0.003937 1.000000 1.000000
0.003418 1.000000 1.000000
0.000977 0.997070 0.997070
0.135773 0.998535 0.998535
0.415680 1.000000 1.000000
0.695099 1.000000 1.000000
0.893127 0.999023 0.997070
0.985291 1.000000 0.999512
1.000000 1.000000 1.000000
