Color-Correction/LUTs/GH5/Basic/IWLTBAP/U-PANASONIC-V-LOG-HDR-LTR.cube
# Copyright: (C) Copyright 2010-2018 by IWLTBAP SAS
# Cannot be resold, shared or otherwise redistributed
# Website: https://luts.iwltbap.com
TITLE "Panasonic V-Log HDR (Utility LOG to Rec.709)"
LUT_3D_SIZE 33
0.000244 0.000244 0.000244
0.000244 0.000244 0.000244
0.000244 0.000244 0.000244
0.000244 0.000244 0.000244
0.018738 0.000000 0.000244
0.039825 0.000000 0.002014
0.067871 0.000000 0.002411
0.097382 0.000000 0.003937
0.139435 0.000000 0.004272
0.175140 0.000305 0.006287
0.210175 0.002472 0.010468
0.246399 0.005951 0.015961
0.286987 0.010406 0.023407
0.329773 0.018280 0.034363
0.373199 0.027313 0.044434
0.416595 0.038055 0.060608
0.459106 0.047882 0.077850
0.504242 0.059296 0.096008
0.550598 0.073181 0.117676
0.595886 0.086792 0.142395
0.645660 0.101166 0.167297
0.699707 0.115875 0.193970
0.756683 0.131439 0.222351
0.821777 0.149323 0.252960
0.889832 0.162842 0.283600
0.946838 0.175720 0.316284
0.953979 0.182861 0.339355
0.953979 0.182861 0.339355
0.953979 0.182861 0.339355
0.953979 0.182861 0.339355
0.953979 0.182861 0.339355
0.953979 0.182861 0.339355
0.953979 0.182861 0.339355
0.000244 0.000244 0.000244
0.000244 0.000244 0.000244
0.000244 0.000244 0.000244
0.000244 0.000244 0.000244
0.018738 0.000000 0.000244
0.039825 0.000000 0.002014
0.067871 0.000000 0.002411
0.097382 0.000000 0.003937
0.139435 0.000000 0.004272
0.175140 0.000305 0.006287
0.210175 0.002472 0.010468
0.246399 0.005951 0.015961
0.286987 0.010406 0.023407
0.329773 0.018280 0.034363
0.373199 0.027313 0.044434
0.416595 0.038055 0.060608
0.459106 0.047882 0.077850
0.504242 0.059296 0.096008
0.550598 0.073181 0.117676
0.595886 0.086792 0.142395
0.645660 0.101166 0.167297
0.699707 0.115875 0.193970
0.756683 0.131439 0.222351
0.821777 0.149323 0.252960
0.889832 0.162842 0.283600
0.946838 0.175720 0.316284
0.953979 0.182861 0.339355
0.953979 0.182861 0.339355
0.953979 0.182861 0.339355
0.953979 0.182861 0.339355
0.953979 0.182861 0.339355
0.953979 0.182861 0.339355
0.953979 0.182861 0.339355
0.000244 0.000244 0.000244
0.000244 0.000244 0.000244
0.000244 0.000244 0.000244
0.000244 0.000244 0.000244
0.018738 0.000000 0.000244
0.039825 0.000000 0.002014
0.067871 0.000000 0.002411
0.097382 0.000000 0.003937
0.139435 0.000000 0.004272
0.175140 0.000305 0.006287
0.210175 0.002472 0.010468
0.246399 0.005951 0.015961
0.286987 0.010406 0.023407
0.329773 0.018280 0.034363
0.373199 0.027313 0.044434
0.416595 0.038055 0.060608
0.459106 0.047882 0.077850
0.504242 0.059296 0.096008
0.550598 0.073181 0.117676
0.595886 0.086792 0.142395
0.645660 0.101166 0.167297
0.699707 0.115875 0.193970
0.756683 0.131439 0.222351
0.821777 0.149323 0.252960
0.889832 0.162842 0.283600
0.946838 0.175720 0.316284
0.953979 0.182861 0.339355
0.953979 0.182861 0.339355
0.953979 0.182861 0.339355
0.953979 0.182861 0.339355
0.953979 0.182861 0.339355
0.953979 0.182861 0.339355
0.953979 0.182861 0.339355
0.000244 0.000244 0.000244
0.000244 0.000244 0.000244
0.000244 0.000244 0.000244
0.000244 0.000244 0.000244
0.018738 0.000000 0.000244
0.039825 0.000000 0.002014
0.067871 0.000000 0.002411
0.097382 0.000000 0.003937
0.139435 0.000000 0.004272
0.175140 0.000305 0.006287
0.210175 0.002472 0.010468
0.246399 0.005951 0.015961
0.286987 0.010406 0.023407
0.329773 0.018280 0.034363
0.373199 0.027313 0.044434
0.416595 0.038055 0.060608
0.459106 0.047882 0.077850
0.504242 0.059296 0.096008
0.550598 0.073181 0.117676
0.595886 0.086792 0.142395
0.645660 0.101166 0.167297
0.699707 0.115875 0.193970
0.756683 0.131439 0.222351
0.821777 0.149323 0.252960
0.889832 0.162842 0.283600
0.946838 0.175720 0.316284
0.953979 0.182861 0.339355
0.953979 0.182861 0.339355
0.953979 0.182861 0.339355
0.953979 0.182861 0.339355
0.953979 0.182861 0.339355
0.953979 0.182861 0.339355
0.953979 0.182861 0.339355
0.001282 0.015533 0.002930
0.001282 0.015533 0.002930
0.001282 0.015533 0.002930
0.001282 0.015533 0.002930
0.026459 0.020905 0.001587
0.047363 0.017883 0.001465
0.080505 0.015656 0.001770
0.122528 0.013641 0.001709
0.158081 0.012177 0.001526
0.191467 0.011261 0.001770
0.225708 0.009308 0.002808
0.264709 0.008942 0.006012
0.305695 0.010132 0.012817
0.343597 0.016937 0.022278
0.384033 0.025024 0.033661
0.424591 0.035339 0.050232
0.465851 0.045105 0.068817
0.509491 0.056274 0.087189
0.554565 0.070496 0.109650
0.599426 0.084930 0.135895
0.648590 0.099670 0.162018
0.701965 0.114746 0.189697
0.758423 0.130463 0.219421
0.823059 0.148529 0.250549
0.891113 0.162231 0.281891
0.947174 0.175232 0.314636
0.954102 0.182434 0.337921
0.954102 0.182434 0.337921
0.954102 0.182434 0.337921
0.954102 0.182434 0.337921
0.954102 0.182434 0.337921
0.954102 0.182434 0.337921
0.954102 0.182434 0.337921
0.002563 0.035706 0.004517
0.002563 0.035706 0.004517
0.002563 0.035706 0.004517
0.002563 0.035706 0.004517
0.015991 0.039154 0.002747
0.054840 0.041626 0.002960
0.085236 0.041229 0.003540
0.122772 0.037079 0.003906
0.159241 0.033508 0.003601
0.195160 0.032196 0.003998
0.229553 0.028046 0.005096
0.267273 0.026489 0.007996
0.308441 0.024414 0.012573
0.351685 0.023438 0.015717
0.394684 0.023224 0.022064
0.433655 0.032257 0.039581
0.472992 0.042084 0.058350
0.515076 0.053101 0.076904
0.558685 0.067169 0.100098
0.603333 0.082672 0.128113
0.651337 0.097870 0.155853
0.704559 0.113678 0.185486
0.760284 0.129242 0.215973
0.824615 0.147766 0.248108
0.892456 0.161407 0.279694
0.947601 0.174683 0.312805
0.954224 0.182007 0.336487
0.954224 0.182007 0.336487
0.954224 0.182007 0.336487
0.954224 0.182007 0.336487
0.954224 0.182007 0.336487
0.954224 0.182007 0.336487
0.954224 0.182007 0.336487
0.004242 0.060760 0.008118
0.004242 0.060760 0.008118
0.004242 0.060760 0.008118
0.004242 0.060760 0.008118
0.015167 0.066406 0.004578
0.034607 0.067963 0.004761
0.091400 0.072693 0.006134
0.129364 0.069214 0.006927
0.160065 0.065063 0.006683
0.195465 0.061005 0.006927
0.232056 0.055664 0.008179
0.270599 0.051208 0.011078
0.311554 0.047211 0.014984
0.352753 0.043060 0.018280
0.395416 0.039825 0.022858
0.440308 0.036438 0.031189
0.482513 0.037659 0.042297
0.522888 0.048981 0.063324
0.564301 0.063049 0.087555
0.608246 0.078888 0.116180
0.655640 0.095154 0.146942
0.707977 0.112000 0.179230
0.762878 0.127533 0.211182
0.826599 0.146545 0.244415
0.894196 0.160400 0.276794
0.948181 0.174011 0.310303
0.954346 0.181366 0.334290
0.954346 0.181366 0.334290
0.954346 0.181366 0.334290
0.954346 0.181366 0.334290
0.954346 0.181366 0.334290
0.954346 0.181366 0.334290
0.954346 0.181366 0.334290
0.006805 0.094116 0.011932
0.006805 0.094116 0.011932
0.006805 0.094116 0.011932
0.006805 0.094116 0.011932
0.013550 0.100647 0.006866
0.029877 0.104156 0.007660
0.057831 0.107330 0.008484
0.132935 0.113739 0.011169
0.167267 0.106110 0.010773
0.197235 0.101685 0.011169
0.234161 0.094177 0.012451
0.271698 0.087311 0.015198
0.313354 0.079407 0.018585
0.353882 0.070770 0.021973
0.395142 0.064301 0.026550
0.440308 0.058929 0.033081
0.485382 0.051880 0.039429
0.531830 0.045624 0.045929
0.572449 0.056793 0.068665
0.614868 0.073914 0.099518
0.661804 0.090912 0.133301
0.712463 0.109467 0.169617
0.766418 0.125366 0.204468
0.829102 0.144592 0.239105
0.896545 0.158997 0.272919
0.948883 0.173035 0.306824
0.954468 0.180542 0.331360
0.954468 0.180542 0.331360
0.954468 0.180542 0.331360
0.954468 0.180542 0.331360
0.954468 0.180542 0.331360
0.954468 0.180542 0.331360
0.954468 0.180542 0.331360
0.010803 0.134277 0.017883
0.010803 0.134277 0.017883
0.010803 0.134277 0.017883
0.010803 0.134277 0.017883
0.015259 0.139496 0.010345
0.028870 0.141937 0.010834
0.050690 0.142181 0.011627
0.085388 0.146454 0.013519
0.168304 0.147675 0.015503
0.205872 0.143433 0.016418
0.234894 0.137299 0.017639
0.272278 0.130463 0.020111
0.312683 0.120178 0.023285
0.355347 0.110596 0.027222
0.396820 0.099213 0.031189
0.440948 0.089661 0.036499
0.486053 0.079468 0.041321
0.531799 0.069122 0.047119
0.579254 0.059052 0.053040
0.624512 0.066498 0.076019
0.668762 0.084045 0.113037
0.718750 0.105530 0.154602
0.771423 0.122467 0.195038
0.832672 0.141785 0.231445
0.899811 0.156952 0.267181
0.949921 0.171448 0.302185
0.954712 0.179260 0.327087
0.954712 0.179260 0.327087
0.954712 0.179260 0.327087
0.954712 0.179260 0.327087
0.954712 0.179260 0.327087
0.954712 0.179260 0.327087
0.954712 0.179260 0.327087
0.018005 0.167450 0.026764
0.018005 0.167450 0.026764
0.018005 0.167450 0.026764
0.018005 0.167450 0.026764
0.017883 0.172455 0.016205
0.031097 0.175293 0.016235
0.050446 0.177826 0.016815
0.077301 0.178040 0.017212
0.122101 0.182404 0.019775
0.203735 0.181000 0.021912
0.241669 0.176392 0.023926
0.270142 0.169006 0.025421
0.311310 0.160553 0.027588
0.352997 0.149933 0.031403
0.396667 0.137878 0.036102
0.441315 0.127045 0.040833
0.486328 0.115173 0.044312
0.533447 0.102844 0.049896
0.579376 0.089600 0.055786
0.630524 0.076508 0.063232
0.679565 0.075104 0.082855
0.727051 0.098389 0.131073
0.778381 0.117767 0.179718
0.838135 0.137787 0.220642
0.903625 0.154053 0.259003
0.951111 0.169220 0.295258
0.955017 0.177551 0.321198
0.955017 0.177551 0.321198
0.955017 0.177551 0.321198
0.955017 0.177551 0.321198
0.955017 0.177551 0.321198
0.955017 0.177551 0.321198
0.955017 0.177551 0.321198
0.025269 0.202881 0.037018
0.025269 0.202881 0.037018
0.025269 0.202881 0.037018
0.025269 0.202881 0.037018
0.024567 0.207153 0.026642
0.032013 0.210083 0.022583
0.048737 0.211578 0.022949
0.072968 0.212860 0.023315
0.106781 0.214020 0.024933
0.158722 0.215485 0.026459
0.237488 0.214111 0.030182
0.278687 0.209106 0.032196
0.310028 0.200714 0.033173
0.352081 0.191040 0.036163
0.393738 0.178009 0.040588
0.440155 0.165955 0.045410
0.486206 0.153351 0.049072
0.532349 0.141235 0.053864
0.579651 0.128235 0.059967
0.631775 0.112762 0.068085
0.683716 0.095612 0.074005
0.737946 0.089996 0.096680
0.788666 0.109436 0.151215
0.845795 0.132690 0.202911
0.908539 0.149689 0.246399
0.952515 0.165955 0.285156
0.955475 0.175110 0.312897
0.955475 0.175110 0.312897
0.955475 0.175110 0.312897
0.955475 0.175110 0.312897
0.955475 0.175110 0.312897
0.955475 0.175110 0.312897
0.955475 0.175110 0.312897
0.033844 0.236847 0.049072
0.033844 0.236847 0.049072
0.033844 0.236847 0.049072
0.033844 0.236847 0.049072
0.032166 0.239685 0.039337
0.032227 0.242462 0.029846
0.047028 0.243713 0.029938
0.067963 0.245331 0.030396
0.097351 0.246399 0.031677
0.136688 0.246246 0.032990
0.192596 0.247803 0.035492
0.274567 0.248657 0.039246
0.322418 0.241821 0.041595
0.351929 0.231934 0.043030
0.394165 0.220123 0.046143
0.438232 0.206665 0.050812
0.486267 0.193726 0.055054
0.532227 0.181335 0.059418
0.579285 0.167847 0.065186
0.629761 0.154541 0.071625
0.683929 0.138885 0.079346
0.739868 0.118225 0.087158
0.799622 0.102448 0.106628
0.857025 0.124115 0.169678
0.913971 0.142822 0.224823
0.954803 0.161438 0.270355
0.955719 0.193085 0.308441
0.955719 0.193085 0.308441
0.955719 0.193085 0.308441
0.955719 0.193085 0.308441
0.955719 0.193085 0.308441
0.955719 0.193085 0.308441
0.955719 0.193085 0.308441
0.043671 0.269562 0.063995
0.043671 0.269562 0.063995
0.043671 0.269562 0.063995
0.043671 0.269562 0.063995
0.041809 0.271851 0.054443
0.039246 0.274292 0.043823
0.045288 0.276428 0.037872
0.063202 0.277802 0.038208
0.089935 0.279816 0.039307
0.124908 0.280731 0.041077
0.166382 0.278748 0.041870
0.224121 0.283813 0.045410
0.316589 0.284119 0.051392
0.364746 0.279236 0.053986
0.392853 0.266266 0.054016
0.437744 0.253082 0.058289
0.484924 0.237793 0.063019
0.532013 0.223755 0.067810
0.580872 0.210297 0.071655
0.630280 0.194763 0.076569
0.683502 0.181335 0.084564
0.739380 0.164978 0.091461
0.801422 0.141693 0.099762
0.867462 0.115845 0.117310
0.923370 0.133301 0.187653
0.959534 0.154999 0.248779
0.955872 0.216156 0.302399
0.955872 0.216156 0.302399
0.955872 0.216156 0.302399
0.955872 0.216156 0.302399
0.955872 0.216156 0.302399
0.955872 0.216156 0.302399
0.955872 0.216156 0.302399
0.056244 0.303772 0.081268
0.056244 0.303772 0.081268
0.056244 0.303772 0.081268
0.056244 0.303772 0.081268
0.054108 0.305695 0.072113
0.052368 0.307709 0.063843
0.050079 0.310516 0.051514
0.063568 0.312286 0.049591
0.085968 0.314026 0.050293
0.115631 0.316010 0.052704
0.154449 0.315704 0.053619
0.196320 0.315369 0.054596
0.258362 0.321686 0.058777
0.357056 0.323029 0.065948
0.407959 0.316742 0.069366
0.437683 0.302673 0.068787
0.483093 0.288483 0.072296
0.529846 0.272095 0.076416
0.580597 0.257660 0.080292
0.631104 0.241150 0.084137
0.684052 0.224365 0.089813
0.739441 0.210419 0.097076
0.799713 0.190552 0.105774
0.869232 0.166260 0.111725
0.936401 0.126953 0.126160
0.963409 0.142883 0.207214
0.956207 0.210632 0.277405
0.956207 0.210632 0.277405
0.956207 0.210632 0.277405
0.956207 0.210632 0.277405
0.956207 0.210632 0.277405
0.956207 0.210632 0.277405
0.956207 0.210632 0.277405
0.071716 0.339539 0.102142
0.071716 0.339539 0.102142
0.071716 0.339539 0.102142
0.071716 0.339539 0.102142
0.070129 0.340942 0.094330
0.068420 0.342773 0.085876
0.066528 0.345306 0.075348
0.066833 0.348175 0.062653
0.084412 0.349518 0.063110
0.109467 0.351196 0.064697
0.143219 0.352356 0.066345
0.182007 0.351654 0.066895
0.224640 0.352692 0.067505
0.296326 0.359833 0.072449
0.398773 0.362091 0.080566
0.453705 0.356598 0.082092
0.483093 0.341736 0.081726
0.528961 0.326080 0.085236
0.579468 0.309601 0.088501
0.631256 0.293182 0.093170
0.684570 0.274261 0.098938
0.739532 0.258698 0.105042
0.800262 0.240173 0.108765
0.867126 0.221130 0.116638
0.936432 0.189972 0.121277
0.969513 0.135162 0.130463
0.957825 0.221649 0.252930
0.957825 0.221649 0.252930
0.957825 0.221649 0.252930
0.957825 0.221649 0.252930
0.957825 0.221649 0.252930
0.957825 0.221649 0.252930
0.957825 0.221649 0.252930
0.087128 0.377350 0.122864
0.087128 0.377350 0.122864
0.087128 0.377350 0.122864
0.087128 0.377350 0.122864
0.085541 0.378235 0.115631
0.083862 0.379211 0.108093
0.081512 0.380585 0.097961
0.078369 0.382751 0.084442
0.083221 0.384430 0.075104
0.104889 0.386200 0.075775
0.134369 0.389313 0.077820
0.170349 0.390472 0.079346
0.210693 0.390564 0.079926
0.255859 0.392761 0.081238
0.332825 0.401154 0.086761
0.442810 0.403625 0.094513
0.498627 0.396912 0.097168
0.528320 0.379974 0.097565
0.577240 0.364044 0.101074
0.629608 0.346100 0.103058
0.682953 0.327759 0.108429
0.740692 0.311859 0.113220
0.798676 0.295197 0.116577
0.865387 0.275940 0.121460
0.935242 0.250641 0.126526
0.966309 0.212738 0.124207
0.959381 0.238037 0.216553
0.959381 0.238037 0.216553
0.959381 0.238037 0.216553
0.959381 0.238037 0.216553
0.959381 0.238037 0.216553
0.959381 0.238037 0.216553
0.959381 0.238037 0.216553
0.101257 0.418732 0.147766
0.101257 0.418732 0.147766
0.101257 0.418732 0.147766
0.101257 0.418732 0.147766
0.099640 0.419373 0.141632
0.098175 0.419830 0.135437
0.096375 0.420349 0.126617
0.093872 0.420990 0.114502
0.090790 0.423035 0.097778
0.102448 0.424896 0.089478
0.129395 0.427643 0.090912
0.162537 0.430389 0.092438
0.197357 0.431305 0.093536
0.240753 0.432312 0.094391
0.291016 0.434692 0.095428
0.372467 0.442749 0.102203
0.484955 0.447815 0.109680
0.541931 0.439301 0.111694
0.574432 0.421448 0.112610
0.626709 0.405121 0.115234
0.679779 0.386169 0.119232
0.737579 0.367828 0.121735
0.799164 0.350800 0.127594
0.866302 0.332214 0.131256
0.934845 0.310760 0.134033
0.964233 0.282166 0.132324
0.958801 0.311737 0.240051
0.958801 0.311737 0.240051
0.958801 0.311737 0.240051
0.958801 0.311737 0.240051
0.958801 0.311737 0.240051
0.958801 0.311737 0.240051
0.958801 0.311737 0.240051
0.117645 0.462402 0.175964
0.117645 0.462402 0.175964
0.117645 0.462402 0.175964
0.117645 0.462402 0.175964
0.116364 0.462921 0.171326
0.115143 0.463531 0.166443
0.113586 0.464355 0.159027
0.111359 0.464783 0.147980
0.108887 0.465790 0.132843
0.106445 0.467834 0.111969
0.124237 0.469666 0.105469
0.156677 0.472260 0.106873
0.192200 0.473969 0.107727
0.229523 0.476227 0.109009
0.273224 0.477020 0.110229
0.326111 0.479492 0.112152
0.413422 0.488190 0.118683
0.528534 0.491516 0.123260
0.591827 0.483093 0.127777
0.623779 0.465729 0.128174
0.675842 0.448578 0.130402
0.732300 0.429596 0.132294
0.797089 0.410980 0.136902
0.866791 0.392639 0.141022
0.934845 0.374756 0.142273
0.964142 0.351257 0.142731
0.955627 0.379791 0.265747
0.955627 0.379791 0.265747
0.955627 0.379791 0.265747
0.955627 0.379791 0.265747
0.955627 0.379791 0.265747
0.955627 0.379791 0.265747
0.955627 0.379791 0.265747
0.134125 0.506744 0.202759
0.134125 0.506744 0.202759
0.134125 0.506744 0.202759
0.134125 0.506744 0.202759
0.133331 0.507416 0.199249
0.132629 0.508179 0.195709
0.131531 0.508911 0.190094
0.129913 0.509796 0.181519
0.127441 0.511017 0.169098
0.124756 0.512634 0.150299
0.122894 0.514771 0.126221
0.146393 0.516418 0.120911
0.185028 0.517853 0.121796
0.222504 0.519928 0.124451
0.260956 0.522858 0.125549
0.309326 0.524139 0.126038
0.365082 0.525604 0.128845
0.456665 0.533295 0.132721
0.575836 0.537018 0.139282
0.639496 0.529144 0.144379
0.673798 0.510345 0.143768
0.730408 0.494202 0.144897
0.793823 0.474579 0.146851
0.866608 0.457733 0.149841
0.933655 0.440063 0.151733
0.961853 0.420502 0.155426
0.952087 0.448090 0.288940
0.952087 0.448090 0.288940
0.952087 0.448090 0.288940
0.952087 0.448090 0.288940
0.952087 0.448090 0.288940
0.952087 0.448090 0.288940
0.952087 0.448090 0.288940
0.151611 0.554321 0.230682
0.151611 0.554321 0.230682
0.151611 0.554321 0.230682
0.151611 0.554321 0.230682
0.151001 0.554596 0.227875
0.150330 0.555145 0.224884
0.149445 0.555817 0.220856
0.148132 0.556641 0.214996
0.146210 0.557739 0.206329
0.143707 0.559479 0.192383
0.140381 0.561615 0.170502
0.140015 0.564178 0.140381
0.172424 0.566071 0.137207
0.214722 0.567566 0.139496
0.253632 0.568909 0.141235
0.296173 0.570618 0.142700
0.348480 0.571747 0.143097
0.407104 0.572937 0.143921
0.499420 0.580353 0.147156
0.620667 0.584320 0.154205
0.688873 0.575470 0.157318
0.727692 0.558502 0.157867
0.790833 0.542755 0.159912
0.860962 0.526062 0.160553
0.931580 0.509521 0.162109
0.956787 0.493011 0.178070
0.951019 0.513855 0.316101
0.951019 0.513855 0.316101
0.951019 0.513855 0.316101
0.951019 0.513855 0.316101
0.951019 0.513855 0.316101
0.951019 0.513855 0.316101
0.951019 0.513855 0.316101
0.168030 0.605286 0.261566
0.168030 0.605286 0.261566
0.168030 0.605286 0.261566
0.168030 0.605286 0.261566
0.167511 0.605560 0.259216
0.167023 0.605865 0.256775
0.166290 0.606232 0.253174
0.165283 0.606750 0.248322
0.163757 0.607422 0.241089
0.161560 0.608368 0.231079
0.158630 0.609589 0.216156
0.154724 0.612030 0.191162
0.156433 0.615356 0.155945
0.199982 0.617798 0.151764
0.244110 0.618378 0.154205
0.286835 0.618530 0.155762
0.331299 0.621094 0.157684
0.387726 0.622009 0.158051
0.448853 0.623566 0.158691
0.544769 0.631653 0.163086
0.672455 0.634338 0.167572
0.743134 0.624268 0.168732
0.787964 0.609558 0.169922
0.857880 0.596985 0.170593
0.927338 0.583649 0.171417
0.953735 0.568115 0.188843
0.948364 0.585846 0.346313
0.948364 0.585846 0.346313
0.948364 0.585846 0.346313
0.948364 0.585846 0.346313
0.948364 0.585846 0.346313
0.948364 0.585846 0.346313
0.948364 0.585846 0.346313
0.186340 0.660248 0.293457
0.186340 0.660248 0.293457
0.186340 0.660248 0.293457
0.186340 0.660248 0.293457
0.185944 0.660614 0.291687
0.185486 0.660980 0.289764
0.184845 0.661469 0.287079
0.183929 0.662140 0.283386
0.182770 0.663116 0.278351
0.181122 0.664185 0.271210
0.178955 0.665192 0.260773
0.176025 0.666565 0.244904
0.171204 0.668427 0.215759
0.174347 0.671021 0.171295
0.229401 0.674011 0.167328
0.277191 0.674927 0.169525
0.320465 0.676575 0.170349
0.369324 0.677673 0.171936
0.429749 0.677887 0.172180
0.493591 0.680267 0.173279
0.595520 0.687042 0.175171
0.727142 0.689911 0.178711
0.805084 0.682434 0.180206
0.855530 0.670654 0.179199
0.924744 0.659790 0.180054
0.951813 0.647339 0.201904
0.948120 0.657990 0.373322
0.948120 0.657990 0.373322
0.948120 0.657990 0.373322
0.948120 0.657990 0.373322
0.948120 0.657990 0.373322
0.948120 0.657990 0.373322
0.948120 0.657990 0.373322
0.196930 0.722687 0.323334
0.196930 0.722687 0.323334
0.196930 0.722687 0.323334
0.196930 0.722687 0.323334
0.196655 0.722809 0.321625
0.196442 0.722992 0.320038
0.196167 0.723236 0.317871
0.195923 0.723572 0.315002
0.195526 0.724030 0.311096
0.195007 0.724579 0.305603
0.193573 0.725403 0.297668
0.191620 0.726471 0.285187
0.188629 0.727936 0.266632
0.185242 0.729950 0.235657
0.190948 0.736603 0.185120
0.255188 0.736084 0.181946
0.306793 0.739410 0.182068
0.357574 0.739594 0.181183
0.410675 0.741943 0.181793
0.474701 0.741394 0.183044
0.544891 0.743683 0.184357
0.653198 0.748718 0.185913
0.791321 0.750641 0.186829
0.875397 0.745514 0.187592
0.922729 0.737000 0.186981
0.950256 0.727081 0.210419
0.949524 0.734497 0.399658
0.949524 0.734497 0.399658
0.949524 0.734497 0.399658
0.949524 0.734497 0.399658
0.949524 0.734497 0.399658
0.949524 0.734497 0.399658
0.949524 0.734497 0.399658
0.204987 0.797424 0.353668
0.204987 0.797424 0.353668
0.204987 0.797424 0.353668
0.204987 0.797424 0.353668
0.204895 0.797607 0.352448
0.204803 0.797760 0.351105
0.204651 0.797943 0.349304
0.204437 0.798248 0.346832
0.204193 0.798645 0.343445
0.203796 0.799164 0.338898
0.203308 0.799896 0.332550
0.202423 0.800812 0.323395
0.201050 0.802124 0.309601
0.198029 0.803864 0.289917
0.194427 0.806183 0.255402
0.203369 0.811859 0.192230
0.279266 0.811981 0.192017
0.339050 0.811646 0.190094
0.395111 0.813568 0.189636
0.455383 0.816254 0.191711
0.523254 0.817108 0.191864
0.599976 0.819061 0.191925
0.716034 0.824951 0.191986
0.864532 0.822571 0.193085
0.937256 0.818695 0.193024
0.953522 0.810120 0.223053
0.953766 0.814117 0.437408
0.953766 0.814117 0.437408
0.953766 0.814117 0.437408
0.953766 0.814117 0.437408
0.953766 0.814117 0.437408
0.953766 0.814117 0.437408
0.953766 0.814117 0.437408
0.206238 0.879974 0.382446
0.206238 0.879974 0.382446
0.206238 0.879974 0.382446
0.206238 0.879974 0.382446
0.206177 0.880127 0.381409
0.206085 0.880249 0.380371
0.205963 0.880432 0.378937
0.205780 0.880676 0.376984
0.205566 0.880920 0.374359
0.205200 0.881348 0.370697
0.204742 0.881897 0.365662
0.204132 0.882690 0.358582
0.203308 0.883667 0.348755
0.202240 0.885040 0.334808
0.201691 0.886871 0.312378
0.197937 0.889130 0.271301
0.210663 0.894470 0.194000
0.299957 0.892944 0.193817
0.369019 0.894012 0.193573
0.433411 0.895447 0.191895
0.500916 0.897583 0.193695
0.578796 0.898956 0.193817
0.667969 0.901520 0.193848
0.798004 0.907288 0.194000
0.940918 0.899597 0.194275
0.962250 0.895081 0.250549
0.967285 0.898407 0.504303
0.967285 0.898407 0.504303
0.967285 0.898407 0.504303
0.967285 0.898407 0.504303
0.967285 0.898407 0.504303
0.967285 0.898407 0.504303
0.967285 0.898407 0.504303
0.195953 0.951385 0.410004
0.195953 0.951385 0.410004
0.195953 0.951385 0.410004
0.195953 0.951385 0.410004
0.195953 0.951447 0.409149
0.195953 0.951477 0.408234
0.195923 0.951538 0.407074
0.195923 0.951599 0.405487
0.196075 0.951691 0.403290
0.196350 0.951782 0.400391
0.196686 0.951843 0.396271
0.196930 0.951996 0.390717
0.196991 0.952271 0.383057
0.197662 0.951996 0.372406
0.197266 0.952637 0.356140
0.195587 0.953552 0.331390
0.193085 0.954712 0.283661
0.213287 0.956207 0.190643
0.322845 0.953979 0.190491
0.403259 0.955963 0.190552
0.478027 0.956177 0.189636
0.555481 0.958130 0.188629
0.647430 0.961334 0.188690
0.747772 0.966095 0.190826
0.892548 0.971954 0.189178
0.986298 0.969391 0.255707
0.992432 0.970917 0.632507
0.992432 0.970917 0.632507
0.992432 0.970917 0.632507
0.992432 0.970917 0.632507
0.992432 0.970917 0.632507
0.992432 0.970917 0.632507
0.992432 0.970917 0.632507
0.191406 0.966309 0.433685
0.191406 0.966309 0.433685
0.191406 0.966309 0.433685
0.191406 0.966309 0.433685
0.191467 0.966309 0.432922
0.191528 0.966309 0.432159
0.191620 0.966309 0.431061
0.191742 0.966309 0.429626
0.191925 0.966309 0.427643
0.192169 0.966309 0.424866
0.192505 0.966309 0.421234
0.192963 0.966309 0.416077
0.193542 0.966156 0.409149
0.194458 0.965881 0.399414
0.195496 0.965240 0.385773
0.205841 0.964233 0.368622
0.244629 0.964233 0.349609
0.294647 0.964233 0.330170
0.358826 0.964233 0.323547
0.425385 0.964966 0.325256
0.502686 0.967529 0.341797
0.579498 0.970428 0.364960
0.664551 0.974670 0.398468
