Color-Correction/LUTs/GH5/Basic/CRFTSHO/Vlog-709 Tungsten-3_1.PB__3315.cube
TITLE "Generated by Resolve"
LUT_3D_SIZE 9
0 0 0
0 0 0
0.124147 0 0
0.266636 0 0
0.412604 0 0
0.596002 0 0
0.8645 0 0
1 0 0
1 0 0
0 0.0193942 0
0.00967422 0.0157015 0
0.150607 0.0101625 0
0.335348 0 0
0.563333 0 0
0.904921 0 0
1 0 0
1 0 0
1 0 0
0 0.156405 0
0 0.172351 0
0.158373 0.149767 0
0.415854 0.117464 0
0.738567 0.081651 0
1 0.0374762 0
1 0 0
1 0 0
1 0 0
0 0.384405 0
0 0.377768 0
0.0633249 0.366018 0
0.35668 0.340566 0
0.682124 0.308446 0
1 0.273121 0
1 0.234852 0
1 0.196628 0
1 0.152209 0
0 0.628977 0
0 0.628748 0
0 0.620951 0
0.251591 0.601175 0
0.583825 0.574151 0
0.938033 0.542473 0
1 0.507927 0
1 0.470817 0
1 0.437034 0
0 0.902998 0
0 0.907698 0
0 0.903487 0
0.132296 0.888182 0
0.469429 0.86276 0
0.825254 0.832898 0
1 0.797711 0
1 0.75581 0
1 0.722911 0
0 1 0
0 1 0
0 1 0
0.00267033 1 0
0.343206 1 0
0.700267 1 0
1 1 0
1 1 0
1 1 0
0 1 0
0 1 0
0 1 0
0 1 0
0.231983 1 0
0.578332 1 0
0.921874 1 0
1 1 0
1 1 0
0 1 0
0 1 0
0 1 0
0 1 0
0.108843 1 0
0.451942 1 0
0.796536 1 0
1 1 0
1 1 0
0 0 0.00598154
0 0 0.0123903
0.123125 0 0.0149538
0.265278 0 0.00984207
0.411337 0 0
0.611048 0 0
0.905852 0 0
1 0 0
1 0 0
0 0.0184482 0.0370947
0.00448615 0.0136263 0.0333104
0.149508 0.0077821 0.0298161
0.335866 0 0.00991836
0.588327 0 0
0.938766 0 0
1 0 0
1 0 0
1 0 0
0 0.160204 0.0356756
0 0.169406 0.028687
0.151522 0.14406 0.00387579
0.41915 0.115251 0
0.74229 0.0778973 0
1 0.0350347 0
1 0 0
1 0 0
1 0 0
0 0.379553 0
0 0.37557 0
0.0611582 0.364309 0
0.35465 0.33875 0
0.680949 0.307362 0
1 0.272267 0
1 0.234684 0
1 0.196963 0
1 0.150652 0
0 0.627466 0
0 0.627344 0
0 0.619974 0
0.251011 0.600595 0
0.58349 0.5738 0
0.937163 0.542428 0
1 0.508049 0
1 0.472206 0
1 0.441032 0
0 0.902022 0
0 0.907134 0
0 0.903227 0
0.132952 0.887785 0
0.470039 0.862379 0
0.82562 0.833234 0
1 0.795254 0
1 0.75436 0
1 0.723461 0
0 1 0
0 1 0
0 1 0
0.0039826 1 0
0.34583 1 0
0.700511 1 0
1 1 0
1 1 0
1 1 0
0 1 0
0 1 0
0 1 0
0 1 0
0.238666 1 0
0.579324 1 0
0.922286 1 0
1 1 0
1 1 0
0 1 0
0 1 0
0 1 0
0 1 0
0.111009 1 0
0.453956 1 0
0.797818 1 0
1 1 0
1 1 0
0 0 0.127398
0 0 0.132876
0.120928 0 0.133516
0.260731 0 0.123613
0.410803 0 0.0994278
0.626947 0 0.0799573
0.940658 0 0.069398
1 0 0.0487831
1 0 0.0267491
0 0.0129702 0.149813
0 0.0116274 0.159167
0.146807 0.00325017 0.167865
0.333913 0 0.14934
0.60621 0 0.130236
0.961746 0 0.104082
1 0 0.0654002
1 0 0.0213169
1 0 0
0 0.160601 0.199481
0 0.160967 0.204685
0.144137 0.138018 0.185626
0.419501 0.111574 0.163119
0.743313 0.0735485 0.127718
1 0.0330663 0.0878309
1 0 0.0456855
1 0 0.00410468
1 0 0
0 0.373632 0.139483
0 0.373358 0.133394
0.0581674 0.361807 0.122332
0.3523 0.336721 0.100221
0.679332 0.306127 0.0753643
1 0.271122 0.0485847
1 0.233906 0.0238346
1 0.19559 0
1 0.149416 0
0 0.62533 0.0504005
0 0.625238 0.0492409
0 0.61828 0.0430304
0.249653 0.599084 0.0308537
0.581903 0.572183 0.0142214
0.934356 0.540612 0
1 0.505974 0
1 0.47216 0
1 0.442084 0
0 0.898695 0
0 0.904356 0
0 0.900694 0
0.131884 0.884855 0
0.468299 0.859586 0
0.82298 0.830289 0
1 0.78912 0
1 0.75024 0
1 0.720729 0
0 1 0
0 1 0
0 1 0
0.00161746 1 0
0.347768 1 0
0.697597 1 0
1 1 0
1 1 0
1 1 0
0 1 0
0 1 0
0 1 0
0 1 0
0.240177 1 0
0.577188 1 0
0.919387 1 0
1 1 0
1 1 0
0 1 0
0 1 0
0 1 0
0 1 0
0.110079 1 0
0.452461 1 0
0.795758 1 0
1 1 0
1 1 0
0 0 0.278218
0 0 0.284718
0.115206 0 0.284398
0.250263 0 0.269795
0.408301 0 0.252781
0.641672 0 0.254871
0.970947 0 0.265797
1 0 0.267659
1 0 0.266697
0 0.00863661 0.302159
0 0.00671397 0.331594
0.135164 0 0.355581
0.327581 0 0.359594
0.615503 0 0.373465
0.974014 0 0.369116
1 0 0.343862
1 0 0.303868
1 0 0.263966
0 0.151934 0.430518
0 0.145312 0.455802
0.131533 0.127398 0.466194
0.409873 0.0998245 0.457633
0.733837 0.0617838 0.427909
1 0.024094 0.384894
1 0 0.335378
1 0 0.2851
1 0 0.237217
0 0.362051 0.430732
0 0.363134 0.432639
0.0467536 0.351614 0.421561
0.342428 0.32752 0.398184
0.67039 0.298009 0.369329
1 0.264149 0.336233
1 0.228794 0.301472
1 0.191211 0.264561
1 0.150668 0.224781
0 0.617655 0.333898
0 0.617624 0.332036
0 0.611185 0.325689
0.243748 0.592935 0.308904
0.576669 0.566903 0.286412
0.928969 0.536248 0.260868
1 0.502297 0.231846
1 0.471046 0.211795
1 0.440436 0.18909
0 0.893706 0.224781
0 0.900221 0.222629
0 0.896635 0.219837
0.130114 0.880491 0.209308
0.465629 0.856016 0.191821
0.817914 0.824353 0.173022
1 0.78085 0.162295
1 0.745251 0.144198
1 0.716365 0.112474
0 1 0.114809
0 1 0.110903
0 1 0.112978
0.000274662 1 0.105211
0.350484 1 0.100542
0.692988 1 0.0952621
1 1 0.0754101
1 1 0.0547646
1 0.999741 0.0291142
0 1 0.0126192
0 1 0.00653086
0 1 0.0140383
0 1 0.0242466
0.236866 1 0.0135042
0.573159 1 0
0.914122 1 0
1 1 0
1 1 0
0 1 0
0 1 0
0 1 0
0 1 0
0.106371 1 0
0.4477 1 0
0.790738 1 0
1 1 0
1 1 0
0 0 0.447913
0 0 0.457481
0.106416 0 0.455894
0.238392 0 0.444297
0.403265 0 0.442618
0.65481 0 0.476921
0.998108 0 0.519936
1 0 0.554742
1 0 0.577676
0 0 0.480354
0 0 0.538231
0.117433 0 0.583886
0.322667 0 0.631159
0.618677 0 0.681193
0.978439 0 0.702419
1 0 0.693095
1 0 0.660151
1 0 0.613855
0 0.135683 0.710094
0 0.126543 0.770062
0.113893 0.11252 0.812879
0.393545 0.0829633 0.818647
0.715801 0.0462348 0.79382
1 0.0102541 0.748425
1 0 0.695369
1 0 0.642634
1 0 0.589136
0 0.347951 0.795514
0 0.347478 0.796033
0.0294347 0.336339 0.787823
0.327138 0.313207 0.764752
0.655573 0.284321 0.734234
1 0.251606 0.698375
1 0.217334 0.658885
1 0.179797 0.617182
1 0.14725 0.576013
0 0.603952 0.692485
0 0.603983 0.69337
0 0.597879 0.687327
0.231266 0.580224 0.669795
0.564538 0.554772 0.644327
0.916716 0.524788 0.614496
1 0.492042 0.581735
1 0.463569 0.550072
1 0.431418 0.518196
0 0.881376 0.573678
0 0.888533 0.575219
0 0.884794 0.572488
0.120836 0.868788 0.559503
0.455756 0.845487 0.538781
0.804486 0.809537 0.51487
1 0.7673 0.490837
1 0.735729 0.4645
1 0.707164 0.433463
0 1 0.449027
0 1 0.449729
0 1 0.450477
0 1 0.442618
0.347677 1 0.431678
0.684062 1 0.41471
1 1 0.39118
1 1 0.367544
1 0.991257 0.338048
0 1 0.322301
0 1 0.319387
0 1 0.334234
0 1 0.340902
0.229755 1 0.32256
0.56672 1 0.303395
0.907332 1 0.28304
1 1 0.26006
1 1 0.236759
0 1 0.201541
0 1 0.2224
0 1 0.235462
0 1 0.22742
0.1019 1 0.210391
0.442222 1 0.191104
0.78558 1 0.170474
1 1 0.149126
1 1 0.130678
0 0 0.633387
0 0 0.64683
0.0926528 0 0.647257
0.224445 0 0.647242
0.401816 0 0.671656
0.666621 0 0.742657
1 0 0.826032
1 0 0.898589
1 0 0.944274
0 0 0.690211
0 0 0.774472
0.0967422 0 0.85687
0.316167 0 0.95816
0.616403 0 1
0.976272 0 1
1 0 1
1 0 1
1 0 1
0 0.11426 1
0 0.107958 1
0.090898 0.0933242 1
0.371786 0.0622416 1
0.69279 0.0278325 1
1 0 1
1 0 1
1 0 1
1 0 0.995392
0 0.329992 1
0 0.327718 1
0.00747692 0.317678 1
0.30779 0.295125 1
0.636591 0.266819 1
0.986328 0.235447 1
1 0.201862 1
1 0.166812 1
1 0.141451 0.965133
0 0.586313 1
0 0.586358 1
0 0.58053 1
0.214954 0.563455 1
0.548333 0.538613 1
0.900725 0.509209 1
1 0.478599 0.973342
1 0.452628 0.918059
1 0.418189 0.887404
0 0.864881 0.973602
0 0.872358 0.983505
0 0.868467 0.978943
0.106966 0.852995 0.962692
0.442237 0.829236 0.938476
0.786633 0.790066 0.893828
1 0.752255 0.851667
1 0.722866 0.822751
1 0.694377 0.797147
0 1 0.840162
0 1 0.848463
0 1 0.847639
0 1 0.832288
0.340291 1 0.79971
0.672236 1 0.772885
1 1 0.747036
1 0.997925 0.719936
1 0.978332 0.695583
0 1 0.702083
0 1 0.708965
0 1 0.714382
0 1 0.70489
0.218997 1 0.682383
0.556146 1 0.660136
0.896742 1 0.636759
1 1 0.61239
1 1 0.586816
0 1 0.571801
0 1 0.58703
0 1 0.590768
0 1 0.582254
0.0922408 1 0.562234
0.432258 1 0.540658
0.776074 1 0.5187
1 1 0.49575
1 1 0.472694
0 0 0.832792
0 0 0.850324
0.0737926 0 0.861402
0.208942 0 0.877241
0.401343 0 0.93756
0.676982 0 1
1 0 1
1 0 1
1 0 1
0 0 0.927321
0 0 1
0.0770123 0 1
0.305715 0 1
0.609064 0 1
0.968292 0 1
1 0 1
1 0 1
1 0 1
0 0.0908522 1
0 0.0877089 1
0.0628061 0.0704051 1
0.345373 0.0386816 1
0.665522 0.00691234 1
1 0 1
1 0 1
1 0 1
1 0 1
0 0.308492 1
0 0.304692 1
0 0.295537 1
0.285069 0.273976 1
0.614267 0.246509 1
0.963561 0.216449 1
1 0.182925 1
1 0.154818 1
1 0.13315 1
0 0.565667 1
0 0.56553 1
0 0.559976 1
0.195682 0.543587 1
0.528984 0.519402 1
0.880842 0.490639 1
1 0.463478 1
1 0.438834 1
1 0.40267 1
0 0.845365 1
0 0.852598 1
0 0.848905 1
0.0892958 0.834333 1
0.427146 0.807599 1
0.766934 0.768826 1
1 0.736858 1
1 0.707591 1
1 0.679164 1
0 1 1
0 1 1
0 1 1
0 1 1
0.328847 1 1
0.65803 1 1
0.991302 1 1
1 0.98352 1
1 0.962692 1
0 1 1
0 1 1
0 1 1
0 1 1
0.205982 1 1
0.543023 1 1
0.883818 1 1
1 1 0.996658
1 1 0.968566
0 1 0.96968
0 1 0.978882
0 1 0.980438
0 1 0.968933
0.0790723 1 0.945998
0.419638 1 0.923568
0.763912 1 0.900893
1 1 0.877119
1 1 0.851011
0 0 1
0 0 1
0.0535592 0 1
0.193652 0 1
0.399893 0 1
0.685634 0 1
1 0 1
1 0 1
1 0 1
0 0 1
0 0 1
0.0581369 0 1
0.291188 0 1
0.596933 0 1
0.955093 0 1
1 0 1
1 0 1
1 0 1
0 0.0681315 1
0 0.0636301 1
0.0295872 0.04448 1
0.314931 0.0137331 1
0.633722 0 1
0.974304 0 1
1 0 1
1 0 1
1 0 1
0 0.284504 1
0 0.279255 1
0 0.270848 1
0.259403 0.250248 1
0.589212 0.224063 1
0.938277 0.194965 1
1 0.161822 1
1 0.143847 1
1 0.121202 1
0 0.542687 1
0 0.541985 1
0 0.536858 1
0.173877 0.521263 1
0.506889 0.497612 1
0.856245 0.470695 1
1 0.447471 1
1 0.421897 1
1 0.385443 1
0 0.823453 1
0 0.83006 1
0 0.826825 1
0.0690776 0.812848 1
0.411429 0.783047 1
0.747097 0.747799 1
1 0.719707 1
1 0.690532 1
1 0.662028 1
0 1 1
0 1 1
0 1 1
0 1 1
0.312947 1 1
0.641917 1 1
0.974716 0.995468 1
1 0.967605 1
1 0.945281 1
0 1 1
0 1 1
0 1 1
0 1 1
0.191073 1 1
0.52784 1 1
0.86894 1 1
1 1 1
1 1 1
0 1 1
0 1 1
0 1 1
0 1 1
0.0632944 1 1
0.404959 1 1
0.749706 1 1
1 1 1
1 1 1
0 0 1
0 0 1
0.0322881 0 1
0.182513 0 1
0.397253 0 1
0.692226 0 1
1 0 1
1 0 1
1 0 1
0 0 1
0 0 1
0.0356603 0 1
0.272786 0 1
0.580316 0 1
0.937133 0 1
1 0 1
1 0 1
1 0 1
0 0.0449683 1
0 0.0360723 1
0 0.0167544 1
0.279911 0 1
0.598947 0 1
0.942229 0 1
1 0 1
1 0 1
1 0 1
0 0.258274 1
0 0.252186 1
0 0.244099 1
0.231312 0.22443 1
0.561913 0.199802 1
0.910918 0.17113 1
1 0.142535 1
1 0.133211 1
1 0.103441 1
0 0.517815 1
0 0.51606 1
0 0.511727 1
0.149722 0.496895 1
0.482368 0.473518 1
0.82919 0.450721 1
1 0.430777 1
1 0.402991 1
1 0.366766 1
0 0.799405 1
0 0.80528 1
0 0.80267 1
0.050309 0.787854 1
0.395438 0.757916 1
0.727779 0.72784 1
1 0.700801 1
1 0.672084 1
1 0.643229 1
0 1 1
0 1 1
0 1 1
0 1 1
0.294728 1 1
0.624292 1 1
0.957107 0.976928 1
1 0.950118 1
1 0.926726 1
0 1 1
0 1 1
0 1 1
0 1 1
0.17995 1 1
0.512718 1 1
0.848951 1 1
1 1 1
1 1 1
0 1 1
0 1 1
0 1 1
0 1 1
0.0524758 1 1
0.392447 1 1
0.732631 1 1
1 1 1
1 1 1
