Color-Correction/LUTs/GH5/Basic/CRFTSHO/Vlog-709 Tungsten-3_1.PB__3315.cube
TITLE "Generated by Resolve"
LUT_3D_SIZE 33
0 0 0
0 0 0
0 0 0
0 0 0
0 0 0
0.0256046 0 0
0.0572671 0 0
0.0902266 0 0
0.124147 0 0
0.158846 0 0
0.194217 0 0
0.230198 0 0
0.266636 0 0
0.303334 0 0
0.33994 0 0
0.376318 0 0
0.412604 0 0
0.451682 0 0
0.496361 0 0
0.545419 0 0
0.596002 0 0
0.651987 0 0
0.714885 0 0
0.786526 0 0
0.8645 0 0
0.948837 0 0
1 0 0
1 0 0
1 0 0
1 0 0
1 0 0
1 0 0
1 0 0
0 0 0
0 0 0
0 0 0
0 0 0
0.000198367 0 0
0.0290837 0 0
0.060029 0 0
0.0922103 0 0
0.125292 0 0
0.159075 0 0
0.193408 0 0
0.228016 0 0
0.262013 0 0
0.299229 0 0
0.341512 0 0
0.385641 0 0
0.43122 0 0
0.478187 0 0
0.528344 0 0
0.582879 0 0
0.643503 0 0
0.712322 0 0
0.790036 0 0
0.874388 0 0
0.965118 0 0
1 0 0
1 0 0
1 0 0
1 0 0
1 0 0
1 0 0
1 0 0
1 0 0
0 0 0
0 0 0
0 0 0
0 0 0
0.00390631 0 0
0.0319371 0 0
0.0618143 0 0
0.0927138 0 0
0.124132 0 0
0.1552 0 0
0.19205 0 0
0.232868 0 0
0.2766 0 0
0.321447 0 0
0.367193 0 0
0.414359 0 0
0.463706 0 0
0.516472 0 0
0.574334 0 0
0.639429 0 0
0.713939 0 0
0.79707 0 0
0.886503 0 0
0.981903 0 0
1 0 0
1 0 0
1 0 0
1 0 0
1 0 0
1 0 0
1 0 0
1 0 0
1 0 0
0 0 0
0 0 0
0 0 0
0 0 0
0.00743114 0 0
0.0332799 0 0
0.0608377 0 0
0.0932174 0 0
0.129305 0 0
0.169024 0 0
0.212009 0 0
0.257481 0 0
0.303777 0 0
0.350942 0 0
0.399603 0 0
0.450919 0 0
0.506401 0 0
0.568002 0 0
0.638041 0 0
0.717983 0 0
0.805051 0 0
0.897704 0 0
0.99556 0 0
1 0 0
1 0 0
1 0 0
1 0 0
1 0 0
1 0 0
1 0 0
1 0 0
1 0 0
1 0 0
0 0.0193942 0
0 0.0194705 0
0 0.0166629 0
0 0.0153048 0
0.00967422 0.0157015 0
0.0390936 0.0149691 0
0.0725261 0.0138094 0
0.109743 0.0122072 0
0.150607 0.0101625 0
0.194842 0.00729381 0
0.240757 0.00276188 0
0.287465 0 0
0.335348 0 0
0.385321 0 0
0.438758 0 0
0.497398 0 0
0.563333 0 0
0.63856 0 0
0.722286 0 0
0.811444 0 0
0.904921 0 0
1 0 0
1 0 0
1 0 0
1 0 0
1 0 0
1 0 0
1 0 0
1 0 0
1 0 0
1 0 0
1 0 0
1 0 0
0 0.0415961 0
0 0.0429847 0
0 0.0426795 0
0 0.0433204 0
0.00898756 0.045243 0
0.0430304 0.0450446 0
0.0808423 0.0443122 0
0.122683 0.0427558 0
0.167727 0.0399023 0
0.214099 0.0350042 0
0.261433 0.0282292 0
0.309972 0.0200656 0
0.360678 0.0108949 0
0.415839 0.000762951 0
0.477073 0 0
0.546242 0 0
0.624414 0 0
0.708446 0 0
0.796994 0 0
0.889326 0 0
0.985016 0 0
1 0 0
1 0 0
1 0 0
1 0 0
1 0 0
1 0 0
1 0 0
1 0 0
1 0 0
1 0 0
1 0 0
1 0 0
0 0.0733959 0
0 0.0766308 0
0 0.0771801 0
0 0.0789044 0
0.00358587 0.0819562 0
0.0412909 0.0820325 0
0.0831922 0.0810559 0
0.128099 0.078233 0
0.175051 0.0732586 0
0.224018 0.0664378 0
0.275441 0.0581826 0
0.33019 0.0489052 0
0.389364 0.0390784 0
0.454185 0.0291752 0
0.525872 0.0196689 0
0.603616 0.0106203 0
0.6851 0.0009308 0
0.76968 0 0
0.85774 0 0
0.948699 0 0
1 0 0
1 0 0
1 0 0
1 0 0
1 0 0
1 0 0
1 0 0
1 0 0
1 0 0
1 0 0
1 0 0
1 0 0
1 0 0
0 0.109377 0
0 0.113924 0
0 0.118654 0
0 0.121462 0
0 0.125063 0
0.0304875 0.124788 0
0.0755169 0.121614 0
0.122271 0.116457 0
0.171405 0.109545 0
0.223484 0.10132 0
0.279332 0.0922713 0
0.340032 0.0828565 0
0.406668 0.0736553 0
0.479789 0.065095 0
0.557702 0.0565194 0
0.638849 0.0472267 0
0.722698 0.037171 0
0.808957 0.0264134 0
0.897353 0.0150759 0
0.987564 0.00334173 0
1 0 0
1 0 0
1 0 0
1 0 0
1 0 0
1 0 0
1 0 0
1 0 0
1 0 0
1 0 0
1 0 0
1 0 0
1 0 0
0 0.156405 0
0 0.161898 0
0 0.167117 0
0 0.169833 0
0 0.172351 0
0.00903334 0.170077 0
0.0569924 0.164431 0
0.106172 0.15761 0
0.158373 0.149767 0
0.214588 0.141344 0
0.275853 0.13286 0
0.342992 0.124849 0
0.415854 0.117464 0
0.4925 0.109636 0
0.572091 0.101061 0
0.654185 0.0917067 0
0.738567 0.081651 0
0.82504 0.0710155 0
0.91339 0.0599222 0
1 0.0485389 0
1 0.0374762 0
1 0.0267948 0
1 0.0163577 0
1 0.00607309 0
1 0 0
1 0 0
1 0 0
1 0 0
1 0 0
1 0 0
1 0 0
1 0 0
1 0 0
0 0.210452 0
0 0.215686 0
0 0.219684 0
0 0.219989 0
0 0.220417 0
0 0.21651 0
0.0295415 0.210163 0
0.0821698 0.202838 0
0.138231 0.195392 0
0.19942 0.18819 0
0.266423 0.181628 0
0.338201 0.175174 0
0.413321 0.168032 0
0.491188 0.160143 0
0.57142 0.151476 0
0.653788 0.142138 0
0.737881 0.132311 0
0.822003 0.122423 0
0.907576 0.112322 0
0.994568 0.102098 0
1 0.0918898 0
1 0.0818189 0
1 0.0717021 0
1 0.0614633 0
1 0.0511025 0
1 0.0406348 0
1 0.0300755 0
1 0.0194858 0
1 0.0091249 0
1 0 0
1 0 0
1 0 0
1 0 0
0 0.268833 0
0 0.271397 0
0 0.27216 0
0 0.270329 0
0 0.269688 0
0 0.26537 0
0 0.259739 0
0.0531624 0.253544 0
0.114076 0.247776 0
0.180453 0.242542 0
0.250858 0.236805 0
0.324422 0.230289 0
0.400549 0.222965 0
0.478447 0.214954 0
0.557809 0.206439 0
0.638956 0.197513 0
0.721874 0.188235 0
0.806485 0.178729 0
0.892607 0.1691 0
0.979965 0.159487 0
1 0.149859 0
1 0.140093 0
1 0.130144 0
1 0.120043 0
1 0.109804 0
1 0.0994278 0
1 0.0890211 0
1 0.0787976 0
1 0.0687724 0
1 0.0588846 0
1 0.0486458 0
1 0.0352636 0
1 0.0290684 0
0 0.32697 0
0 0.326131 0
0 0.324758 0
0 0.322164 0
0 0.321706 0
0 0.318273 0
0 0.31426 0
0.0226596 0.310704 0
0.0886854 0.306188 0
0.157702 0.301045 0
0.229694 0.294896 0
0.303777 0.28809 0
0.379828 0.280705 0
0.457801 0.272831 0
0.537697 0.26453 0
0.619471 0.255894 0
0.703014 0.247013 0
0.788174 0.237995 0
0.874647 0.228962 0
0.962356 0.219791 0
1 0.210407 0
1 0.200839 0
1 0.191073 0
1 0.181155 0
1 0.171084 0
1 0.161044 0
1 0.151125 0
1 0.141329 0
1 0.131609 0
1 0.121904 0
1 0.111589 0
1 0.097261 0
1 0.0894026 0
0 0.384405 0
0 0.381338 0
0 0.379278 0
0 0.377493 0
0 0.377768 0
0 0.376394 0
0 0.37406 0
0 0.37116 0
0.0633249 0.366018 0
0.133547 0.360525 0
0.205829 0.354421 0
0.280217 0.347753 0
0.35668 0.340566 0
0.435172 0.332967 0
0.515663 0.325017 0
0.598047 0.316808 0
0.682124 0.308446 0
0.767651 0.299947 0
0.854505 0.291234 0
0.942641 0.282292 0
1 0.273121 0
1 0.263752 0
1 0.2542 0
1 0.244511 0
1 0.234852 0
1 0.225254 0
1 0.215717 0
1 0.206195 0
1 0.196628 0
1 0.186969 0
1 0.176532 0
1 0.161715 0
1 0.152209 0
0 0.442863 0
0 0.43888 0
0 0.437201 0
0 0.43595 0
0 0.437934 0
0 0.437018 0
0 0.434653 0
0 0.431495 0
0.0370031 0.427207 0
0.107698 0.421775 0
0.180255 0.415869 0
0.255009 0.409461 0
0.331945 0.402609 0
0.411017 0.395392 0
0.492119 0.387869 0
0.575036 0.380163 0
0.659525 0.372198 0
0.745434 0.363973 0
0.832685 0.355489 0
0.921202 0.346761 0
1 0.337804 0
1 0.328649 0
1 0.319387 0
1 0.310109 0
1 0.300832 0
1 0.291539 0
1 0.282216 0
1 0.272816 0
1 0.263264 0
1 0.253513 0
1 0.242908 0
1 0.228229 0
1 0.217609 0
0 0.50248 0
0 0.498116 0
0 0.496941 0
0 0.497169 0
0 0.49984 0
0 0.499184 0
0 0.496971 0
0 0.493828 0
0.00769055 0.490562 0
0.0802472 0.484947 0
0.153231 0.479332 0
0.228458 0.473289 0
0.305989 0.466835 0
0.385687 0.460029 0
0.467353 0.452949 0
0.550683 0.445548 0
0.635508 0.437827 0
0.721767 0.429831 0
0.809369 0.421561 0
0.898253 0.413046 0
0.988296 0.404318 0
1 0.395483 0
1 0.386572 0
1 0.3776 0
1 0.368566 0
1 0.359442 0
1 0.350195 0
1 0.340795 0
1 0.331151 0
1 0.321233 0
1 0.310628 0
1 0.297353 0
1 0.287968 0
0 0.564034 0
0 0.560754 0
0 0.560082 0
0 0.560586 0
0 0.563485 0
0 0.562997 0
0 0.560937 0
0 0.557977 0
0 0.554833 0
0.0514076 0.550149 0
0.125078 0.544869 0
0.200961 0.539193 0
0.279179 0.53312 0
0.359442 0.526665 0
0.441459 0.519829 0
0.525093 0.512657 0
0.610239 0.50518 0
0.696834 0.497398 0
0.784756 0.489342 0
0.873869 0.481071 0
0.963928 0.472648 0
1 0.464088 0
1 0.45539 0
1 0.446601 0
1 0.437675 0
1 0.428611 0
1 0.419364 0
1 0.409888 0
1 0.400153 0
1 0.390372 0
1 0.381064 0
1 0.370413 0
1 0.362127 0
0 0.628977 0
0 0.625879 0
0 0.624979 0
0 0.62562 0
0 0.628748 0
0 0.628489 0
0 0.626719 0
0 0.624048 0
0 0.620951 0
0.021088 0.617502 0
0.0962234 0.61236 0
0.1729 0.606989 0
0.251591 0.601175 0
0.332158 0.594965 0
0.41445 0.588357 0
0.49839 0.581415 0
0.583825 0.574151 0
0.670695 0.566583 0
0.758831 0.558755 0
0.84802 0.550713 0
0.938033 0.542473 0
1 0.534066 0
1 0.525505 0
1 0.516793 0
1 0.507927 0
1 0.498878 0
1 0.489616 0
1 0.480171 0
1 0.470817 0
1 0.462211 0
1 0.454276 0
1 0.445151 0
1 0.437034 0
0 0.695491 0
0 0.692668 0
0 0.691478 0
0 0.692317 0
0 0.695766 0
0 0.695857 0
0 0.694423 0
0 0.692058 0
0 0.689174 0
0 0.686717 0
0.066865 0.681559 0
0.144045 0.676387 0
0.223041 0.670802 0
0.303868 0.664805 0
0.386435 0.658427 0
0.470634 0.651698 0
0.556374 0.644633 0
0.643488 0.637232 0
0.731746 0.629557 0
0.820951 0.621637 0
0.910979 0.613504 0
1 0.605188 0
1 0.596704 0
1 0.588067 0
1 0.579263 0
1 0.570275 0
1 0.561135 0
1 0.552102 0
1 0.543481 0
1 0.535424 0
1 0.527794 0
1 0.51928 0
1 0.510842 0
0 0.763363 0
0 0.761074 0
0 0.759716 0
0 0.760845 0
0 0.764675 0
0 0.765103 0
0 0.763989 0
0 0.761883 0
0 0.759136 0
0 0.756268 0
0.0364385 0.752346 0
0.11426 0.74728 0
0.193561 0.741909 0
0.274647 0.736141 0
0.357504 0.729976 0
0.442039 0.723384 0
0.528084 0.716396 0
0.615366 0.709072 0
0.7037 0.701457 0
0.79295 0.693614 0
0.88304 0.685557 0
0.973953 0.677333 0
1 0.668971 0
1 0.660456 0
1 0.651804 0
1 0.642924 0
1 0.63389 0
1 0.624918 0
1 0.616175 0
1 0.607813 0
1 0.599802 0
1 0.591379 0
1 0.582681 0
0 0.832517 0
0 0.831052 0
0 0.829786 0
0 0.83125 0
0 0.835416 0
0 0.836118 0
0 0.835172 0
0 0.833204 0
0 0.830594 0
0 0.827665 0
0.00352483 0.82501 0
0.0835584 0.819638 0
0.16321 0.81445 0
0.244663 0.80882 0
0.327947 0.802701 0
0.412833 0.796109 0
0.499077 0.789151 0
0.58648 0.781857 0
0.674876 0.774304 0
0.764187 0.766552 0
0.854429 0.758633 0
0.945647 0.750591 0
1 0.742443 0
1 0.734096 0
1 0.725261 0
1 0.715877 0
1 0.706218 0
1 0.696574 0
1 0.68716 0
1 0.678126 0
1 0.669551 0
1 0.661311 0
1 0.652873 0
0 0.902998 0
0 0.902525 0
0 0.901625 0
0 0.903349 0
0 0.907698 0
0 0.908507 0
0 0.907729 0
0 0.905943 0
0 0.903487 0
0 0.900603 0
0 0.898222 0
0.0519112 0.893385 0
0.132296 0.888182 0
0.214282 0.88249 0
0.297948 0.87631 0
0.383062 0.869703 0
0.469429 0.86276 0
0.556893 0.855528 0
0.64535 0.848096 0
0.734783 0.840543 0
0.825254 0.832898 0
0.916854 0.825132 0
1 0.816983 0
1 0.807782 0
1 0.797711 0
1 0.787137 0
1 0.776425 0
1 0.765896 0
1 0.75581 0
1 0.746319 0
1 0.737636 0
1 0.730266 0
1 0.722911 0
0 0.974838 0
0 0.975204 0
0 0.974914 0
0 0.976745 0
0 0.981216 0
0 0.982223 0
0 0.981643 0
0 0.980056 0
0 0.977752 0
0 0.97496 0
0 0.971984 0
0.0194095 0.968246 0
0.101091 0.962707 0
0.183551 0.956909 0
0.26746 0.950683 0
0.352697 0.944091 0
0.439109 0.93724 0
0.526589 0.930205 0
0.615106 0.923064 0
0.704707 0.915877 0
0.795422 0.908476 0
0.88661 0.900084 0
0.976745 0.890181 0
1 0.879149 0
1 0.86746 0
1 0.855604 0
1 0.843992 0
1 0.832975 0
1 0.822843 0
1 0.813779 0
1 0.806012 0
1 0.800031 0
1 0.793759 0
0 1 0
0 1 0
0 1 0
0 1 0
0 1 0
0 1 0
0 1 0
0 1 0
0 1 0
0 1 0
0 1 0
0 1 0
0.0694743 1 0
0.152331 1 0
0.236378 1 0
0.32163 1 0
0.408011 1 0
0.495476 1 0
0.58407 0.999466 0
0.673869 0.992187 0
0.764233 0.983078 0
0.853895 0.972137 0
0.941726 0.95993 0
1 0.947036 0
1 0.93402 0
1 0.921401 0
1 0.909682 0
1 0.899275 0
1 0.890425 0
1 0.88275 0
1 0.875532 0
1 0.870405 0
1 0.865064 0
0 1 0
0 1 0
0 1 0
0 1 0
0 1 0
0 1 0
0 1 0
0 1 0
0 1 0
0 1 0
0 1 0
0 1 0
0.0370947 1 0
0.120424 1 0
0.204501 1 0
0.289662 1 0
0.375937 1 0
0.463493 1 0
0.55256 1 0
0.642512 1 0
0.732097 1 0
0.820203 1 0
0.906172 1 0
0.989792 1 0
1 0.99823 0
1 0.986145 0
1 0.975891 0
1 0.967712 0
1 0.960311 0
1 0.952728 0
1 0.945388 0
1 0.941009 0
1 0.936614 0
0 1 0
0 1 0
0 1 0
0 1 0
0 1 0
0 1 0
0 1 0
0 1 0
0 1 0
0 1 0
0 1 0
0 1 0
0.00267033 1 0
0.0874952 1 0
0.171511 1 0
0.256565 1 0
0.343206 1 0
0.431983 1 0
0.521904 1 0
0.611688 1 0
0.700267 1 0
0.786984 1 0
0.871611 1 0
0.954528 1 0
1 1 0
1 1 0
1 1 0
1 1 0
1 1 0
1 1 0
1 1 0
1 1 0
1 1 0
0 1 0
0 1 0
0 1 0
0 1 0
0 1 0
0 1 0
0 1 0
0 1 0
0 1 0
0 1 0
0 1 0
0 1 0
0 1 0
0.0531319 1 0
0.137438 1 0
0.223728 1 0
0.312551 1 0
0.402686 1 0
0.492866 1 0
0.582025 1 0
0.669474 1 0
0.755016 1 0
0.838956 1 0
0.922271 1 0
1 1 0
1 1 0
1 1 0
1 1 0
1 1 0
1 1 0
1 1 0
1 1 0
1 1 0
0 1 0
0 1 0
0 1 0
0 1 0
0 1 0
0 1 0
0 1 0
0 1 0
0 1 0
0 1 0
0 1 0
0 1 0
0 1 0
0.0178378 1 0
0.105241 1 0
0.194491 1 0
0.285039 1 0
0.375692 1 0
0.465431 1 0
0.553536 1 0
0.63975 1 0
0.724392 1 0
0.808331 1 0
0.89279 1 0
0.977829 1 0
1 1 0
1 1 0
1 1 0
1 1 0
1 1 0
1 1 0
1 1 0
1 1 0
0 1 0
0 1 0
0 1 0
0 1 0
0 1 0
0 1 0
0 1 0
0 1 0
0 1 0
