Color-Correction/LUTs/GH5/Basic/CRFTSHO/Vlog-709 Tungsten-3_1.PB__3315.cube
TITLE "Generated by Resolve"
LUT_3D_SIZE 5
0 0 0
0.124147 0 0
0.412604 0 0
0.8645 0 0
1 0 0
0 0.156405 0
0.158373 0.149767 0
0.738567 0.081651 0
1 0 0
1 0 0
0 0.628977 0
0 0.620951 0
0.583825 0.574151 0
1 0.507927 0
1 0.437034 0
0 1 0
0 1 0
0.343206 1 0
1 1 0
1 1 0
0 1 0
0 1 0
0.108843 1 0
0.796536 1 0
1 1 0
0 0 0.127398
0.120928 0 0.133516
0.410803 0 0.0994278
0.940658 0 0.069398
1 0 0.0267491
0 0.160601 0.199481
0.144137 0.138018 0.185626
0.743313 0.0735485 0.127718
1 0 0.0456855
1 0 0
0 0.62533 0.0504005
0 0.61828 0.0430304
0.581903 0.572183 0.0142214
1 0.505974 0
1 0.442084 0
0 1 0
0 1 0
0.347768 1 0
1 1 0
1 1 0
0 1 0
0 1 0
0.110079 1 0
0.795758 1 0
1 1 0
0 0 0.447913
0.106416 0 0.455894
0.403265 0 0.442618
0.998108 0 0.519936
1 0 0.577676
0 0.135683 0.710094
0.113893 0.11252 0.812879
0.715801 0.0462348 0.79382
1 0 0.695369
1 0 0.589136
0 0.603952 0.692485
0 0.597879 0.687327
0.564538 0.554772 0.644327
1 0.492042 0.581735
1 0.431418 0.518196
0 1 0.449027
0 1 0.450477
0.347677 1 0.431678
1 1 0.39118
1 0.991257 0.338048
0 1 0.201541
0 1 0.235462
0.1019 1 0.210391
0.78558 1 0.170474
1 1 0.130678
0 0 0.832792
0.0737926 0 0.861402
0.401343 0 0.93756
1 0 1
1 0 1
0 0.0908522 1
0.0628061 0.0704051 1
0.665522 0.00691234 1
1 0 1
1 0 1
0 0.565667 1
0 0.559976 1
0.528984 0.519402 1
1 0.463478 1
1 0.40267 1
0 1 1
0 1 1
0.328847 1 1
0.991302 1 1
1 0.962692 1
0 1 0.96968
0 1 0.980438
0.0790723 1 0.945998
0.763912 1 0.900893
1 1 0.851011
0 0 1
0.0322881 0 1
0.397253 0 1
1 0 1
1 0 1
0 0.0449683 1
0 0.0167544 1
0.598947 0 1
1 0 1
1 0 1
0 0.517815 1
0 0.511727 1
0.482368 0.473518 1
1 0.430777 1
1 0.366766 1
0 1 1
0 1 1
0.294728 1 1
0.957107 0.976928 1
1 0.926726 1
0 1 1
0 1 1
0.0524758 1 1
0.732631 1 1
1 1 1
