Color-Correction/LUTs/GH5/PANASONIC_EE_LOG_709(not good).cube
# Alexa conversion LUT, logc2video, itu709. Full in/full out. CD_v6
# created by alexalutconv (2.10)
LUT_3D_SIZE 33
0.000000 0.000000 0.000000
0.000000 0.000000 0.000000
0.002121 0.000000 0.000015
0.024927 0.000000 0.000181
0.051407 0.000000 0.000373
0.082548 0.000000 0.000629
0.115951 0.000000 0.001000
0.152742 0.000000 0.001545
0.193907 0.000000 0.002341
0.242832 0.000000 0.003575
0.302712 0.000000 0.005564
0.369859 0.000000 0.008495
0.440578 0.000000 0.012477
0.511474 0.000000 0.017486
0.581881 0.000000 0.023565
0.651698 0.000000 0.030770
0.720655 0.000000 0.039119
0.788463 0.000000 0.048604
0.854822 0.000000 0.059136
0.919430 0.000000 0.069734
0.980211 0.000000 0.079705
1.000000 0.000000 0.087945
1.000000 0.000000 0.094526
1.000000 0.000000 0.099643
1.000000 0.000000 0.103492
1.000000 0.000000 0.106266
1.000000 0.000000 0.108161
1.000000 0.000000 0.109373
1.000000 0.000000 0.110096
1.000000 0.000000 0.110524
1.000000 0.000000 0.110853
1.000000 0.000000 0.111052
1.000000 0.000000 0.111052
0.000000 0.000000 0.000000
0.000000 0.000000 0.000000
0.002121 0.000000 0.000015
0.024927 0.000000 0.000181
0.051407 0.000000 0.000373
0.082548 0.000000 0.000629
0.115951 0.000000 0.001000
0.152742 0.000000 0.001545
0.193907 0.000000 0.002341
0.242832 0.000000 0.003575
0.302712 0.000000 0.005564
0.369859 0.000000 0.008495
0.440578 0.000000 0.012477
0.511474 0.000000 0.017486
0.581881 0.000000 0.023565
0.651698 0.000000 0.030770
0.720655 0.000000 0.039119
0.788463 0.000000 0.048604
0.854822 0.000000 0.059136
0.919430 0.000000 0.069734
0.980211 0.000000 0.079705
1.000000 0.000000 0.087945
1.000000 0.000000 0.094526
1.000000 0.000000 0.099643
1.000000 0.000000 0.103492
1.000000 0.000000 0.106266
1.000000 0.000000 0.108161
1.000000 0.000000 0.109373
1.000000 0.000000 0.110096
1.000000 0.000000 0.110524
1.000000 0.000000 0.110853
1.000000 0.000000 0.111052
1.000000 0.000000 0.111052
0.000000 0.001832 0.000000
0.000000 0.001832 0.000000
0.001548 0.001784 0.000000
0.024355 0.001266 0.000007
0.050834 0.000665 0.000199
0.082112 0.000000 0.000454
0.115626 0.000000 0.000826
0.152495 0.000000 0.001371
0.193717 0.000000 0.002167
0.242687 0.000000 0.003401
0.302603 0.000000 0.005390
0.369774 0.000000 0.008321
0.440512 0.000000 0.012302
0.511421 0.000000 0.017312
0.581837 0.000000 0.023391
0.651661 0.000000 0.030595
0.720623 0.000000 0.038945
0.788435 0.000000 0.048430
0.854797 0.000000 0.058967
0.919408 0.000000 0.069583
0.980191 0.000000 0.079568
1.000000 0.000000 0.087819
1.000000 0.000000 0.094408
1.000000 0.000000 0.099530
1.000000 0.000000 0.103382
1.000000 0.000000 0.106158
1.000000 0.000000 0.108056
1.000000 0.000000 0.109269
1.000000 0.000000 0.109992
1.000000 0.000000 0.110421
1.000000 0.000000 0.110750
1.000000 0.000000 0.110949
1.000000 0.000000 0.110949
0.000000 0.021535 0.000000
0.000000 0.021535 0.000000
0.000000 0.021486 0.000000
0.018193 0.020968 0.000000
0.044672 0.020367 0.000000
0.077293 0.019568 0.000000
0.112073 0.018403 0.000000
0.149812 0.016700 0.000000
0.191663 0.014207 0.000292
0.241119 0.010342 0.001527
0.301421 0.004117 0.003516
0.368871 0.000000 0.006447
0.439804 0.000000 0.010428
0.510851 0.000000 0.015438
0.581363 0.000000 0.021517
0.651262 0.000000 0.028721
0.720280 0.000000 0.037071
0.788136 0.000000 0.046556
0.854534 0.000000 0.057131
0.919172 0.000000 0.067947
0.979978 0.000000 0.078090
1.000000 0.000000 0.086454
1.000000 0.000000 0.093124
1.000000 0.000000 0.098304
1.000000 0.000000 0.102196
1.000000 0.000000 0.105001
1.000000 0.000000 0.106917
1.000000 0.000000 0.108141
1.000000 0.000000 0.108871
1.000000 0.000000 0.109305
1.000000 0.000000 0.109637
1.000000 0.000000 0.109838
1.000000 0.000000 0.109838
0.000000 0.044411 0.000000
0.000000 0.044411 0.000000
0.000000 0.044362 0.000000
0.011038 0.043844 0.000000
0.037518 0.043242 0.000000
0.071393 0.042443 0.000000
0.107813 0.041279 0.000000
0.146633 0.039576 0.000000
0.189246 0.037083 0.000000
0.239284 0.033218 0.000000
0.300040 0.026993 0.001340
0.367818 0.017818 0.004271
0.438980 0.005356 0.008252
0.510186 0.000000 0.013263
0.580814 0.000000 0.019341
0.650797 0.000000 0.026545
0.719881 0.000000 0.034895
0.787789 0.000000 0.044381
0.854227 0.000000 0.054959
0.918898 0.000000 0.066011
0.979730 0.000000 0.076346
1.000000 0.000000 0.084847
1.000000 0.000000 0.091613
1.000000 0.000000 0.096863
1.000000 0.000000 0.100804
1.000000 0.000000 0.103642
1.000000 0.000000 0.105580
1.000000 0.000000 0.106818
1.000000 0.000000 0.107557
1.000000 0.000000 0.107995
1.000000 0.000000 0.108331
1.000000 0.000000 0.108534
1.000000 0.000000 0.108534
0.000000 0.073163 0.000000
0.000000 0.073163 0.000000
0.000000 0.073123 0.000000
0.001528 0.072689 0.000000
0.028008 0.072183 0.000000
0.062951 0.071507 0.000000
0.101901 0.070513 0.000000
0.142293 0.069042 0.000000
0.185978 0.066847 0.000000
0.236818 0.063340 0.000000
0.298192 0.057394 0.000000
0.366412 0.048227 0.001379
0.437881 0.035765 0.005360
0.509299 0.020082 0.010370
0.580082 0.001052 0.016449
0.650180 0.000000 0.023654
0.719351 0.000000 0.032003
0.787326 0.000000 0.041488
0.853819 0.000000 0.052067
0.918534 0.000000 0.063375
0.979401 0.000000 0.073980
1.000000 0.000000 0.082672
1.000000 0.000000 0.089573
1.000000 0.000000 0.094918
1.000000 0.000000 0.098926
1.000000 0.000000 0.101811
1.000000 0.000000 0.103780
1.000000 0.000000 0.105037
1.000000 0.000000 0.105787
1.000000 0.000000 0.106231
1.000000 0.000000 0.106572
1.000000 0.000000 0.106778
1.000000 0.000000 0.106778
0.000000 0.104819 0.000000
0.000000 0.104819 0.000000
0.000000 0.104789 0.000000
0.000000 0.104467 0.000000
0.014158 0.104091 0.000000
0.049358 0.103590 0.000000
0.092708 0.102856 0.000000
0.135718 0.101773 0.000000
0.181099 0.100171 0.000000
0.233168 0.097641 0.000000
0.295474 0.093443 0.000000
0.364351 0.086949 0.000000
0.436274 0.077436 0.001148
0.508006 0.064021 0.006158
0.579013 0.045339 0.012237
0.649277 0.022787 0.019441
0.718577 0.000000 0.027791
0.786652 0.000000 0.037276
0.853225 0.000000 0.047855
0.918004 0.000000 0.059397
0.978921 0.000000 0.070431
1.000000 0.000000 0.079421
1.000000 0.000000 0.086532
1.000000 0.000000 0.092024
1.000000 0.000000 0.096136
1.000000 0.000000 0.099091
1.000000 0.000000 0.101106
1.000000 0.000000 0.102393
1.000000 0.000000 0.103160
1.000000 0.000000 0.103614
1.000000 0.000000 0.103963
1.000000 0.000000 0.104174
1.000000 0.000000 0.104174
0.000000 0.139687 0.000000
0.000000 0.139687 0.000000
0.000000 0.139664 0.000000
0.000000 0.139419 0.000000
0.000000 0.139134 0.000000
0.029100 0.138754 0.000000
0.077685 0.138199 0.000000
0.125482 0.137383 0.000000
0.173683 0.136181 0.000000
0.227701 0.134295 0.000000
0.291439 0.131199 0.000000
0.361308 0.126500 0.000000
0.433908 0.119831 0.000000
0.506105 0.110901 0.000000
0.577444 0.099088 0.006077
0.647956 0.083271 0.013281
0.717443 0.061279 0.021630
0.785665 0.031733 0.031115
0.852353 0.000000 0.041694
0.917227 0.000000 0.053293
0.978219 0.000000 0.064993
1.000000 0.000000 0.074471
1.000000 0.000000 0.081919
1.000000 0.000000 0.087648
1.000000 0.000000 0.091924
1.000000 0.000000 0.094992
1.000000 0.000000 0.097081
1.000000 0.000000 0.098413
1.000000 0.000000 0.099207
1.000000 0.000000 0.099677
1.000000 0.000000 0.100038
1.000000 0.000000 0.100256
1.000000 0.000000 0.100256
0.000000 0.178700 0.000000
0.000000 0.178700 0.000000
0.000000 0.178683 0.000000
0.000000 0.178494 0.000000
0.000000 0.178275 0.000000
0.000000 0.177984 0.000000
0.050716 0.177559 0.000000
0.108847 0.176935 0.000000
0.162154 0.176017 0.000000
0.219403 0.174583 0.000000
0.285400 0.172247 0.000000
0.356791 0.168738 0.000000
0.430413 0.163839 0.000000
0.503304 0.157440 0.000000
0.575137 0.149282 0.000000
0.646014 0.138966 0.004264
0.715779 0.125944 0.012614
0.784217 0.109347 0.022099
0.851077 0.087603 0.032678
0.916087 0.057102 0.044277
0.977189 0.019113 0.056414
1.000000 0.000000 0.066748
1.000000 0.000000 0.074775
1.000000 0.000000 0.080901
1.000000 0.000000 0.085452
1.000000 0.000000 0.088704
1.000000 0.000000 0.090915
1.000000 0.000000 0.092324
1.000000 0.000000 0.093161
1.000000 0.000000 0.093657
1.000000 0.000000 0.094038
1.000000 0.000000 0.094269
1.000000 0.000000 0.094269
0.000000 0.225067 0.000000
0.000000 0.225067 0.000000
0.000000 0.225053 0.000000
0.000000 0.224909 0.000000
0.000000 0.224743 0.000000
0.000000 0.224520 0.000000
0.004748 0.224195 0.000000
0.077176 0.223720 0.000000
0.142297 0.223021 0.000000
0.205739 0.221933 0.000000
0.275698 0.220167 0.000000
0.349629 0.217532 0.000000
0.424912 0.213891 0.000000
0.498916 0.209202 0.000000
0.571533 0.203341 0.000000
0.642986 0.196130 0.000000
0.713187 0.187368 0.000000
0.781963 0.176814 0.008119
0.849091 0.164149 0.018698
0.914317 0.148920 0.030297
0.975588 0.131015 0.042434
1.000000 0.112442 0.053401
1.000000 0.093923 0.062558
1.000000 0.076032 0.069472
1.000000 0.059414 0.074553
1.000000 0.045498 0.078160
1.000000 0.035759 0.080602
1.000000 0.029452 0.082152
1.000000 0.025659 0.083073
1.000000 0.023399 0.083618
1.000000 0.021659 0.084036
1.000000 0.020604 0.084289
1.000000 0.020604 0.084289
0.000000 0.281818 0.000000
0.000000 0.281818 0.000000
0.000000 0.281807 0.000000
0.000000 0.281698 0.000000
0.000000 0.281572 0.000000
0.000000 0.281404 0.000000
0.000000 0.281159 0.000000
0.005682 0.280801 0.000000
0.102501 0.280274 0.000000
0.181178 0.279456 0.000000
0.259083 0.278131 0.000000
0.337657 0.276165 0.000000
0.415836 0.273463 0.000000
0.491729 0.270016 0.000000
0.565656 0.265756 0.000000
0.638061 0.260592 0.000000
0.708981 0.254443 0.000000
0.778312 0.247224 0.000000
0.845877 0.238851 0.000000
0.911454 0.229237 0.007779
0.973003 0.218624 0.019916
1.000000 0.208474 0.030883
1.000000 0.199302 0.040268
1.000000 0.191401 0.047960
1.000000 0.184949 0.053978
1.000000 0.179995 0.058415
1.000000 0.176448 0.061401
1.000000 0.174108 0.063285
1.000000 0.172684 0.064399
1.000000 0.171830 0.065057
1.000000 0.171168 0.065560
1.000000 0.170766 0.065864
1.000000 0.170766 0.065864
0.000000 0.345454 0.000000
0.000000 0.345454 0.000000
0.000000 0.345446 0.000000
0.000000 0.345363 0.000000
0.000000 0.345266 0.000000
0.000000 0.345138 0.000000
0.000000 0.344950 0.000000
0.000000 0.344676 0.000000
0.006289 0.344274 0.000000
0.136122 0.343651 0.000000
0.231837 0.342642 0.000000
0.318901 0.341148 0.000000
0.401932 0.339105 0.000000
0.480853 0.336511 0.000000
0.556826 0.333325 0.000000
0.630699 0.329498 0.000000
0.702712 0.324986 0.000000
0.772883 0.319758 0.000000
0.841106 0.313790 0.000000
0.907209 0.307070 0.000000
0.969172 0.299825 0.000000
1.000000 0.293077 0.000000
1.000000 0.287137 0.007081
1.000000 0.282148 0.014774
1.000000 0.278165 0.020791
1.000000 0.275163 0.025255
1.000000 0.273044 0.028366
1.000000 0.271662 0.030381
1.000000 0.270826 0.031593
1.000000 0.270326 0.032314
1.000000 0.269941 0.032870
1.000000 0.269707 0.033208
1.000000 0.269707 0.033208
0.000000 0.412476 0.000000
0.000000 0.412476 0.000000
0.000000 0.412470 0.000000
0.000000 0.412405 0.000000
0.000000 0.412329 0.000000
0.000000 0.412228 0.000000
0.000000 0.412082 0.000000
0.000000 0.411867 0.000000
0.000000 0.411552 0.000000
0.028194 0.411064 0.000000
0.187040 0.410276 0.000000
0.290811 0.409110 0.000000
0.381901 0.407519 0.000000
0.465487 0.405504 0.000000
0.544492 0.403041 0.000000
0.620488 0.400094 0.000000
0.694059 0.396641 0.000000
0.765413 0.392667 0.000000
0.834557 0.388167 0.000000
0.901392 0.383151 0.000000
0.963930 0.377802 0.000000
1.000000 0.372879 0.000000
1.000000 0.368593 0.000000
1.000000 0.365029 0.000000
1.000000 0.362207 0.000000
1.000000 0.360095 0.000000
1.000000 0.358613 0.000000
1.000000 0.357648 0.000000
1.000000 0.357066 0.000000
1.000000 0.356719 0.000000
1.000000 0.356452 0.000000
1.000000 0.356290 0.000000
1.000000 0.356290 0.000000
0.000000 0.479667 0.000000
0.000000 0.479667 0.000000
0.000000 0.479662 0.000000
0.000000 0.479609 0.000000
0.000000 0.479548 0.000000
0.000000 0.479467 0.000000
0.000000 0.479348 0.000000
0.000000 0.479175 0.000000
0.000000 0.478921 0.000000
0.000000 0.478527 0.000000
0.102697 0.477892 0.000000
0.249526 0.476953 0.000000
0.354437 0.475673 0.000000
0.445059 0.474055 0.000000
0.528366 0.472082 0.000000
0.607272 0.469729 0.000000
0.682933 0.466979 0.000000
0.755851 0.463828 0.000000
0.826202 0.460277 0.000000
0.893987 0.456337 0.000000
0.957269 0.452163 0.000000
1.000000 0.448343 0.000000
1.000000 0.445037 0.000000
1.000000 0.442301 0.000000
1.000000 0.440144 0.000000
1.000000 0.438535 0.000000
1.000000 0.437408 0.000000
1.000000 0.436676 0.000000
1.000000 0.436235 0.000000
1.000000 0.435972 0.000000
1.000000 0.435770 0.000000
1.000000 0.435647 0.000000
1.000000 0.435647 0.000000
0.000000 0.546392 0.000000
0.000000 0.546392 0.000000
0.000000 0.546388 0.000000
0.000000 0.546345 0.000000
0.000000 0.546294 0.000000
0.000000 0.546227 0.000000
0.000000 0.546129 0.000000
0.000000 0.545985 0.000000
0.000000 0.545775 0.000000
0.000000 0.545450 0.000000
0.000000 0.544924 0.000000
0.183918 0.544148 0.000000
0.316667 0.543091 0.000000
0.418336 0.541757 0.000000
0.507781 0.540132 0.000000
0.590637 0.538197 0.000000
0.669053 0.535941 0.000000
0.743995 0.533362 0.000000
0.815885 0.530463 0.000000
0.884873 0.527258 0.000000
0.949088 0.523874 0.000000
1.000000 0.520788 0.000000
1.000000 0.518127 0.000000
1.000000 0.515930 0.000000
1.000000 0.514202 0.000000
1.000000 0.512915 0.000000
1.000000 0.512015 0.000000
1.000000 0.511431 0.000000
1.000000 0.511080 0.000000
1.000000 0.510870 0.000000
1.000000 0.510708 0.000000
1.000000 0.510610 0.000000
1.000000 0.510610 0.000000
0.000000 0.612560 0.000000
0.000000 0.612560 0.000000
0.000000 0.612556 0.000000
0.000000 0.612520 0.000000
0.000000 0.612477 0.000000
0.000000 0.612420 0.000000
0.000000 0.612338 0.000000
0.000000 0.612217 0.000000
0.000000 0.612039 0.000000
0.000000 0.611764 0.000000
0.000000 0.611320 0.000000
0.025050 0.610665 0.000000
0.262349 0.609775 0.000000
0.383200 0.608651 0.000000
0.481704 0.607283 0.000000
0.569977 0.605656 0.000000
0.652022 0.603762 0.000000
0.729560 0.601600 0.000000
0.803393 0.599175 0.000000
0.873880 0.596499 0.000000
0.939247 0.593679 0.000000
0.992735 0.591115 0.000000
1.000000 0.588906 0.000000
1.000000 0.587088 0.000000
1.000000 0.585659 0.000000
1.000000 0.584595 0.000000
1.000000 0.583853 0.000000
1.000000 0.583371 0.000000
1.000000 0.583081 0.000000
1.000000 0.582909 0.000000
1.000000 0.582775 0.000000
1.000000 0.582694 0.000000
1.000000 0.582694 0.000000
0.000000 0.677913 0.000000
0.000000 0.677913 0.000000
0.000000 0.677910 0.000000
0.000000 0.677878 0.000000
0.000000 0.677841 0.000000
0.000000 0.677792 0.000000
0.000000 0.677721 0.000000
0.000000 0.677617 0.000000
0.000000 0.677465 0.000000
0.000000 0.677229 0.000000
0.000000 0.676848 0.000000
0.000000 0.676286 0.000000
0.172841 0.675521 0.000000
0.335949 0.674557 0.000000
0.448691 0.673385 0.000000
0.544562 0.671992 0.000000
0.631408 0.670372 0.000000
0.712267 0.668524 0.000000
0.788530 0.666454 0.000000
0.860864 0.664174 0.000000
0.927637 0.661775 0.000000
0.982103 0.659596 0.000000
1.000000 0.657722 0.000000
1.000000 0.656181 0.000000
1.000000 0.654971 0.000000
1.000000 0.654071 0.000000
1.000000 0.653444 0.000000
1.000000 0.653036 0.000000
1.000000 0.652791 0.000000
1.000000 0.652645 0.000000
1.000000 0.652532 0.000000
1.000000 0.652464 0.000000
1.000000 0.652464 0.000000
0.000000 0.742176 0.000000
0.000000 0.742176 0.000000
0.000000 0.742173 0.000000
0.000000 0.742145 0.000000
0.000000 0.742113 0.000000
0.000000 0.742070 0.000000
0.000000 0.742009 0.000000
0.000000 0.741918 0.000000
0.000000 0.741785 0.000000
0.000000 0.741579 0.000000
0.000000 0.741247 0.000000
0.000000 0.740758 0.000000
0.000000 0.740092 0.000000
0.268324 0.739253 0.000000
0.406435 0.738234 0.000000
0.513405 0.737022 0.000000
0.606697 0.735614 0.000000
0.691814 0.734010 0.000000
0.771105 0.732214 0.000000
0.845697 0.730237 0.000000
0.914166 0.728160 0.000000
0.969802 0.726275 0.000000
1.000000 0.724657 0.000000
1.000000 0.723326 0.000000
1.000000 0.722283 0.000000
1.000000 0.721507 0.000000
1.000000 0.720965 0.000000
1.000000 0.720614 0.000000
1.000000 0.720403 0.000000
1.000000 0.720277 0.000000
1.000000 0.720180 0.000000
1.000000 0.720121 0.000000
1.000000 0.720121 0.000000
0.000000 0.805066 0.000000
0.000000 0.805066 0.000000
0.000000 0.805064 0.000000
0.000000 0.805039 0.000000
0.000000 0.805011 0.000000
0.000000 0.804974 0.000000
0.000000 0.804919 0.000000
0.000000 0.804839 0.000000
0.000000 0.804721 0.000000
0.000000 0.804540 0.000000
0.000000 0.804247 0.000000
0.000000 0.803815 0.000000
0.000000 0.803228 0.000000
0.149844 0.802488 0.000000
0.350633 0.801588 0.000000
0.475059 0.800521 0.000000
0.577242 0.799281 0.000000
0.667867 0.797868 0.000000
0.750931 0.796288 0.000000
0.828268 0.794550 0.000000
0.898767 0.792726 0.000000
0.955787 0.791071 0.000000
1.000000 0.789652 0.000000
1.000000 0.788485 0.000000
1.000000 0.787570 0.000000
1.000000 0.786891 0.000000
1.000000 0.786416 0.000000
1.000000 0.786109 0.000000
1.000000 0.785924 0.000000
1.000000 0.785814 0.000000
1.000000 0.785730 0.000000
1.000000 0.785678 0.000000
1.000000 0.785678 0.000000
0.000000 0.866296 0.000000
0.000000 0.866296 0.000000
0.000000 0.866295 0.000000
0.000000 0.866273 0.000000
0.000000 0.866248 0.000000
0.000000 0.866214 0.000000
0.000000 0.866165 0.000000
0.000000 0.866094 0.000000
0.000000 0.865989 0.000000
0.000000 0.865827 0.000000
0.000000 0.865565 0.000000
0.000000 0.865180 0.000000
0.000000 0.864656 0.000000
0.000000 0.863995 0.000000
0.270991 0.863193 0.000000
0.427159 0.862241 0.000000
0.542165 0.861135 0.000000
0.640032 0.859877 0.000000
0.727816 0.858470 0.000000
0.808486 0.856923 0.000000
0.881398 0.855299 0.000000
0.940043 0.853829 0.000000
0.986039 0.852566 0.000000
1.000000 0.851530 0.000000
1.000000 0.850718 0.000000
1.000000 0.850115 0.000000
1.000000 0.849694 0.000000
1.000000 0.849421 0.000000
1.000000 0.849257 0.000000
1.000000 0.849160 0.000000
1.000000 0.849084 0.000000
1.000000 0.849039 0.000000
1.000000 0.849039 0.000000
0.000000 0.923900 0.000000
0.000000 0.923900 0.000000
0.000000 0.923898 0.000000
0.000000 0.923879 0.000000
0.000000 0.923856 0.000000
0.000000 0.923826 0.000000
0.000000 0.923782 0.000000
0.000000 0.923717 0.000000
0.000000 0.923622 0.000000
0.000000 0.923476 0.000000
0.000000 0.923239 0.000000
0.000000 0.922890 0.000000
0.000000 0.922416 0.000000
0.000000 0.921819 0.000000
0.128001 0.921094 0.000000
0.367256 0.920234 0.000000
0.501501 0.919235 0.000000
0.608818 0.918098 0.000000
0.702366 0.916828 0.000000
0.786953 0.915431 0.000000
0.862634 0.913966 0.000000
0.923113 0.912640 0.000000
0.970355 0.911502 0.000000
1.000000 0.910568 0.000000
1.000000 0.909837 0.000000
1.000000 0.909293 0.000000
1.000000 0.908914 0.000000
1.000000 0.908669 0.000000
1.000000 0.908521 0.000000
1.000000 0.908433 0.000000
1.000000 0.908365 0.000000
1.000000 0.908324 0.000000
1.000000 0.908324 0.000000
0.000000 0.971513 0.000000
0.000000 0.971513 0.000000
0.000000 0.971511 0.000000
0.000000 0.971492 0.000000
0.000000 0.971472 0.000000
0.000000 0.971443 0.000000
0.000000 0.971402 0.000000
0.000000 0.971343 0.000000
0.000000 0.971255 0.000000
0.000000 0.971119 0.000000
0.000000 0.970901 0.000000
0.000000 0.970579 0.000000
0.000000 0.970141 0.000000
0.000000 0.969589 0.000000
0.000000 0.968919 0.000000
0.298444 0.968124 0.000000
0.460148 0.967201 0.000000
0.578410 0.966152 0.000000
0.678104 0.964978 0.000000
0.766688 0.963690 0.000000
0.845117 0.962338 0.000000
0.907388 0.961115 0.000000
0.955835 0.960066 0.000000
0.992854 0.959205 0.000000
1.000000 0.958530 0.000000
1.000000 0.958029 0.000000
1.000000 0.957680 0.000000
1.000000 0.957454 0.000000
1.000000 0.957318 0.000000
1.000000 0.957237 0.000000
1.000000 0.957174 0.000000
1.000000 0.957136 0.000000
1.000000 0.957136 0.000000
0.000000 1.000000 0.000000
0.000000 1.000000 0.000000
0.000000 1.000000 0.000000
0.000000 1.000000 0.000000
0.000000 1.000000 0.000000
0.000000 1.000000 0.000000
0.000000 1.000000 0.000000
0.000000 1.000000 0.000000
0.000000 1.000000 0.000000
0.000000 1.000000 0.000000
0.000000 1.000000 0.000000
0.000000 1.000000 0.000000
0.000000 1.000000 0.000000
0.000000 1.000000 0.000000
0.000000 1.000000 0.000000
0.216419 1.000000 0.000000
0.420000 1.000000 0.000000
0.550370 1.000000 0.000000
0.656248 1.000000 0.000000
0.748669 1.000000 0.000000
0.829667 1.000000 0.000000
0.893584 0.999752 0.000000
0.943127 0.998766 0.000000
0.980893 0.997957 0.000000
1.000000 0.997323 0.000000
1.000000 0.996852 0.000000
1.000000 0.996524 0.000000
1.000000 0.996312 0.000000
1.000000 0.996184 0.000000
1.000000 0.996108 0.000000
1.000000 0.996049 0.000000
1.000000 0.996013 0.000000
1.000000 0.996013 0.000000
0.000000 1.000000 0.000000
0.000000 1.000000 0.000000
0.000000 1.000000 0.000000
0.000000 1.000000 0.000000
0.000000 1.000000 0.000000
0.000000 1.000000 0.000000
0.000000 1.000000 0.000000
0.000000 1.000000 0.000000
0.000000 1.000000 0.000000
0.000000 1.000000 0.000000
0.000000 1.000000 0.000000
0.000000 1.000000 0.000000
0.000000 1.000000 0.000000
0.000000 1.000000 0.000000
0.000000 1.000000 0.000000
0.098234 1.000000 0.000000
0.382549 1.000000 0.000000
0.525718 1.000000 0.000000
0.637482 1.000000 0.000000
0.733389 1.000000 0.000000
0.816663 1.000000 0.000000
0.882018 1.000000 0.000000
0.932508 1.000000 0.000000
0.970915 1.000000 0.000000
0.999376 1.000000 0.000000
1.000000 1.000000 0.000000
1.000000 1.000000 0.000000
1.000000 1.000000 0.000000
1.000000 1.000000 0.000000
1.000000 1.000000 0.000000
1.000000 1.000000 0.000000
1.000000 1.000000 0.000000
1.000000 1.000000 0.000000
0.000000 1.000000 0.000000
0.000000 1.000000 0.000000
0.000000 1.000000 0.000000
0.000000 1.000000 0.000000
0.000000 1.000000 0.000000
0.000000 1.000000 0.000000
0.000000 1.000000 0.000000
0.000000 1.000000 0.000000
0.000000 1.000000 0.000000
0.000000 1.000000 0.000000
0.000000 1.000000 0.000000
0.000000 1.000000 0.000000
0.000000 1.000000 0.000000
0.000000 1.000000 0.000000
0.000000 1.000000 0.000000
0.000000 1.000000 0.000000
0.349286 1.000000 0.000000
0.505190 1.000000 0.000000
0.622203 1.000000 0.000000
0.721091 1.000000 0.000000
0.806264 1.000000 0.000000
0.872804 1.000000 0.000000
0.924068 1.000000 0.000000
0.962998 1.000000 0.000000
0.991813 1.000000 0.000000
1.000000 1.000000 0.000000
1.000000 1.000000 0.000000
1.000000 1.000000 0.000000
1.000000 1.000000 0.000000
1.000000 1.000000 0.000000
1.000000 1.000000 0.000000
1.000000 1.000000 0.000000
1.000000 1.000000 0.000000
0.000000 1.000000 0.000000
0.000000 1.000000 0.000000
0.000000 1.000000 0.000000
0.000000 1.000000 0.000000
0.000000 1.000000 0.000000
0.000000 1.000000 0.000000
0.000000 1.000000 0.000000
0.000000 1.000000 0.000000
0.000000 1.000000 0.000000
0.000000 1.000000 0.000000
0.000000 1.000000 0.000000
0.000000 1.000000 0.000000
0.000000 1.000000 0.000000
0.000000 1.000000 0.000000
0.000000 1.000000 0.000000
0.000000 1.000000 0.000000
0.321531 1.000000 0.000000
0.489145 1.000000 0.000000
0.610497 1.000000 0.000000
0.711757 1.000000 0.000000
0.798416 1.000000 0.000000
0.865869 1.000000 0.000000
0.917729 1.000000 0.000000
0.957057 1.000000 0.000000
0.986144 1.000000 0.000000
1.000000 1.000000 0.000000
1.000000 1.000000 0.000000
1.000000 1.000000 0.000000
1.000000 1.000000 0.000000
1.000000 1.000000 0.000000
1.000000 1.000000 0.000000
1.000000 1.000000 0.000000
1.000000 1.000000 0.000000
0.000000 1.000000 0.000000
0.000000 1.000000 0.000000
0.000000 1.000000 0.000000
0.000000 1.000000 0.000000
0.000000 1.000000 0.000000
0.000000 1.000000 0.000000
0.000000 1.000000 0.000000
0.000000 1.000000 0.000000
0.000000 1.000000 0.000000
0.000000 1.000000 0.000000
0.000000 1.000000 0.000000
0.000000 1.000000 0.000000
0.000000 1.000000 0.000000
0.000000 1.000000 0.000000
0.000000 1.000000 0.000000
0.000000 1.000000 0.000000
0.300130 1.000000 0.000000
0.477498 1.000000 0.000000
0.602137 1.000000 0.000000
0.705140 1.000000 0.000000
0.792873 1.000000 0.000000
0.860985 1.000000 0.000000
0.913269 1.000000 0.000000
0.952883 1.000000 0.000000
0.982161 1.000000 0.000000
1.000000 1.000000 0.000000
