Color-Correction/LUTs/GH5/PANASONIC_EE_LOG_709(not good).cube
# Alexa conversion LUT, logc2video, itu709. Full in/full out. CD_v6
# created by alexalutconv (2.10)
LUT_3D_SIZE 5
0.000000 0.000000 0.000000
0.193907 0.000000 0.002341
0.720655 0.000000 0.039119
1.000000 0.000000 0.103492
1.000000 0.000000 0.111052
0.000000 0.178700 0.000000
0.162154 0.176017 0.000000
0.715779 0.125944 0.012614
1.000000 0.000000 0.085452
1.000000 0.000000 0.094269
0.000000 0.677913 0.000000
0.000000 0.677465 0.000000
0.631408 0.670372 0.000000
1.000000 0.654971 0.000000
1.000000 0.652464 0.000000
0.000000 1.000000 0.000000
0.000000 1.000000 0.000000
0.349286 1.000000 0.000000
0.991813 1.000000 0.000000
1.000000 1.000000 0.000000
0.000000 1.000000 0.000000
0.000000 1.000000 0.000000
0.262209 1.000000 0.000000
0.975914 1.000000 0.000000
1.000000 1.000000 0.000000
0.000000 0.000000 0.164544
0.187772 0.000000 0.165472
0.719641 0.000000 0.179365
1.000000 0.000000 0.205359
1.000000 0.000000 0.209162
0.000000 0.157696 0.153615
0.154614 0.154614 0.154614
0.714754 0.093724 0.169479
1.000000 0.000000 0.196952
1.000000 0.000000 0.200942
0.000000 0.674595 0.000000
0.000000 0.674144 0.000000
0.630169 0.666998 0.000000
1.000000 0.651477 0.000000
1.000000 0.648949 0.000000
0.000000 1.000000 0.000000
0.000000 1.000000 0.000000
0.346392 1.000000 0.000000
0.991195 1.000000 0.000000
1.000000 1.000000 0.000000
0.000000 1.000000 0.000000
0.000000 1.000000 0.000000
0.257979 1.000000 0.000000
0.975279 1.000000 0.000000
1.000000 1.000000 0.000000
0.000000 0.000000 0.638124
0.018401 0.000000 0.638281
0.703412 0.000000 0.640732
1.000000 0.000000 0.645877
1.000000 0.000000 0.646692
0.000000 0.000000 0.636348
0.000000 0.000000 0.636506
0.698352 0.000000 0.638967
1.000000 0.000000 0.644133
1.000000 0.000000 0.644951
0.000000 0.618876 0.607407
0.000000 0.618363 0.607576
0.610213 0.610213 0.610213
1.000000 0.592405 0.615742
1.000000 0.589490 0.616617
0.000000 1.000000 0.538223
0.000000 1.000000 0.538425
0.295807 1.000000 0.541573
0.981397 1.000000 0.548153
1.000000 1.000000 0.549192
0.000000 1.000000 0.525922
0.000000 1.000000 0.526131
0.175117 1.000000 0.529387
0.965226 1.000000 0.536186
1.000000 1.000000 0.537258
0.000000 0.000000 1.000000
0.000000 0.000000 1.000000
0.667042 0.000000 1.000000
1.000000 0.000000 1.000000
1.000000 0.000000 1.000000
0.000000 0.000000 1.000000
0.000000 0.000000 1.000000
0.661555 0.000000 1.000000
1.000000 0.000000 1.000000
1.000000 0.000000 1.000000
0.000000 0.466249 0.986871
0.000000 0.465473 0.986951
0.564412 0.453019 0.988209
1.000000 0.424912 0.990863
1.000000 0.420182 0.991285
0.000000 0.973081 0.955937
0.000000 0.972824 0.956022
0.108898 0.968781 0.957343
0.960133 0.960133 0.960133
1.000000 0.958742 0.960576
0.000000 1.000000 0.950858
0.000000 1.000000 0.950943
0.000000 1.000000 0.952276
0.943384 1.000000 0.955087
1.000000 1.000000 0.955535
0.000000 0.000000 1.000000
0.000000 0.000000 1.000000
0.660960 0.000000 1.000000
1.000000 0.000000 1.000000
1.000000 0.000000 1.000000
0.000000 0.000000 1.000000
0.000000 0.000000 1.000000
0.655396 0.000000 1.000000
1.000000 0.000000 1.000000
1.000000 0.000000 1.000000
0.000000 0.434316 1.000000
0.000000 0.433456 1.000000
0.556585 0.419630 1.000000
1.000000 0.388039 1.000000
1.000000 0.382662 1.000000
0.000000 0.962952 1.000000
0.000000 0.962691 1.000000
0.029231 0.958581 1.000000
0.956673 0.949786 1.000000
1.000000 0.948371 1.000000
0.000000 1.000000 0.995647
0.000000 1.000000 0.995726
0.000000 1.000000 0.996966
0.939827 1.000000 0.999583
1.000000 1.000000 1.000000
