Color-Correction/LUTs/GH5/PANASONIC_EE_LOG_709(not good).cube
# Alexa conversion LUT, logc2video, itu709. Full in/full out. CD_v6
# created by alexalutconv (2.10)
LUT_3D_SIZE 9
0.000000 0.000000 0.000000
0.051407 0.000000 0.000373
0.193907 0.000000 0.002341
0.440578 0.000000 0.012477
0.720655 0.000000 0.039119
0.980211 0.000000 0.079705
1.000000 0.000000 0.103492
1.000000 0.000000 0.110096
1.000000 0.000000 0.111052
0.000000 0.044411 0.000000
0.037518 0.043242 0.000000
0.189246 0.037083 0.000000
0.438980 0.005356 0.008252
0.719881 0.000000 0.034895
0.979730 0.000000 0.076346
1.000000 0.000000 0.100804
1.000000 0.000000 0.107557
1.000000 0.000000 0.108534
0.000000 0.178700 0.000000
0.000000 0.178275 0.000000
0.162154 0.176017 0.000000
0.430413 0.163839 0.000000
0.715779 0.125944 0.012614
0.977189 0.019113 0.056414
1.000000 0.000000 0.085452
1.000000 0.000000 0.093161
1.000000 0.000000 0.094269
0.000000 0.412476 0.000000
0.000000 0.412329 0.000000
0.000000 0.411552 0.000000
0.381901 0.407519 0.000000
0.694059 0.396641 0.000000
0.963930 0.377802 0.000000
1.000000 0.362207 0.000000
1.000000 0.357066 0.000000
1.000000 0.356290 0.000000
0.000000 0.677913 0.000000
0.000000 0.677841 0.000000
0.000000 0.677465 0.000000
0.172841 0.675521 0.000000
0.631408 0.670372 0.000000
0.927637 0.661775 0.000000
1.000000 0.654971 0.000000
1.000000 0.652791 0.000000
1.000000 0.652464 0.000000
0.000000 0.923900 0.000000
0.000000 0.923856 0.000000
0.000000 0.923622 0.000000
0.000000 0.922416 0.000000
0.501501 0.919235 0.000000
0.862634 0.913966 0.000000
1.000000 0.909837 0.000000
1.000000 0.908521 0.000000
1.000000 0.908324 0.000000
0.000000 1.000000 0.000000
0.000000 1.000000 0.000000
0.000000 1.000000 0.000000
0.000000 1.000000 0.000000
0.349286 1.000000 0.000000
0.806264 1.000000 0.000000
0.991813 1.000000 0.000000
1.000000 1.000000 0.000000
1.000000 1.000000 0.000000
0.000000 1.000000 0.000000
0.000000 1.000000 0.000000
0.000000 1.000000 0.000000
0.000000 1.000000 0.000000
0.275604 1.000000 0.000000
0.787062 1.000000 0.000000
0.978005 1.000000 0.000000
1.000000 1.000000 0.000000
1.000000 1.000000 0.000000
0.000000 1.000000 0.000000
0.000000 1.000000 0.000000
0.000000 1.000000 0.000000
0.000000 1.000000 0.000000
0.262209 1.000000 0.000000
0.784129 1.000000 0.000000
0.975914 1.000000 0.000000
1.000000 1.000000 0.000000
1.000000 1.000000 0.000000
0.000000 0.000000 0.038468
0.048507 0.000000 0.038842
0.192944 0.000000 0.040809
0.440245 0.000000 0.050945
0.720494 0.000000 0.075447
0.980111 0.000000 0.106230
1.000000 0.000000 0.125539
1.000000 0.000000 0.131094
1.000000 0.000000 0.131904
0.000000 0.035785 0.034244
0.034617 0.034617 0.034617
0.188257 0.028458 0.036585
0.438645 0.000000 0.046721
0.719720 0.000000 0.071941
0.979630 0.000000 0.103606
1.000000 0.000000 0.123301
1.000000 0.000000 0.128950
1.000000 0.000000 0.129773
0.000000 0.175537 0.011963
0.000000 0.175104 0.012336
0.160979 0.172800 0.014304
0.430068 0.160354 0.024440
0.715615 0.121345 0.051082
0.977088 0.010487 0.088663
1.000000 0.000000 0.110785
1.000000 0.000000 0.117010
1.000000 0.000000 0.117915
0.000000 0.411388 0.000000
0.000000 0.411241 0.000000
0.000000 0.410461 0.000000
0.381495 0.406412 0.000000
0.693888 0.395492 0.000000
0.963826 0.376574 0.000000
1.000000 0.360905 0.014178
1.000000 0.355739 0.024980
1.000000 0.354958 0.026595
0.000000 0.677386 0.000000
0.000000 0.677314 0.000000
0.000000 0.676937 0.000000
0.171745 0.674991 0.000000
0.631210 0.669836 0.000000
0.927528 0.661229 0.000000
1.000000 0.654416 0.000000
1.000000 0.652233 0.000000
1.000000 0.651906 0.000000
0.000000 0.923573 0.000000
0.000000 0.923528 0.000000
0.000000 0.923295 0.000000
0.000000 0.922088 0.000000
0.501224 0.918905 0.000000
0.862511 0.913634 0.000000
1.000000 0.909501 0.000000
1.000000 0.908185 0.000000
1.000000 0.907987 0.000000
0.000000 1.000000 0.000000
0.000000 1.000000 0.000000
0.000000 1.000000 0.000000
0.000000 1.000000 0.000000
0.348827 1.000000 0.000000
0.806129 1.000000 0.000000
0.991715 1.000000 0.000000
1.000000 1.000000 0.000000
1.000000 1.000000 0.000000
0.000000 1.000000 0.000000
0.000000 1.000000 0.000000
0.000000 1.000000 0.000000
0.000000 1.000000 0.000000
0.274976 1.000000 0.000000
0.786922 1.000000 0.000000
0.977904 1.000000 0.000000
1.000000 1.000000 0.000000
1.000000 1.000000 0.000000
0.000000 1.000000 0.000000
0.000000 1.000000 0.000000
0.000000 1.000000 0.000000
0.000000 1.000000 0.000000
0.261540 1.000000 0.000000
0.783987 1.000000 0.000000
0.975813 1.000000 0.000000
1.000000 1.000000 0.000000
1.000000 1.000000 0.000000
0.000000 0.000000 0.164544
0.033206 0.000000 0.164692
0.187772 0.000000 0.165472
0.438482 0.000000 0.169426
0.719641 0.000000 0.179365
0.979582 0.000000 0.194478
1.000000 0.000000 0.205359
1.000000 0.000000 0.208672
1.000000 0.000000 0.209162
0.000000 0.000000 0.162855
0.019316 0.000000 0.163005
0.182933 0.000000 0.163794
0.436874 0.000000 0.167791
0.718865 0.000000 0.177830
0.979100 0.000000 0.193079
1.000000 0.000000 0.204046
1.000000 0.000000 0.207384
1.000000 0.000000 0.207877
0.000000 0.157696 0.153615
0.000000 0.157209 0.153775
0.154614 0.154614 0.154614
0.428246 0.140449 0.158860
0.714754 0.093724 0.169479
0.976556 0.000000 0.185499
1.000000 0.000000 0.196952
1.000000 0.000000 0.200428
1.000000 0.000000 0.200942
0.000000 0.405583 0.092359
0.000000 0.405433 0.092618
0.000000 0.404637 0.093971
0.379340 0.400507 0.100698
0.692986 0.389354 0.116724
0.963283 0.369999 0.139288
1.000000 0.353930 0.154561
1.000000 0.348623 0.159083
1.000000 0.347819 0.159748
0.000000 0.674595 0.000000
0.000000 0.674523 0.000000
0.000000 0.674144 0.000000
0.165827 0.672187 0.000000
0.630169 0.666998 0.000000
0.926951 0.658335 0.000000
1.000000 0.651477 0.000000
1.000000 0.649278 0.000000
1.000000 0.648949 0.000000
0.000000 0.921843 0.000000
0.000000 0.921798 0.000000
0.000000 0.921564 0.000000
0.000000 0.920354 0.000000
0.499761 0.917161 0.000000
0.861864 0.911874 0.000000
1.000000 0.907729 0.000000
1.000000 0.906408 0.000000
1.000000 0.906211 0.000000
0.000000 1.000000 0.000000
0.000000 1.000000 0.000000
0.000000 1.000000 0.000000
0.000000 1.000000 0.000000
0.346392 1.000000 0.000000
0.805411 1.000000 0.000000
0.991195 1.000000 0.000000
1.000000 1.000000 0.000000
1.000000 1.000000 0.000000
0.000000 1.000000 0.000000
0.000000 1.000000 0.000000
0.000000 1.000000 0.000000
0.000000 1.000000 0.000000
0.271637 1.000000 0.000000
0.786176 1.000000 0.000000
0.977372 1.000000 0.000000
1.000000 1.000000 0.000000
1.000000 1.000000 0.000000
0.000000 1.000000 0.000000
0.000000 1.000000 0.000000
0.000000 1.000000 0.000000
0.000000 1.000000 0.000000
0.257979 1.000000 0.000000
0.783238 1.000000 0.000000
0.975279 1.000000 0.000000
1.000000 1.000000 0.000000
1.000000 1.000000 0.000000
0.000000 0.000000 0.386317
0.000000 0.000000 0.386369
0.158118 0.000000 0.386640
0.429241 0.000000 0.388032
0.715225 0.000000 0.391659
0.976846 0.000000 0.397523
1.000000 0.000000 0.402002
1.000000 0.000000 0.403407
1.000000 0.000000 0.403617
0.000000 0.000000 0.385734
0.000000 0.000000 0.385785
0.152237 0.000000 0.386057
0.427583 0.000000 0.387453
0.714442 0.000000 0.391087
0.976363 0.000000 0.396963
1.000000 0.000000 0.401449
1.000000 0.000000 0.402858
1.000000 0.000000 0.403068
0.000000 0.000000 0.382639
0.000000 0.000000 0.382691
0.116259 0.000000 0.382966
0.418685 0.000000 0.384377
0.710291 0.000000 0.388051
0.973807 0.000000 0.393989
1.000000 0.000000 0.398522
1.000000 0.000000 0.399945
1.000000 0.000000 0.400157
0.000000 0.373661 0.366122
0.000000 0.373493 0.366177
0.000000 0.372603 0.366469
0.367966 0.367966 0.367966
0.688306 0.355384 0.371864
0.960474 0.333278 0.378154
1.000000 0.314625 0.382949
1.000000 0.308396 0.384451
1.000000 0.307450 0.384676
0.000000 0.659941 0.316973
0.000000 0.659866 0.317040
0.000000 0.659474 0.317394
0.130876 0.657450 0.319209
0.624764 0.652084 0.323917
0.923968 0.643116 0.331464
1.000000 0.636009 0.337178
1.000000 0.633731 0.338963
1.000000 0.633390 0.339229
0.000000 0.912850 0.202018
0.000000 0.912804 0.202136
0.000000 0.912566 0.202755
0.000000 0.911338 0.205912
0.492125 0.908095 0.213950
0.858521 0.902725 0.226435
1.000000 0.898514 0.235598
1.000000 0.897173 0.238415
1.000000 0.896971 0.238833
0.000000 1.000000 0.000000
0.000000 1.000000 0.000000
0.000000 1.000000 0.000000
0.000000 1.000000 0.000000
0.333462 1.000000 0.001111
0.801697 1.000000 0.044912
0.988510 1.000000 0.076571
1.000000 1.000000 0.084932
1.000000 1.000000 0.086126
0.000000 1.000000 0.000000
0.000000 1.000000 0.000000
0.000000 1.000000 0.000000
0.000000 1.000000 0.000000
0.253545 1.000000 0.000000
0.782321 1.000000 0.000000
0.974627 1.000000 0.000000
1.000000 1.000000 0.000000
1.000000 1.000000 0.000000
0.000000 1.000000 0.000000
0.000000 1.000000 0.000000
0.000000 1.000000 0.000000
0.000000 1.000000 0.000000
0.238574 1.000000 0.000000
0.779361 1.000000 0.000000
0.972525 1.000000 0.000000
1.000000 1.000000 0.000000
1.000000 1.000000 0.000000
0.000000 0.000000 0.638124
0.000000 0.000000 0.638150
0.018401 0.000000 0.638281
0.403509 0.000000 0.638958
0.703412 0.000000 0.640732
0.969598 0.000000 0.643634
1.000000 0.000000 0.645877
1.000000 0.000000 0.646586
1.000000 0.000000 0.646692
0.000000 0.000000 0.637842
0.000000 0.000000 0.637867
0.004512 0.000000 0.637999
0.401700 0.000000 0.638676
0.702610 0.000000 0.640452
0.969109 0.000000 0.643355
1.000000 0.000000 0.645599
1.000000 0.000000 0.646308
1.000000 0.000000 0.646414
0.000000 0.000000 0.636348
0.000000 0.000000 0.636373
0.000000 0.000000 0.636506
0.391969 0.000000 0.637186
0.698352 0.000000 0.638967
0.966524 0.000000 0.641881
1.000000 0.000000 0.644133
1.000000 0.000000 0.644844
1.000000 0.000000 0.644951
0.000000 0.263980 0.628570
0.000000 0.263714 0.628596
0.000000 0.262303 0.628731
0.335515 0.254877 0.629423
0.675772 0.233940 0.631238
0.953030 0.193473 0.634205
1.000000 0.153514 0.636497
1.000000 0.138242 0.637222
1.000000 0.135806 0.637330
0.000000 0.618876 0.607407
0.000000 0.618794 0.607434
0.000000 0.618363 0.607576
0.000000 0.616133 0.608304
0.610213 0.610213 0.610213
0.916053 0.600291 0.613333
1.000000 0.592405 0.615742
1.000000 0.589870 0.616504
1.000000 0.589490 0.616617
0.000000 0.888525 0.570017
0.000000 0.888478 0.570047
0.000000 0.888230 0.570202
0.000000 0.886948 0.571002
0.471192 0.883565 0.573098
0.849637 0.877959 0.576520
1.000000 0.873561 0.579160
1.000000 0.872160 0.579994
1.000000 0.871949 0.580118
0.000000 1.000000 0.538223
0.000000 1.000000 0.538255
0.000000 1.000000 0.538425
0.000000 1.000000 0.539295
0.295807 1.000000 0.541573
0.791807 1.000000 0.545289
0.981397 1.000000 0.548153
1.000000 1.000000 0.549057
1.000000 1.000000 0.549192
0.000000 1.000000 0.527546
0.000000 1.000000 0.527579
0.000000 1.000000 0.527753
0.000000 1.000000 0.528649
0.196033 1.000000 0.530995
0.772046 1.000000 0.534819
0.967354 1.000000 0.537764
1.000000 1.000000 0.538693
1.000000 1.000000 0.538832
0.000000 1.000000 0.525922
0.000000 1.000000 0.525956
0.000000 1.000000 0.526131
0.000000 1.000000 0.527031
0.175117 1.000000 0.529387
0.769025 1.000000 0.533227
0.965226 1.000000 0.536186
1.000000 1.000000 0.537119
1.000000 1.000000 0.537258
0.000000 0.000000 0.871482
0.000000 0.000000 0.871498
0.000000 0.000000 0.871580
0.355411 0.000000 0.872001
0.683313 0.000000 0.873106
0.957495 0.000000 0.874919
1.000000 0.000000 0.876324
1.000000 0.000000 0.876768
1.000000 0.000000 0.876835
0.000000 0.000000 0.871307
0.000000 0.000000 0.871322
0.000000 0.000000 0.871404
0.353257 0.000000 0.871826
0.682475 0.000000 0.872931
0.956997 0.000000 0.874744
1.000000 0.000000 0.876149
1.000000 0.000000 0.876595
1.000000 0.000000 0.876661
0.000000 0.000000 0.870380
0.000000 0.000000 0.870395
0.000000 0.000000 0.870477
0.341585 0.000000 0.870899
0.678024 0.000000 0.872006
0.954359 0.000000 0.873822
1.000000 0.000000 0.875231
1.000000 0.000000 0.875676
1.000000 0.000000 0.875743
0.000000 0.000000 0.865579
0.000000 0.000000 0.865595
0.000000 0.000000 0.865678
0.270541 0.000000 0.866103
0.654369 0.000000 0.867220
0.940590 0.000000 0.869052
1.000000 0.000000 0.870472
1.000000 0.000000 0.870921
1.000000 0.000000 0.870989
0.000000 0.540838 0.852761
0.000000 0.540738 0.852777
0.000000 0.540211 0.852862
0.000000 0.537486 0.853297
0.585103 0.530225 0.854440
0.902806 0.517962 0.856314
1.000000 0.508127 0.857767
1.000000 0.504949 0.858227
1.000000 0.504471 0.858295
0.000000 0.846124 0.831014
0.000000 0.846073 0.831031
0.000000 0.845805 0.831119
0.000000 0.844422 0.831571
0.433559 0.840769 0.832761
0.834711 0.834711 0.834711
1.000000 0.829952 0.836222
1.000000 0.828434 0.836701
1.000000 0.828207 0.836772
0.000000 1.000000 0.813473
0.000000 1.000000 0.813490
0.000000 0.999805 0.813582
0.000000 0.998739 0.814050
0.215078 0.995932 0.815279
0.775124 0.991289 0.817294
0.969525 0.987654 0.818855
1.000000 0.986497 0.819349
1.000000 0.986325 0.819423
0.000000 1.000000 0.807788
0.000000 1.000000 0.807805
0.000000 1.000000 0.807897
0.000000 1.000000 0.808371
0.000000 1.000000 0.809613
0.754685 1.000000 0.811649
0.955206 1.000000 0.813227
1.000000 1.000000 0.813727
1.000000 1.000000 0.813801
0.000000 1.000000 0.806932
0.000000 1.000000 0.806950
0.000000 1.000000 0.807042
0.000000 1.000000 0.807516
0.000000 1.000000 0.808761
0.751555 1.000000 0.810800
0.953036 1.000000 0.812380
1.000000 1.000000 0.812881
1.000000 1.000000 0.812955
0.000000 0.000000 1.000000
0.000000 0.000000 1.000000
0.000000 0.000000 1.000000
0.310785 0.000000 1.000000
0.667042 0.000000 1.000000
0.947915 0.000000 1.000000
1.000000 0.000000 1.000000
1.000000 0.000000 1.000000
1.000000 0.000000 1.000000
0.000000 0.000000 1.000000
0.000000 0.000000 1.000000
0.000000 0.000000 1.000000
0.308205 0.000000 1.000000
0.666172 0.000000 1.000000
0.947408 0.000000 1.000000
1.000000 0.000000 1.000000
1.000000 0.000000 1.000000
1.000000 0.000000 1.000000
0.000000 0.000000 1.000000
0.000000 0.000000 1.000000
0.000000 0.000000 1.000000
0.294095 0.000000 1.000000
0.661555 0.000000 1.000000
0.944728 0.000000 1.000000
1.000000 0.000000 1.000000
1.000000 0.000000 1.000000
1.000000 0.000000 1.000000
0.000000 0.000000 0.997113
0.000000 0.000000 0.997126
0.000000 0.000000 0.997193
0.201231 0.000000 0.997534
0.636967 0.000000 0.998430
0.930735 0.000000 0.999900
1.000000 0.000000 1.000000
1.000000 0.000000 1.000000
1.000000 0.000000 1.000000
0.000000 0.466249 0.986871
0.000000 0.466125 0.986884
0.000000 0.465473 0.986951
0.000000 0.462088 0.987298
0.564412 0.453019 0.988209
0.892290 0.437522 0.989703
1.000000 0.424912 0.990863
1.000000 0.420801 0.991230
1.000000 0.420182 0.991285
0.000000 0.810720 0.969661
0.000000 0.810666 0.969673
0.000000 0.810380 0.969743
0.000000 0.808902 0.970100
0.400749 0.804998 0.971036
0.822812 0.798515 0.972571
1.000000 0.793417 0.973763
1.000000 0.791790 0.974140
1.000000 0.791546 0.974197
0.000000 0.973081 0.955937
0.000000 0.973040 0.955951
0.000000 0.972824 0.956022
0.000000 0.971713 0.956386
0.108898 0.968781 0.957343
0.761757 0.963931 0.958914
0.960133 0.960133 0.960133
1.000000 0.958923 0.960518
1.000000 0.958742 0.960576
0.000000 1.000000 0.951521
0.000000 1.000000 0.951534
0.000000 1.000000 0.951605
0.000000 1.000000 0.951973
0.000000 1.000000 0.952937
0.740748 1.000000 0.954519
0.945588 1.000000 0.955746
0.997788 1.000000 0.956135
1.000000 1.000000 0.956193
0.000000 1.000000 0.950858
0.000000 1.000000 0.950872
0.000000 1.000000 0.950943
0.000000 1.000000 0.951310
0.000000 1.000000 0.952276
0.737527 1.000000 0.953859
0.943384 1.000000 0.955087
0.995762 1.000000 0.955476
1.000000 1.000000 0.955535
0.000000 0.000000 1.000000
0.000000 0.000000 1.000000
0.000000 0.000000 1.000000
0.294723 0.000000 1.000000
0.661756 0.000000 1.000000
0.944844 0.000000 1.000000
1.000000 0.000000 1.000000
1.000000 0.000000 1.000000
1.000000 0.000000 1.000000
0.000000 0.000000 1.000000
0.000000 0.000000 1.000000
0.000000 0.000000 1.000000
0.291955 0.000000 1.000000
0.660875 0.000000 1.000000
0.944336 0.000000 1.000000
1.000000 0.000000 1.000000
1.000000 0.000000 1.000000
1.000000 0.000000 1.000000
0.000000 0.000000 1.000000
0.000000 0.000000 1.000000
0.000000 0.000000 1.000000
0.276757 0.000000 1.000000
0.656202 0.000000 1.000000
0.941642 0.000000 1.000000
1.000000 0.000000 1.000000
1.000000 0.000000 1.000000
1.000000 0.000000 1.000000
0.000000 0.000000 1.000000
0.000000 0.000000 1.000000
0.000000 0.000000 1.000000
0.172227 0.000000 1.000000
0.631297 0.000000 1.000000
0.927576 0.000000 1.000000
1.000000 0.000000 1.000000
1.000000 0.000000 1.000000
1.000000 0.000000 1.000000
0.000000 0.438657 1.000000
0.000000 0.438522 1.000000
0.000000 0.437810 1.000000
0.000000 0.434115 1.000000
0.557612 0.424184 1.000000
0.888915 0.407111 1.000000
1.000000 0.393109 1.000000
1.000000 0.388521 1.000000
1.000000 0.387830 1.000000
0.000000 0.798982 1.000000
0.000000 0.798926 1.000000
0.000000 0.798634 1.000000
0.000000 0.797122 1.000000
0.389526 0.793128 1.000000
0.818982 0.786494 1.000000
1.000000 0.781275 1.000000
1.000000 0.779608 1.000000
1.000000 0.779359 1.000000
0.000000 0.964279 0.994770
0.000000 0.964238 0.994783
0.000000 0.964019 0.994850
0.000000 0.962892 0.995192
0.041788 0.959917 0.996091
0.757443 0.954996 0.997567
0.957124 0.951141 0.998713
1.000000 0.949914 0.999076
1.000000 0.949731 0.999129
0.000000 1.000000 0.990623
0.000000 1.000000 0.990635
0.000000 1.000000 0.990702
0.000000 1.000000 0.991047
0.000000 1.000000 0.991952
0.736244 0.999684 0.993438
0.942507 0.996097 0.994591
0.994955 0.994955 0.994955
1.000000 0.994785 0.995010
0.000000 1.000000 0.990000
0.000000 1.000000 0.990013
0.000000 1.000000 0.990080
0.000000 1.000000 0.990425
0.000000 1.000000 0.991331
0.732993 1.000000 0.992818
0.940291 1.000000 0.993972
0.992921 1.000000 0.994338
1.000000 1.000000 0.994392
0.000000 0.000000 1.000000
0.000000 0.000000 1.000000
0.000000 0.000000 1.000000
0.292222 0.000000 1.000000
0.660960 0.000000 1.000000
0.944384 0.000000 1.000000
1.000000 0.000000 1.000000
1.000000 0.000000 1.000000
1.000000 0.000000 1.000000
0.000000 0.000000 1.000000
0.000000 0.000000 1.000000
0.000000 0.000000 1.000000
0.289422 0.000000 1.000000
0.660078 0.000000 1.000000
0.943875 0.000000 1.000000
1.000000 0.000000 1.000000
1.000000 0.000000 1.000000
1.000000 0.000000 1.000000
0.000000 0.000000 1.000000
0.000000 0.000000 1.000000
0.000000 0.000000 1.000000
0.274042 0.000000 1.000000
0.655396 0.000000 1.000000
0.941179 0.000000 1.000000
1.000000 0.000000 1.000000
1.000000 0.000000 1.000000
1.000000 0.000000 1.000000
0.000000 0.000000 1.000000
0.000000 0.000000 1.000000
0.000000 0.000000 1.000000
0.167403 0.000000 1.000000
0.630443 0.000000 1.000000
0.927102 0.000000 1.000000
1.000000 0.000000 1.000000
1.000000 0.000000 1.000000
1.000000 0.000000 1.000000
0.000000 0.434316 1.000000
0.000000 0.434179 1.000000
0.000000 0.433456 1.000000
0.000000 0.429709 1.000000
0.556585 0.419630 1.000000
0.888408 0.402284 1.000000
1.000000 0.388039 1.000000
1.000000 0.383367 1.000000
1.000000 0.382662 1.000000
0.000000 0.797204 1.000000
0.000000 0.797148 1.000000
0.000000 0.796854 1.000000
0.000000 0.795338 1.000000
0.387810 0.791330 1.000000
0.818407 0.784672 1.000000
1.000000 0.779434 1.000000
1.000000 0.777762 1.000000
1.000000 0.777512 1.000000
0.000000 0.962952 1.000000
0.000000 0.962911 1.000000
0.000000 0.962691 1.000000
0.000000 0.961561 1.000000
0.029231 0.958581 1.000000
0.756795 0.953649 1.000000
0.956673 0.949786 1.000000
1.000000 0.948556 1.000000
1.000000 0.948371 1.000000
0.000000 1.000000 0.996264
0.000000 1.000000 0.996277
0.000000 1.000000 0.996343
0.000000 1.000000 0.996685
0.000000 1.000000 0.997582
0.735567 0.998430 0.999054
0.942044 0.994837 1.000000
0.994531 0.993693 1.000000
1.000000 0.993521 1.000000
0.000000 1.000000 0.995647
0.000000 1.000000 0.995660
0.000000 1.000000 0.995726
0.000000 1.000000 0.996068
0.000000 1.000000 0.996966
0.732312 1.000000 0.998440
0.939827 1.000000 0.999583
0.992494 1.000000 0.999946
1.000000 1.000000 1.000000
